; generated by Slic3r 1.37.1-prusa3d-linux64 on 2017-10-17 at 16:29:03

; 

; external perimeters extrusion width = 0.56mm
; perimeters extrusion width = 0.56mm
; infill extrusion width = 0.56mm
; solid infill extrusion width = 0.56mm
; top infill extrusion width = 0.50mm
; first layer extrusion width = 0.60mm

M107
M104 S200 ; set temperature
G28 ; home all axes
G1 Z5 F5000 ; lift nozzle

; Filament gcode

M109 S200 ; set temperature and wait for it to be reached
G21 ; set units to millimeters
G90 ; use absolute coordinates
M82 ; use absolute distances for extrusion
G92 E0
G1 Z0.350 F7800.000
G1 E-2.00000 F2400.00000
G92 E0
G1 X49.835 Y63.326 F7800.000
G1 E2.00000 F2400.00000
G1 F1800
G1 X50.874 Y62.292 E2.04536
G1 X51.776 Y61.688 E2.07896
G1 X52.765 Y61.238 E2.11257
G1 X53.814 Y60.957 E2.14618
G1 X54.895 Y60.851 E2.17978
G1 X145.006 Y60.850 E4.96795
G1 X146.251 Y60.969 E5.00665
G1 X147.458 Y61.323 E5.04555
G1 X148.570 Y61.895 E5.08425
G1 X149.560 Y62.670 E5.12315
G1 X150.382 Y63.612 E5.16185
G1 X151.015 Y64.699 E5.20075
G1 X151.430 Y65.879 E5.23945
G1 X151.615 Y67.122 E5.27835
G1 X151.621 Y132.760 E7.30928
G1 X151.418 Y134.167 E7.35326
G1 X150.917 Y135.505 E7.39745
G1 X150.141 Y136.703 E7.44163
G1 X149.126 Y137.708 E7.48581
G1 X148.224 Y138.312 E7.51942
G1 X147.235 Y138.761 E7.55303
G1 X146.186 Y139.043 E7.58663
G1 X145.105 Y139.149 E7.62024
G1 X54.930 Y139.150 E10.41037
G1 X53.475 Y138.972 E10.45573
G1 X52.095 Y138.479 E10.50109
G1 X50.851 Y137.690 E10.54664
G1 X49.817 Y136.651 E10.59199
G1 X49.216 Y135.755 E10.62540
G1 X48.770 Y134.778 E10.65862
G1 X48.487 Y133.736 E10.69203
G1 X48.377 Y132.662 E10.72544
G1 X48.376 Y67.380 E12.74536
G1 X48.557 Y65.931 E12.79052
G1 X49.052 Y64.558 E12.83568
G1 X49.795 Y63.390 E12.87852
G1 E10.87852 F2400.00000
G92 E0
G1 X143.400 Y130.925 F7800.000
G1 E2.00000 F2400.00000
G1 F1800
G1 X56.600 Y130.925 E4.68572
G1 X56.600 Y69.075 E6.59945
G1 X143.400 Y69.075 E9.28517
G1 X143.400 Y130.850 E11.19659
G1 X144.025 Y131.550 F7800.000
G1 F1800
G1 X55.975 Y131.550 E13.92098
G1 X55.975 Y68.450 E15.87338
G1 X144.025 Y68.450 E18.59777
G1 X144.025 Y131.475 E20.54785
G1 X144.650 Y132.175 F7800.000
G1 F1800
G1 X55.350 Y132.175 E23.31091
G1 X55.350 Y67.825 E25.30199
G1 X144.650 Y67.825 E28.06505
G1 X144.650 Y132.100 E30.05380
G1 X144.161 Y132.072 F7800.000
G1 E28.05380 F2400.00000
G92 E0
G1 X143.213 Y70.529 F7800.000
G1 E2.00000 F2400.00000
G1 F1800
G1 X142.227 Y69.543 E2.04327
G1 X141.340 Y69.543 E2.07078
G1 X142.932 Y71.135 E2.14061
G1 X142.932 Y72.021 E2.16812
G1 X140.454 Y69.543 E2.27686
G1 X139.568 Y69.543 E2.30437
G1 X142.932 Y72.907 E2.45201
G1 X142.932 Y73.794 E2.47951
G1 X138.681 Y69.543 E2.66606
G1 X137.795 Y69.543 E2.69356
G1 X142.932 Y74.680 E2.91901
G1 X142.932 Y75.566 E2.94652
G1 X136.909 Y69.543 E3.21086
G1 X136.022 Y69.543 E3.23837
G1 X142.932 Y76.453 E3.54162
G1 X142.932 Y77.339 E3.56913
G1 X135.136 Y69.543 E3.91128
G1 X134.249 Y69.543 E3.93879
G1 X142.932 Y78.226 E4.31984
G1 X142.932 Y79.112 E4.34735
G1 X133.363 Y69.543 E4.76731
G1 X132.477 Y69.543 E4.79481
G1 X142.932 Y79.998 E5.25367
G1 X142.932 Y80.885 E5.28118
G1 X131.590 Y69.543 E5.77894
G1 X130.704 Y69.543 E5.80645
G1 X142.932 Y81.771 E6.34311
G1 X142.932 Y82.658 E6.37062
G1 X129.817 Y69.543 E6.94619
G1 X128.931 Y69.543 E6.97370
G1 X142.932 Y83.544 E7.58817
G1 X142.932 Y84.430 E7.61568
G1 X128.045 Y69.543 E8.26905
G1 X127.158 Y69.543 E8.29655
G1 X142.932 Y85.317 E8.98883
G1 X142.932 Y86.203 E9.01634
G1 X126.272 Y69.543 E9.74751
G1 X125.386 Y69.543 E9.77502
G1 X142.932 Y87.089 E10.54510
G1 X142.932 Y87.976 E10.57261
G1 X124.499 Y69.543 E11.38159
G1 X123.613 Y69.543 E11.40910
G1 X142.932 Y88.862 E12.25698
G1 X142.932 Y89.749 E12.28449
G1 X122.726 Y69.543 E13.17128
G1 X121.840 Y69.543 E13.19879
G1 X142.932 Y90.635 E14.12448
G1 X142.932 Y91.521 E14.15198
G1 X120.954 Y69.543 E15.11658
G1 X120.067 Y69.543 E15.14408
G1 X142.932 Y92.408 E16.14758
G1 X142.932 Y93.294 E16.17509
G1 X119.181 Y69.543 E17.21748
G1 X118.294 Y69.543 E17.24499
G1 X142.932 Y94.181 E18.32629
G1 X142.932 Y95.067 E18.35380
G1 X117.408 Y69.543 E19.47400
G1 X116.522 Y69.543 E19.50151
G1 X142.932 Y95.953 E20.66062
G1 X142.932 Y96.840 E20.68812
G1 X115.635 Y69.543 E21.88613
G1 X114.749 Y69.543 E21.91364
G1 X142.932 Y97.726 E23.15055
G1 X142.932 Y98.612 E23.17806
G1 X113.863 Y69.543 E24.45387
G1 X112.976 Y69.543 E24.48138
G1 X142.932 Y99.499 E25.79609
G1 X142.932 Y100.385 E25.82360
G1 X112.090 Y69.543 E27.17722
G1 X111.203 Y69.543 E27.20473
G1 X142.932 Y101.272 E28.59724
G1 X142.932 Y102.158 E28.62475
G1 X110.317 Y69.543 E30.05618
G1 X109.431 Y69.543 E30.08368
G1 X142.932 Y103.044 E31.55401
G1 X142.932 Y103.931 E31.58152
G1 X108.544 Y69.543 E33.09074
G1 X107.658 Y69.543 E33.11825
G1 X142.932 Y104.817 E34.66638
G1 X142.932 Y105.703 E34.69389
G1 X106.772 Y69.543 E36.28092
G1 X105.885 Y69.543 E36.30843
G1 X142.932 Y106.590 E37.93437
G1 X142.932 Y107.476 E37.96187
G1 X104.999 Y69.543 E39.62671
G1 X104.112 Y69.543 E39.65422
G1 X142.932 Y108.363 E41.35796
G1 X142.932 Y109.249 E41.38547
G1 X103.226 Y69.543 E43.12811
G1 X102.340 Y69.543 E43.15562
G1 X142.932 Y110.135 E44.93716
G1 X142.932 Y111.022 E44.96467
G1 X101.453 Y69.543 E46.78512
G1 X100.567 Y69.543 E46.81263
G1 X142.932 Y111.908 E48.67198
G1 X142.932 Y112.795 E48.69949
G1 X99.680 Y69.543 E50.59774
G1 X98.794 Y69.543 E50.62525
G1 X142.932 Y113.681 E52.56240
G1 X142.932 Y114.567 E52.58991
G1 X97.908 Y69.543 E54.56597
G1 X97.021 Y69.543 E54.59348
G1 X142.932 Y115.454 E56.60844
G1 X142.932 Y116.340 E56.63594
G1 X96.135 Y69.543 E58.68981
G1 X95.249 Y69.543 E58.71732
G1 X142.932 Y117.226 E60.81008
G1 X142.932 Y118.113 E60.83759
G1 X94.362 Y69.543 E62.96926
G1 X93.476 Y69.543 E62.99677
G1 X142.932 Y118.999 E65.16734
G1 X142.932 Y119.886 E65.19484
G1 X92.589 Y69.543 E67.40432
G1 X91.703 Y69.543 E67.43182
G1 X142.932 Y120.772 E69.68020
G1 X142.932 Y121.658 E69.70771
G1 X90.817 Y69.543 E71.99499
G1 X89.930 Y69.543 E72.02249
G1 X142.932 Y122.545 E74.34867
G1 X142.932 Y123.431 E74.37618
G1 X89.044 Y69.543 E76.74127
G1 X88.157 Y69.543 E76.76877
G1 X142.932 Y124.318 E79.17276
G1 X142.932 Y125.204 E79.20027
G1 X87.271 Y69.543 E81.64316
G1 X86.385 Y69.543 E81.67066
G1 X142.932 Y126.090 E84.15246
G1 X142.932 Y126.977 E84.17996
G1 X85.498 Y69.543 E86.70066
G1 X84.612 Y69.543 E86.72816
G1 X142.932 Y127.863 E89.28776
G1 X142.932 Y128.749 E89.31527
G1 X83.726 Y69.543 E91.91377
G1 X82.839 Y69.543 E91.94127
G1 X142.932 Y129.636 E94.57868
G1 X142.932 Y130.457 E94.60415
G1 X142.866 Y130.457 E94.60618
G1 X81.953 Y69.543 E97.27961
G1 X81.066 Y69.543 E97.30712
G1 X141.980 Y130.457 E99.98054
G1 X141.093 Y130.457 E100.00805
G1 X80.180 Y69.543 E102.68147
G1 X79.294 Y69.543 E102.70898
G1 X140.207 Y130.457 E105.38240
G1 X139.320 Y130.457 E105.40991
G1 X78.407 Y69.543 E108.08334
G1 X77.521 Y69.543 E108.11084
G1 X138.434 Y130.457 E110.78427
G1 X137.548 Y130.457 E110.81178
G1 X76.635 Y69.543 E113.48520
G1 X75.748 Y69.543 E113.51271
G1 X136.661 Y130.457 E116.18613
G1 X135.775 Y130.457 E116.21364
G1 X74.862 Y69.543 E118.88706
G1 X73.975 Y69.543 E118.91457
G1 X134.889 Y130.457 E121.58800
G1 X134.002 Y130.457 E121.61550
G1 X73.089 Y69.543 E124.28893
G1 X72.203 Y69.543 E124.31644
G1 X133.116 Y130.457 E126.98986
G1 X132.229 Y130.457 E127.01737
G1 X71.316 Y69.543 E129.69079
G1 X70.430 Y69.543 E129.71830
G1 X131.343 Y130.457 E132.39172
G1 X130.457 Y130.457 E132.41923
G1 X69.543 Y69.543 E135.09266
G1 X68.657 Y69.543 E135.12016
G1 X129.570 Y130.457 E137.79359
G1 X128.684 Y130.457 E137.82110
G1 X67.771 Y69.543 E140.49452
G1 X66.884 Y69.543 E140.52203
G1 X127.797 Y130.457 E143.19545
G1 X126.911 Y130.457 E143.22296
G1 X65.998 Y69.543 E145.89638
G1 X65.112 Y69.543 E145.92389
G1 X126.025 Y130.457 E148.59732
G1 X125.138 Y130.457 E148.62482
G1 X64.225 Y69.543 E151.29825
G1 X63.339 Y69.543 E151.32576
G1 X124.252 Y130.457 E153.99918
G1 X123.366 Y130.457 E154.02669
G1 X62.452 Y69.543 E156.70011
G1 X61.566 Y69.543 E156.72762
G1 X122.479 Y130.457 E159.40104
G1 X121.593 Y130.457 E159.42855
G1 X60.680 Y69.543 E162.10198
G1 X59.793 Y69.543 E162.12948
G1 X120.706 Y130.457 E164.80291
G1 X119.820 Y130.457 E164.83042
G1 X58.907 Y69.543 E167.50384
G1 X58.020 Y69.543 E167.53135
G1 X118.934 Y130.457 E170.20477
G1 X118.047 Y130.457 E170.23228
G1 X57.134 Y69.543 E172.90570
G1 X57.068 Y69.543 E172.90774
G1 X57.068 Y70.364 E172.93321
G1 X117.161 Y130.457 E175.57062
G1 X116.274 Y130.457 E175.59813
G1 X57.068 Y71.251 E178.19663
G1 X57.068 Y72.137 E178.22414
G1 X115.388 Y130.457 E180.78373
G1 X114.502 Y130.457 E180.81124
G1 X57.068 Y73.023 E183.33194
G1 X57.068 Y73.910 E183.35945
G1 X113.615 Y130.457 E185.84124
G1 X112.729 Y130.457 E185.86875
G1 X57.068 Y74.796 E188.31164
G1 X57.068 Y75.682 E188.33915
G1 X111.843 Y130.457 E190.74314
G1 X110.956 Y130.457 E190.77065
G1 X57.068 Y76.569 E193.13573
G1 X57.068 Y77.455 E193.16324
G1 X110.070 Y130.457 E195.48943
G1 X109.183 Y130.457 E195.51693
G1 X57.068 Y78.342 E197.80422
G1 X57.068 Y79.228 E197.83172
G1 X108.297 Y130.457 E200.08010
G1 X107.411 Y130.457 E200.10761
G1 X57.068 Y80.114 E202.31709
G1 X57.068 Y81.001 E202.34460
G1 X106.524 Y130.457 E204.51517
G1 X105.638 Y130.457 E204.54268
G1 X57.068 Y81.887 E206.67435
G1 X57.068 Y82.773 E206.70186
G1 X104.752 Y130.457 E208.79463
G1 X103.865 Y130.457 E208.82213
G1 X57.068 Y83.660 E210.87600
G1 X57.068 Y84.546 E210.90351
G1 X102.979 Y130.457 E212.91847
G1 X102.092 Y130.457 E212.94598
G1 X57.068 Y85.433 E214.92204
G1 X57.068 Y86.319 E214.94955
G1 X101.206 Y130.457 E216.88671
G1 X100.320 Y130.457 E216.91422
G1 X57.068 Y87.205 E218.81247
G1 X57.068 Y88.092 E218.83998
G1 X99.433 Y130.457 E220.69933
G1 X98.547 Y130.457 E220.72684
G1 X57.068 Y88.978 E222.54729
G1 X57.068 Y89.865 E222.57480
G1 X97.660 Y130.457 E224.35635
G1 X96.774 Y130.457 E224.38386
G1 X57.068 Y90.751 E226.12651
G1 X57.068 Y91.637 E226.15401
G1 X95.888 Y130.457 E227.85776
G1 X95.001 Y130.457 E227.88527
G1 X57.068 Y92.524 E229.55011
G1 X57.068 Y93.410 E229.57761
G1 X94.115 Y130.457 E231.20355
G1 X93.229 Y130.457 E231.23106
G1 X57.068 Y94.296 E232.81810
G1 X57.068 Y95.183 E232.84561
G1 X92.342 Y130.457 E234.39374
G1 X91.456 Y130.457 E234.42125
G1 X57.068 Y96.069 E235.93048
G1 X57.068 Y96.956 E235.95799
G1 X90.569 Y130.457 E237.42831
G1 X89.683 Y130.457 E237.45582
G1 X57.068 Y97.842 E238.88725
G1 X57.068 Y98.728 E238.91476
G1 X88.797 Y130.457 E240.30728
G1 X87.910 Y130.457 E240.33479
G1 X57.068 Y99.615 E241.68841
G1 X57.068 Y100.501 E241.71592
G1 X87.024 Y130.457 E243.03064
G1 X86.137 Y130.457 E243.05814
G1 X57.068 Y101.388 E244.33396
G1 X57.068 Y102.274 E244.36147
G1 X85.251 Y130.457 E245.59838
G1 X84.365 Y130.457 E245.62589
G1 X57.068 Y103.160 E246.82390
G1 X57.068 Y104.047 E246.85141
G1 X83.478 Y130.457 E248.01052
G1 X82.592 Y130.457 E248.03802
G1 X57.068 Y104.933 E249.15823
G1 X57.068 Y105.819 E249.18574
G1 X81.706 Y130.457 E250.26704
G1 X80.819 Y130.457 E250.29455
G1 X57.068 Y106.706 E251.33695
G1 X57.068 Y107.592 E251.36446
G1 X79.933 Y130.457 E252.36796
G1 X79.046 Y130.457 E252.39546
G1 X57.068 Y108.479 E253.36006
G1 X57.068 Y109.365 E253.38757
G1 X78.160 Y130.457 E254.31326
G1 X77.274 Y130.457 E254.34077
G1 X57.068 Y110.251 E255.22756
G1 X57.068 Y111.138 E255.25507
G1 X76.387 Y130.457 E256.10295
G1 X75.501 Y130.457 E256.13046
G1 X57.068 Y112.024 E256.93945
G1 X57.068 Y112.910 E256.96696
G1 X74.615 Y130.457 E257.73704
G1 X73.728 Y130.457 E257.76455
G1 X57.068 Y113.797 E258.49573
G1 X57.068 Y114.683 E258.52324
G1 X72.842 Y130.457 E259.21551
G1 X71.955 Y130.457 E259.24302
G1 X57.068 Y115.570 E259.89640
G1 X57.068 Y116.456 E259.92391
G1 X71.069 Y130.457 E260.53838
G1 X70.183 Y130.457 E260.56589
G1 X57.068 Y117.342 E261.14146
G1 X57.068 Y118.229 E261.16896
G1 X69.296 Y130.457 E261.70563
G1 X68.410 Y130.457 E261.73314
G1 X57.068 Y119.115 E262.23091
G1 X57.068 Y120.002 E262.25841
G1 X67.523 Y130.457 E262.71728
G1 X66.637 Y130.457 E262.74478
G1 X57.068 Y120.888 E263.16474
G1 X57.068 Y121.774 E263.19225
G1 X65.751 Y130.457 E263.57331
G1 X64.864 Y130.457 E263.60082
G1 X57.068 Y122.661 E263.94297
G1 X57.068 Y123.547 E263.97048
G1 X63.978 Y130.457 E264.27373
G1 X63.092 Y130.457 E264.30124
G1 X57.068 Y124.433 E264.56559
G1 X57.068 Y125.320 E264.59310
G1 X62.205 Y130.457 E264.81855
G1 X61.319 Y130.457 E264.84606
G1 X57.068 Y126.206 E265.03260
G1 X57.068 Y127.093 E265.06011
G1 X60.432 Y130.457 E265.20775
G1 X59.546 Y130.457 E265.23526
G1 X57.068 Y127.979 E265.34400
G1 X57.068 Y128.865 E265.37151
G1 X58.660 Y130.457 E265.44134
G1 X57.773 Y130.457 E265.46885
G1 X56.787 Y129.471 E265.51213
G1 Z0.650 F7800.000
G1 X143.723 Y130.923 F7800.000
G1 F3600
G1 X56.277 Y130.923 E267.36079
G1 X56.277 Y69.077 E268.66825
G1 X143.723 Y69.077 E270.51691
G1 X143.723 Y130.848 E271.82278
G1 X144.221 Y131.421 F7800.000
G1 F3600
G1 X55.779 Y131.421 E273.69250
G1 X55.779 Y68.579 E275.02102
G1 X144.221 Y68.579 E276.89074
G1 X144.221 Y131.346 E278.21768
G1 X144.719 Y131.919 F7800.000
G1 F1800
G1 X55.281 Y131.919 E280.10846
G1 X55.281 Y68.081 E281.45804
G1 X144.719 Y68.081 E283.34882
G1 X144.719 Y131.844 E284.69682
G1 X144.229 Y131.816 F7800.000
G1 X142.565 Y130.773 F7800.000
G1 F1200
G1 X143.349 Y129.989 E284.72028
G1 X143.349 Y129.284 E284.73520
G1 X142.084 Y130.549 E284.77306
G1 X141.379 Y130.549 E284.78798
G1 X143.349 Y128.579 E284.84694
G1 X143.349 Y127.874 E284.86186
G1 X140.674 Y130.549 E284.94193
G1 X139.969 Y130.549 E284.95685
G1 X143.349 Y127.169 E285.05802
G1 X143.349 Y126.463 E285.07295
G1 X139.263 Y130.549 E285.19522
G1 X138.558 Y130.549 E285.21015
G1 X143.349 Y125.758 E285.35353
G1 X143.349 Y125.053 E285.36845
G1 X137.853 Y130.549 E285.53294
G1 X137.148 Y130.549 E285.54786
G1 X143.349 Y124.348 E285.73345
G1 X143.349 Y123.643 E285.74837
G1 X136.443 Y130.549 E285.95507
G1 X135.737 Y130.549 E285.96999
G1 X143.349 Y122.937 E286.19779
G1 X143.349 Y122.232 E286.21272
G1 X135.032 Y130.549 E286.46162
G1 X134.327 Y130.549 E286.47654
G1 X143.349 Y121.527 E286.74655
G1 X143.349 Y120.822 E286.76148
G1 X133.622 Y130.549 E287.05259
G1 X132.917 Y130.549 E287.06752
G1 X143.349 Y120.117 E287.37974
G1 X143.349 Y119.412 E287.39466
G1 X132.212 Y130.549 E287.72798
G1 X131.506 Y130.549 E287.74291
G1 X143.349 Y118.706 E288.09734
G1 X143.349 Y118.001 E288.11226
G1 X130.801 Y130.549 E288.48779
G1 X130.096 Y130.549 E288.50272
G1 X143.349 Y117.296 E288.89936
G1 X143.349 Y116.591 E288.91428
G1 X129.391 Y130.549 E289.33202
G1 X128.686 Y130.549 E289.34695
G1 X143.349 Y115.886 E289.78580
G1 X143.349 Y115.181 E289.80072
G1 X127.981 Y130.549 E290.26067
G1 X127.275 Y130.549 E290.27560
G1 X143.349 Y114.475 E290.75665
G1 X143.349 Y113.770 E290.77158
G1 X126.570 Y130.549 E291.27374
G1 X125.865 Y130.549 E291.28866
G1 X143.349 Y113.065 E291.81193
G1 X143.349 Y112.360 E291.82686
G1 X125.160 Y130.549 E292.37123
G1 X124.455 Y130.549 E292.38615
G1 X143.349 Y111.655 E292.95163
G1 X143.349 Y110.950 E292.96655
G1 X123.750 Y130.549 E293.55314
G1 X123.044 Y130.549 E293.56806
G1 X143.349 Y110.244 E294.17575
G1 X143.349 Y109.539 E294.19067
G1 X122.339 Y130.549 E294.81946
G1 X121.634 Y130.549 E294.83439
G1 X143.349 Y108.834 E295.48429
G1 X143.349 Y108.129 E295.49921
G1 X120.929 Y130.549 E296.17021
G1 X120.224 Y130.549 E296.18514
G1 X143.349 Y107.424 E296.87724
G1 X143.349 Y106.718 E296.89217
G1 X119.518 Y130.549 E297.60538
G1 X118.813 Y130.549 E297.62030
G1 X143.349 Y106.013 E298.35462
G1 X143.349 Y105.308 E298.36954
G1 X118.108 Y130.549 E299.12496
G1 X117.403 Y130.549 E299.13989
G1 X143.349 Y104.603 E299.91641
G1 X143.349 Y103.898 E299.93134
G1 X116.698 Y130.549 E300.72897
G1 X115.993 Y130.549 E300.74389
G1 X143.349 Y103.193 E301.56263
G1 X143.349 Y102.487 E301.57755
G1 X115.287 Y130.549 E302.41739
G1 X114.582 Y130.549 E302.43232
G1 X143.349 Y101.782 E303.29326
G1 X143.349 Y101.077 E303.30819
G1 X113.877 Y130.549 E304.19024
G1 X113.172 Y130.549 E304.20516
G1 X143.349 Y100.372 E305.10832
G1 X143.349 Y99.667 E305.12324
G1 X112.467 Y130.549 E306.04750
G1 X111.762 Y130.549 E306.06242
G1 X143.349 Y98.962 E307.00779
G1 X143.349 Y98.256 E307.02271
G1 X111.056 Y130.549 E307.98918
