; generated by Slic3r 1.37.1-prusa3d-linux64 on 2017-10-19 at 22:34:02

; 

; external perimeters extrusion width = 0.45mm
; perimeters extrusion width = 0.45mm
; infill extrusion width = 0.45mm
; solid infill extrusion width = 0.45mm
; top infill extrusion width = 0.45mm
; first layer extrusion width = 0.42mm

M107 ; disable fan
M115 U3.0.12 ; tell printer latest fw version
M83  ; extruder relative mode
M104 S255 ; set extruder temp
M140 S100 ; set bed temp
M190 S100 ; wait for bed temp
M109 S255 ; wait for extruder temp
G28 W ; home all without mesh bed level
G80 ; mesh bed leveling
G1 Y-3.0 F1000.0 ; go outside pritn area
G1 X60.0 E9.0  F1000.0 ; intro line
G1 X100.0 E12.5  F1000.0 ; intro line
; Filament gcode

G21 ; set units to millimeters
G90 ; use absolute coordinates
M83 ; use relative distances for extrusion
;BEFORE_LAYER_CHANGE
;0.2


G1 E-0.80000 F2100.00000 ; retract
G1 Z0.600 F7200.000 ; lift Z
;AFTER_LAYER_CHANGE
;0.2
G1 X79.243 Y70.147 F7200.000 ; move to first skirt point
G1 Z0.200 F7200.000 ; restore layer Z
G1 E0.80000 F2100.00000 ; unretract
M204 S1000 ; adjust acceleration
G1 F2100
G1 X79.987 Y70.023 E0.02367 ; skirt
G1 X170.004 Y70.023 E2.82240 ; skirt
G1 X170.899 Y70.199 E0.02860 ; skirt
G1 X171.664 Y70.703 E0.02872 ; skirt
G1 X172.181 Y71.455 E0.02860 ; skirt
G1 X172.377 Y72.349 E0.02872 ; skirt
G1 X172.377 Y137.634 E2.04696 ; skirt
G1 X172.308 Y138.170 E0.01692 ; skirt
G1 X172.118 Y138.679 E0.01704 ; skirt
G1 X171.820 Y139.129 E0.01692 ; skirt
G1 X171.428 Y139.500 E0.01692 ; skirt
G1 X170.757 Y139.853 E0.02378 ; skirt
G1 X170.013 Y139.977 E0.02367 ; skirt
G1 X79.989 Y139.977 E2.82264 ; skirt
G1 X79.449 Y139.912 E0.01704 ; skirt
G1 X78.935 Y139.725 E0.01716 ; skirt
G1 X78.477 Y139.425 E0.01716 ; skirt
G1 X78.100 Y139.028 E0.01716 ; skirt
G1 X77.748 Y138.361 E0.02367 ; skirt
G1 X77.623 Y137.616 E0.02367 ; skirt
G1 X77.623 Y72.385 E2.04529 ; skirt
G1 X77.689 Y71.845 E0.01704 ; skirt
G1 X77.877 Y71.331 E0.01716 ; skirt
G1 X78.175 Y70.877 E0.01704 ; skirt
G1 X78.572 Y70.500 E0.01716 ; skirt
G1 X79.190 Y70.175 E0.02190 ; skirt
G1 E-0.48000 F2100.00000 ; retract
G1 F5760
G1 X79.987 Y70.023 E-0.28123 ; wipe and retract
G1 F5760
G1 X80.053 Y70.023 E-0.02277 ; wipe and retract
G1 E-0.01600 F2100.00000 ; retract
G1 Z0.800 F7200.000 ; lift Z
G1 X80.587 Y72.987 F7200.000 ; move to first perimeter point
G1 Z0.200 F7200.000 ; restore layer Z
G1 E0.80000 F2100.00000 ; unretract
G1 F1680
G1 X169.413 Y72.987 E2.78507 ; perimeter
G1 X169.413 Y137.013 E2.00749 ; perimeter
G1 X80.587 Y137.013 E2.78507 ; perimeter
G1 X80.587 Y73.047 E2.00560 ; perimeter
G1 X80.210 Y72.610 F7200.000 ; move to first perimeter point
G1 F1260
G1 X169.790 Y72.610 E2.80872 ; perimeter
G1 X169.790 Y137.390 E2.03113 ; perimeter
G1 X80.210 Y137.390 E2.80872 ; perimeter
G1 X80.210 Y72.670 E2.02925 ; perimeter
G1 X80.601 Y72.693 F7200.000 ; move inwards before travel
G1 E-0.48000 F2100.00000 ; retract
G1 F5760
G1 X81.088 Y72.669 E-0.30400 ; wipe and retract
G1 E-0.01600 F2100.00000 ; retract
G1 Z0.800 F7200.000 ; lift Z
G1 X80.700 Y136.135 F7200.000 ; move to first infill point
G1 Z0.200 F7200.000 ; restore layer Z
G1 E0.80000 F2100.00000 ; unretract
G1 F1680
G1 X81.295 Y136.730 E0.02648 ; infill
G1 X81.830 Y136.730 E0.01683 ; infill
G1 X80.870 Y135.770 E0.04273 ; infill
G1 X80.870 Y135.235 E0.01683 ; infill
G1 X82.365 Y136.730 E0.06653 ; infill
G1 X82.900 Y136.730 E0.01683 ; infill
G1 X80.870 Y134.700 E0.09033 ; infill
G1 X80.870 Y134.165 E0.01683 ; infill
G1 X83.435 Y136.730 E0.11413 ; infill
G1 X83.970 Y136.730 E0.01683 ; infill
G1 X80.870 Y133.630 E0.13793 ; infill
G1 X80.870 Y133.095 E0.01683 ; infill
G1 X84.505 Y136.730 E0.16173 ; infill
G1 X85.040 Y136.730 E0.01683 ; infill
G1 X80.870 Y132.560 E0.18553 ; infill
G1 X80.870 Y132.025 E0.01683 ; infill
G1 X85.575 Y136.730 E0.20932 ; infill
G1 X86.110 Y136.730 E0.01683 ; infill
G1 X80.870 Y131.490 E0.23312 ; infill
G1 X80.870 Y130.955 E0.01683 ; infill
G1 X86.645 Y136.730 E0.25692 ; infill
G1 X87.180 Y136.730 E0.01683 ; infill
G1 X80.870 Y130.420 E0.28072 ; infill
G1 X80.870 Y129.885 E0.01683 ; infill
G1 X87.715 Y136.730 E0.30452 ; infill
G1 X88.250 Y136.730 E0.01683 ; infill
G1 X80.870 Y129.350 E0.32832 ; infill
G1 X80.870 Y128.815 E0.01683 ; infill
G1 X88.785 Y136.730 E0.35212 ; infill
G1 X89.320 Y136.730 E0.01683 ; infill
G1 X80.870 Y128.280 E0.37592 ; infill
G1 X80.870 Y127.745 E0.01683 ; infill
G1 X89.855 Y136.730 E0.39972 ; infill
G1 X90.390 Y136.730 E0.01683 ; infill
G1 X80.870 Y127.210 E0.42352 ; infill
G1 X80.870 Y126.675 E0.01683 ; infill
G1 X90.925 Y136.730 E0.44732 ; infill
G1 X91.460 Y136.730 E0.01683 ; infill
G1 X80.870 Y126.140 E0.47112 ; infill
G1 X80.870 Y125.605 E0.01683 ; infill
G1 X91.995 Y136.730 E0.49492 ; infill
G1 X92.530 Y136.730 E0.01683 ; infill
G1 X80.870 Y125.070 E0.51872 ; infill
G1 X80.870 Y124.535 E0.01683 ; infill
G1 X93.065 Y136.730 E0.54252 ; infill
G1 X93.600 Y136.730 E0.01683 ; infill
G1 X80.870 Y124.000 E0.56632 ; infill
G1 X80.870 Y123.465 E0.01683 ; infill
G1 X94.135 Y136.730 E0.59012 ; infill
G1 X94.670 Y136.730 E0.01683 ; infill
G1 X80.870 Y122.930 E0.61392 ; infill
G1 X80.870 Y122.395 E0.01683 ; infill
G1 X95.205 Y136.730 E0.63772 ; infill
G1 X95.740 Y136.730 E0.01683 ; infill
G1 X80.870 Y121.860 E0.66152 ; infill
G1 X80.870 Y121.325 E0.01683 ; infill
G1 X96.275 Y136.730 E0.68532 ; infill
G1 X96.810 Y136.730 E0.01683 ; infill
G1 X80.870 Y120.790 E0.70912 ; infill
G1 X80.870 Y120.255 E0.01683 ; infill
G1 X97.345 Y136.730 E0.73292 ; infill
G1 X97.880 Y136.730 E0.01683 ; infill
G1 X80.870 Y119.720 E0.75671 ; infill
G1 X80.870 Y119.185 E0.01683 ; infill
G1 X98.415 Y136.730 E0.78051 ; infill
G1 X98.950 Y136.730 E0.01683 ; infill
G1 X80.870 Y118.650 E0.80431 ; infill
G1 X80.870 Y118.115 E0.01683 ; infill
G1 X99.485 Y136.730 E0.82811 ; infill
G1 X100.020 Y136.730 E0.01683 ; infill
G1 X80.870 Y117.580 E0.85191 ; infill
G1 X80.870 Y117.045 E0.01683 ; infill
G1 X100.555 Y136.730 E0.87571 ; infill
G1 X101.090 Y136.730 E0.01683 ; infill
G1 X80.870 Y116.510 E0.89951 ; infill
G1 X80.870 Y115.975 E0.01683 ; infill
G1 X101.625 Y136.730 E0.92331 ; infill
G1 X102.160 Y136.730 E0.01683 ; infill
G1 X80.870 Y115.440 E0.94711 ; infill
G1 X80.870 Y114.905 E0.01683 ; infill
G1 X102.695 Y136.730 E0.97091 ; infill
G1 X103.230 Y136.730 E0.01683 ; infill
G1 X80.870 Y114.370 E0.99471 ; infill
G1 X80.870 Y113.835 E0.01683 ; infill
G1 X103.765 Y136.730 E1.01851 ; infill
G1 X104.300 Y136.730 E0.01683 ; infill
G1 X80.870 Y113.300 E1.04231 ; infill
G1 X80.870 Y112.765 E0.01683 ; infill
G1 X104.835 Y136.730 E1.06611 ; infill
G1 X105.370 Y136.730 E0.01683 ; infill
G1 X80.870 Y112.230 E1.08991 ; infill
G1 X80.870 Y111.695 E0.01683 ; infill
G1 X105.905 Y136.730 E1.11371 ; infill
G1 X106.440 Y136.730 E0.01683 ; infill
G1 X80.870 Y111.160 E1.13751 ; infill
G1 X80.870 Y110.625 E0.01683 ; infill
G1 X106.975 Y136.730 E1.16131 ; infill
G1 X107.510 Y136.730 E0.01683 ; infill
G1 X80.870 Y110.090 E1.18511 ; infill
G1 X80.870 Y109.555 E0.01683 ; infill
G1 X108.045 Y136.730 E1.20891 ; infill
G1 X108.580 Y136.730 E0.01683 ; infill
G1 X80.870 Y109.020 E1.23271 ; infill
G1 X80.870 Y108.485 E0.01683 ; infill
G1 X109.115 Y136.730 E1.25651 ; infill
G1 X109.650 Y136.730 E0.01683 ; infill
G1 X80.870 Y107.950 E1.28031 ; infill
G1 X80.870 Y107.415 E0.01683 ; infill
G1 X110.185 Y136.730 E1.30410 ; infill
G1 X110.720 Y136.730 E0.01683 ; infill
G1 X80.870 Y106.880 E1.32790 ; infill
G1 X80.870 Y106.345 E0.01683 ; infill
G1 X111.255 Y136.730 E1.35170 ; infill
G1 X111.790 Y136.730 E0.01683 ; infill
G1 X80.870 Y105.810 E1.37550 ; infill
G1 X80.870 Y105.275 E0.01683 ; infill
G1 X112.325 Y136.730 E1.39930 ; infill
G1 X112.860 Y136.730 E0.01683 ; infill
G1 X80.870 Y104.740 E1.42310 ; infill
G1 X80.870 Y104.205 E0.01683 ; infill
G1 X113.395 Y136.730 E1.44690 ; infill
G1 X113.930 Y136.730 E0.01683 ; infill
G1 X80.870 Y103.670 E1.47070 ; infill
G1 X80.870 Y103.135 E0.01683 ; infill
G1 X114.465 Y136.730 E1.49450 ; infill
G1 X115.000 Y136.730 E0.01683 ; infill
G1 X80.870 Y102.600 E1.51830 ; infill
G1 X80.870 Y102.065 E0.01683 ; infill
G1 X115.535 Y136.730 E1.54210 ; infill
G1 X116.070 Y136.730 E0.01683 ; infill
G1 X80.870 Y101.530 E1.56590 ; infill
G1 X80.870 Y100.995 E0.01683 ; infill
G1 X116.605 Y136.730 E1.58970 ; infill
G1 X117.140 Y136.730 E0.01683 ; infill
G1 X80.870 Y100.460 E1.61350 ; infill
G1 X80.870 Y99.925 E0.01683 ; infill
G1 X117.675 Y136.730 E1.63730 ; infill
G1 X118.210 Y136.730 E0.01683 ; infill
G1 X80.870 Y99.390 E1.66110 ; infill
G1 X80.870 Y98.855 E0.01683 ; infill
G1 X118.745 Y136.730 E1.68490 ; infill
G1 X119.280 Y136.730 E0.01683 ; infill
G1 X80.870 Y98.320 E1.70870 ; infill
G1 X80.870 Y97.785 E0.01683 ; infill
G1 X119.815 Y136.730 E1.73250 ; infill
G1 X120.350 Y136.730 E0.01683 ; infill
G1 X80.870 Y97.250 E1.75630 ; infill
G1 X80.870 Y96.715 E0.01683 ; infill
G1 X120.885 Y136.730 E1.78010 ; infill
G1 X121.420 Y136.730 E0.01683 ; infill
G1 X80.870 Y96.180 E1.80390 ; infill
G1 X80.870 Y95.645 E0.01683 ; infill
G1 X121.955 Y136.730 E1.82770 ; infill
G1 X122.490 Y136.730 E0.01683 ; infill
G1 X80.870 Y95.110 E1.85149 ; infill
G1 X80.870 Y94.575 E0.01683 ; infill
G1 X123.025 Y136.730 E1.87529 ; infill
G1 X123.560 Y136.730 E0.01683 ; infill
G1 X80.870 Y94.040 E1.89909 ; infill
G1 X80.870 Y93.505 E0.01683 ; infill
G1 X124.095 Y136.730 E1.92289 ; infill
G1 X124.630 Y136.730 E0.01683 ; infill
G1 X80.870 Y92.970 E1.94669 ; infill
G1 X80.870 Y92.435 E0.01683 ; infill
G1 X125.165 Y136.730 E1.97049 ; infill
G1 X125.700 Y136.730 E0.01683 ; infill
G1 X80.870 Y91.900 E1.99429 ; infill
G1 X80.870 Y91.365 E0.01683 ; infill
G1 X126.235 Y136.730 E2.01809 ; infill
G1 X126.770 Y136.730 E0.01683 ; infill
G1 X80.870 Y90.830 E2.04189 ; infill
G1 X80.870 Y90.295 E0.01683 ; infill
G1 X127.305 Y136.730 E2.06569 ; infill
G1 X127.840 Y136.730 E0.01683 ; infill
G1 X80.870 Y89.760 E2.08949 ; infill
G1 X80.870 Y89.225 E0.01683 ; infill
G1 X128.375 Y136.730 E2.11329 ; infill
G1 X128.910 Y136.730 E0.01683 ; infill
G1 X80.870 Y88.690 E2.13709 ; infill
G1 X80.870 Y88.155 E0.01683 ; infill
G1 X129.445 Y136.730 E2.16089 ; infill
G1 X129.980 Y136.730 E0.01683 ; infill
G1 X80.870 Y87.620 E2.18469 ; infill
G1 X80.870 Y87.085 E0.01683 ; infill
G1 X130.515 Y136.730 E2.20849 ; infill
G1 X131.050 Y136.730 E0.01683 ; infill
G1 X80.870 Y86.550 E2.23229 ; infill
G1 X80.870 Y86.015 E0.01683 ; infill
G1 X131.585 Y136.730 E2.25609 ; infill
G1 X132.120 Y136.730 E0.01683 ; infill
G1 X80.870 Y85.480 E2.27989 ; infill
G1 X80.870 Y84.945 E0.01683 ; infill
G1 X132.655 Y136.730 E2.30369 ; infill
G1 X133.190 Y136.730 E0.01683 ; infill
G1 X80.870 Y84.410 E2.32749 ; infill
G1 X80.870 Y83.875 E0.01683 ; infill
G1 X133.725 Y136.730 E2.35129 ; infill
G1 X134.260 Y136.730 E0.01683 ; infill
G1 X80.870 Y83.340 E2.37509 ; infill
G1 X80.870 Y82.805 E0.01683 ; infill
G1 X134.795 Y136.730 E2.39888 ; infill
G1 X135.330 Y136.730 E0.01683 ; infill
G1 X80.870 Y82.270 E2.42268 ; infill
G1 X80.870 Y81.735 E0.01683 ; infill
G1 X135.865 Y136.730 E2.44648 ; infill
G1 X136.400 Y136.730 E0.01683 ; infill
G1 X80.870 Y81.200 E2.47028 ; infill
G1 X80.870 Y80.665 E0.01683 ; infill
G1 X136.935 Y136.730 E2.49408 ; infill
G1 X137.470 Y136.730 E0.01683 ; infill
G1 X80.870 Y80.130 E2.51788 ; infill
G1 X80.870 Y79.595 E0.01683 ; infill
G1 X138.005 Y136.730 E2.54168 ; infill
G1 X138.540 Y136.730 E0.01683 ; infill
G1 X80.870 Y79.060 E2.56548 ; infill
G1 X80.870 Y78.525 E0.01683 ; infill
G1 X139.075 Y136.730 E2.58928 ; infill
G1 X139.610 Y136.730 E0.01683 ; infill
G1 X80.870 Y77.990 E2.61308 ; infill
G1 X80.870 Y77.455 E0.01683 ; infill
G1 X140.145 Y136.730 E2.63688 ; infill
G1 X140.680 Y136.730 E0.01683 ; infill
G1 X80.870 Y76.920 E2.66068 ; infill
G1 X80.870 Y76.385 E0.01683 ; infill
G1 X141.215 Y136.730 E2.68448 ; infill
G1 X141.750 Y136.730 E0.01683 ; infill
G1 X80.870 Y75.850 E2.70828 ; infill
G1 X80.870 Y75.315 E0.01683 ; infill
G1 X142.285 Y136.730 E2.73208 ; infill
G1 X142.820 Y136.730 E0.01683 ; infill
G1 X80.870 Y74.780 E2.75588 ; infill
G1 X80.870 Y74.245 E0.01683 ; infill
G1 X143.355 Y136.730 E2.77968 ; infill
G1 X143.890 Y136.730 E0.01683 ; infill
G1 X80.870 Y73.710 E2.80348 ; infill
G1 X80.870 Y73.270 E0.01384 ; infill
G1 X80.965 Y73.270 E0.00299 ; infill
G1 X144.425 Y136.730 E2.82305 ; infill
G1 X144.960 Y136.730 E0.01683 ; infill
G1 X81.500 Y73.270 E2.82305 ; infill
G1 X82.035 Y73.270 E0.01683 ; infill
G1 X145.495 Y136.730 E2.82305 ; infill
G1 X146.030 Y136.730 E0.01683 ; infill
G1 X82.570 Y73.270 E2.82305 ; infill
G1 X83.105 Y73.270 E0.01683 ; infill
G1 X146.565 Y136.730 E2.82305 ; infill
G1 X147.100 Y136.730 E0.01683 ; infill
G1 X83.640 Y73.270 E2.82305 ; infill
G1 X84.175 Y73.270 E0.01683 ; infill
G1 X147.635 Y136.730 E2.82305 ; infill
G1 X148.170 Y136.730 E0.01683 ; infill
G1 X84.710 Y73.270 E2.82305 ; infill
G1 X85.245 Y73.270 E0.01683 ; infill
G1 X148.705 Y136.730 E2.82305 ; infill
G1 X149.240 Y136.730 E0.01683 ; infill
G1 X85.780 Y73.270 E2.82305 ; infill
G1 X86.315 Y73.270 E0.01683 ; infill
G1 X149.775 Y136.730 E2.82305 ; infill
G1 X150.310 Y136.730 E0.01683 ; infill
G1 X86.850 Y73.270 E2.82305 ; infill
G1 X87.385 Y73.270 E0.01683 ; infill
G1 X150.845 Y136.730 E2.82305 ; infill
G1 X151.380 Y136.730 E0.01683 ; infill
G1 X87.920 Y73.270 E2.82305 ; infill
G1 X88.455 Y73.270 E0.01683 ; infill
G1 X151.915 Y136.730 E2.82305 ; infill
G1 X152.450 Y136.730 E0.01683 ; infill
G1 X88.990 Y73.270 E2.82305 ; infill
G1 X89.525 Y73.270 E0.01683 ; infill
G1 X152.985 Y136.730 E2.82305 ; infill
G1 X153.520 Y136.730 E0.01683 ; infill
G1 X90.060 Y73.270 E2.82305 ; infill
G1 X90.595 Y73.270 E0.01683 ; infill
G1 X154.055 Y136.730 E2.82305 ; infill
G1 X154.590 Y136.730 E0.01683 ; infill
G1 X91.130 Y73.270 E2.82305 ; infill
G1 X91.665 Y73.270 E0.01683 ; infill
G1 X155.125 Y136.730 E2.82305 ; infill
G1 X155.660 Y136.730 E0.01683 ; infill
G1 X92.200 Y73.270 E2.82305 ; infill
G1 X92.735 Y73.270 E0.01683 ; infill
G1 X156.195 Y136.730 E2.82305 ; infill
G1 X156.730 Y136.730 E0.01683 ; infill
G1 X93.270 Y73.270 E2.82305 ; infill
G1 X93.805 Y73.270 E0.01683 ; infill
G1 X157.265 Y136.730 E2.82305 ; infill
G1 X157.800 Y136.730 E0.01683 ; infill
G1 X94.340 Y73.270 E2.82305 ; infill
G1 X94.875 Y73.270 E0.01683 ; infill
G1 X158.335 Y136.730 E2.82305 ; infill
G1 X158.870 Y136.730 E0.01683 ; infill
G1 X95.410 Y73.270 E2.82305 ; infill
G1 X95.945 Y73.270 E0.01683 ; infill
G1 X159.405 Y136.730 E2.82305 ; infill
G1 X159.940 Y136.730 E0.01683 ; infill
G1 X96.480 Y73.270 E2.82305 ; infill
G1 X97.015 Y73.270 E0.01683 ; infill
G1 X160.475 Y136.730 E2.82305 ; infill
G1 X161.010 Y136.730 E0.01683 ; infill
G1 X97.550 Y73.270 E2.82305 ; infill
G1 X98.085 Y73.270 E0.01683 ; infill
G1 X161.545 Y136.730 E2.82305 ; infill
G1 X162.080 Y136.730 E0.01683 ; infill
G1 X98.620 Y73.270 E2.82305 ; infill
G1 X99.155 Y73.270 E0.01683 ; infill
G1 X162.615 Y136.730 E2.82305 ; infill
G1 X163.150 Y136.730 E0.01683 ; infill
G1 X99.690 Y73.270 E2.82305 ; infill
G1 X100.225 Y73.270 E0.01683 ; infill
G1 X163.685 Y136.730 E2.82305 ; infill
G1 X164.220 Y136.730 E0.01683 ; infill
G1 X100.760 Y73.270 E2.82305 ; infill
G1 X101.295 Y73.270 E0.01683 ; infill
G1 X164.755 Y136.730 E2.82305 ; infill
G1 X165.290 Y136.730 E0.01683 ; infill
G1 X101.830 Y73.270 E2.82305 ; infill
G1 X102.365 Y73.270 E0.01683 ; infill
G1 X165.825 Y136.730 E2.82305 ; infill
G1 X166.360 Y136.730 E0.01683 ; infill
G1 X102.900 Y73.270 E2.82305 ; infill
G1 X103.435 Y73.270 E0.01683 ; infill
G1 X166.895 Y136.730 E2.82305 ; infill
G1 X167.430 Y136.730 E0.01683 ; infill
G1 X103.970 Y73.270 E2.82305 ; infill
G1 X104.505 Y73.270 E0.01683 ; infill
G1 X167.965 Y136.730 E2.82305 ; infill
G1 X168.500 Y136.730 E0.01683 ; infill
G1 X105.040 Y73.270 E2.82305 ; infill
G1 X105.575 Y73.270 E0.01683 ; infill
G1 X169.035 Y136.730 E2.82305 ; infill
G1 X169.130 Y136.730 E0.00299 ; infill
G1 X169.130 Y136.290 E0.01384 ; infill
G1 X106.110 Y73.270 E2.80348 ; infill
G1 X106.645 Y73.270 E0.01683 ; infill
G1 X169.130 Y135.755 E2.77968 ; infill
