; generated by Slic3r 1.37.1-prusa3d-linux64 on 2017-10-19 at 22:34:09

; 

; external perimeters extrusion width = 0.45mm
; perimeters extrusion width = 0.45mm
; infill extrusion width = 0.45mm
; solid infill extrusion width = 0.45mm
; top infill extrusion width = 0.45mm
; first layer extrusion width = 0.42mm

M107 ; disable fan
M115 U3.0.12 ; tell printer latest fw version
M83  ; extruder relative mode
M104 S255 ; set extruder temp
M140 S100 ; set bed temp
M190 S100 ; wait for bed temp
M109 S255 ; wait for extruder temp
G28 W ; home all without mesh bed level
G80 ; mesh bed leveling
G1 Y-3.0 F1000.0 ; go outside pritn area
G1 X60.0 E9.0  F1000.0 ; intro line
G1 X100.0 E12.5  F1000.0 ; intro line
; Filament gcode

G21 ; set units to millimeters
G90 ; use absolute coordinates
M83 ; use relative distances for extrusion
;BEFORE_LAYER_CHANGE
;0.2


G1 E-0.80000 F2100.00000 ; retract
G1 Z0.600 F7200.000 ; lift Z
;AFTER_LAYER_CHANGE
;0.2
G1 X79.221 Y69.229 F7200.000 ; move to first skirt point
G1 Z0.200 F7200.000 ; restore layer Z
G1 E0.80000 F2100.00000 ; unretract
M204 S1000 ; adjust acceleration
G1 F2100
G1 X79.987 Y69.098 E0.02437 ; skirt
G1 X170.004 Y69.098 E2.82240 ; skirt
G1 X170.899 Y69.274 E0.02860 ; skirt
G1 X171.664 Y69.778 E0.02872 ; skirt
G1 X172.182 Y70.533 E0.02872 ; skirt
G1 X172.377 Y71.428 E0.02872 ; skirt
G1 X172.377 Y139.505 E2.13451 ; skirt
G1 X172.311 Y140.030 E0.01657 ; skirt
G1 X172.130 Y140.530 E0.01668 ; skirt
G1 X171.844 Y140.975 E0.01657 ; skirt
G1 X171.465 Y141.347 E0.01668 ; skirt
G1 X170.779 Y141.721 E0.02449 ; skirt
G1 X170.013 Y141.852 E0.02437 ; skirt
G1 X79.989 Y141.852 E2.82264 ; skirt
G1 X79.456 Y141.789 E0.01680 ; skirt
G1 X78.955 Y141.610 E0.01668 ; skirt
G1 X78.503 Y141.322 E0.01680 ; skirt
G1 X78.128 Y140.940 E0.01680 ; skirt
G1 X77.755 Y140.257 E0.02437 ; skirt
G1 X77.623 Y139.491 E0.02437 ; skirt
G1 X77.623 Y71.464 E2.13296 ; skirt
G1 X77.686 Y70.931 E0.01680 ; skirt
G1 X77.865 Y70.430 E0.01668 ; skirt
G1 X78.153 Y69.978 E0.01680 ; skirt
G1 X78.535 Y69.603 E0.01680 ; skirt
G1 X79.169 Y69.258 E0.02261 ; skirt
G1 E-0.48000 F2100.00000 ; retract
G1 F5760
G1 X79.987 Y69.098 E-0.28898 ; wipe and retract
G1 F5760
G1 X80.031 Y69.098 E-0.01502 ; wipe and retract
G1 E-0.01600 F2100.00000 ; retract
G1 Z0.800 F7200.000 ; lift Z
G1 X80.587 Y72.062 F7200.000 ; move to first perimeter point
G1 Z0.200 F7200.000 ; restore layer Z
G1 E0.80000 F2100.00000 ; unretract
G1 F1680
G1 X169.413 Y72.062 E2.78507 ; perimeter
G1 X169.413 Y138.888 E2.09528 ; perimeter
G1 X80.587 Y138.888 E2.78507 ; perimeter
G1 X80.587 Y72.122 E2.09340 ; perimeter
G1 X80.210 Y71.685 F7200.000 ; move to first perimeter point
G1 F1260
G1 X169.790 Y71.685 E2.80872 ; perimeter
G1 X169.790 Y139.265 E2.11892 ; perimeter
G1 X80.210 Y139.265 E2.80872 ; perimeter
G1 X80.210 Y71.745 E2.11704 ; perimeter
G1 X80.601 Y71.771 F7200.000 ; move inwards before travel
G1 E-0.48000 F2100.00000 ; retract
G1 F5760
G1 X81.088 Y71.744 E-0.30400 ; wipe and retract
G1 E-0.01600 F2100.00000 ; retract
G1 Z0.800 F7200.000 ; lift Z
G1 X80.700 Y138.012 F7200.000 ; move to first infill point
G1 Z0.200 F7200.000 ; restore layer Z
G1 E0.80000 F2100.00000 ; unretract
G1 F1680
G1 X81.293 Y138.605 E0.02631 ; infill
G1 X81.827 Y138.605 E0.01674 ; infill
G1 X80.870 Y137.648 E0.04245 ; infill
G1 X80.870 Y137.115 E0.01674 ; infill
G1 X82.360 Y138.605 E0.06613 ; infill
G1 X82.894 Y138.605 E0.01674 ; infill
G1 X80.870 Y136.581 E0.08980 ; infill
G1 X80.870 Y136.047 E0.01674 ; infill
G1 X83.428 Y138.605 E0.11348 ; infill
G1 X83.961 Y138.605 E0.01674 ; infill
G1 X80.870 Y135.514 E0.13715 ; infill
G1 X80.870 Y134.980 E0.01674 ; infill
G1 X84.495 Y138.605 E0.16083 ; infill
G1 X85.028 Y138.605 E0.01674 ; infill
G1 X80.870 Y134.447 E0.18450 ; infill
G1 X80.870 Y133.913 E0.01674 ; infill
G1 X85.562 Y138.605 E0.20818 ; infill
G1 X86.095 Y138.605 E0.01674 ; infill
G1 X80.870 Y133.380 E0.23185 ; infill
G1 X80.870 Y132.846 E0.01674 ; infill
G1 X86.629 Y138.605 E0.25552 ; infill
G1 X87.163 Y138.605 E0.01674 ; infill
G1 X80.870 Y132.312 E0.27920 ; infill
G1 X80.870 Y131.779 E0.01674 ; infill
G1 X87.696 Y138.605 E0.30287 ; infill
G1 X88.230 Y138.605 E0.01674 ; infill
G1 X80.870 Y131.245 E0.32655 ; infill
G1 X80.870 Y130.712 E0.01674 ; infill
G1 X88.763 Y138.605 E0.35022 ; infill
G1 X89.297 Y138.605 E0.01674 ; infill
G1 X80.870 Y130.178 E0.37390 ; infill
G1 X80.870 Y129.644 E0.01674 ; infill
G1 X89.831 Y138.605 E0.39757 ; infill
G1 X90.364 Y138.605 E0.01674 ; infill
G1 X80.870 Y129.111 E0.42125 ; infill
G1 X80.870 Y128.577 E0.01674 ; infill
G1 X90.898 Y138.605 E0.44492 ; infill
G1 X91.431 Y138.605 E0.01674 ; infill
G1 X80.870 Y128.044 E0.46859 ; infill
G1 X80.870 Y127.510 E0.01674 ; infill
G1 X91.965 Y138.605 E0.49227 ; infill
G1 X92.499 Y138.605 E0.01674 ; infill
G1 X80.870 Y126.976 E0.51594 ; infill
G1 X80.870 Y126.443 E0.01674 ; infill
G1 X93.032 Y138.605 E0.53962 ; infill
G1 X93.566 Y138.605 E0.01674 ; infill
G1 X80.870 Y125.909 E0.56329 ; infill
G1 X80.870 Y125.376 E0.01674 ; infill
G1 X94.099 Y138.605 E0.58697 ; infill
G1 X94.633 Y138.605 E0.01674 ; infill
G1 X80.870 Y124.842 E0.61064 ; infill
G1 X80.870 Y124.309 E0.01674 ; infill
G1 X95.166 Y138.605 E0.63431 ; infill
G1 X95.700 Y138.605 E0.01674 ; infill
G1 X80.870 Y123.775 E0.65799 ; infill
G1 X80.870 Y123.241 E0.01674 ; infill
G1 X96.234 Y138.605 E0.68166 ; infill
G1 X96.767 Y138.605 E0.01674 ; infill
G1 X80.870 Y122.708 E0.70534 ; infill
G1 X80.870 Y122.174 E0.01674 ; infill
G1 X97.301 Y138.605 E0.72901 ; infill
G1 X97.834 Y138.605 E0.01674 ; infill
G1 X80.870 Y121.641 E0.75269 ; infill
G1 X80.870 Y121.107 E0.01674 ; infill
G1 X98.368 Y138.605 E0.77636 ; infill
G1 X98.902 Y138.605 E0.01674 ; infill
G1 X80.870 Y120.573 E0.80004 ; infill
G1 X80.870 Y120.040 E0.01674 ; infill
G1 X99.435 Y138.605 E0.82371 ; infill
G1 X99.969 Y138.605 E0.01674 ; infill
G1 X80.870 Y119.506 E0.84738 ; infill
G1 X80.870 Y118.973 E0.01674 ; infill
G1 X100.502 Y138.605 E0.87106 ; infill
G1 X101.036 Y138.605 E0.01674 ; infill
G1 X80.870 Y118.439 E0.89473 ; infill
G1 X80.870 Y117.905 E0.01674 ; infill
G1 X101.570 Y138.605 E0.91841 ; infill
G1 X102.103 Y138.605 E0.01674 ; infill
G1 X80.870 Y117.372 E0.94208 ; infill
G1 X80.870 Y116.838 E0.01674 ; infill
G1 X102.637 Y138.605 E0.96576 ; infill
G1 X103.170 Y138.605 E0.01674 ; infill
G1 X80.870 Y116.305 E0.98943 ; infill
G1 X80.870 Y115.771 E0.01674 ; infill
G1 X103.704 Y138.605 E1.01311 ; infill
G1 X104.238 Y138.605 E0.01674 ; infill
G1 X80.870 Y115.237 E1.03678 ; infill
G1 X80.870 Y114.704 E0.01674 ; infill
G1 X104.771 Y138.605 E1.06045 ; infill
G1 X105.305 Y138.605 E0.01674 ; infill
G1 X80.870 Y114.170 E1.08413 ; infill
G1 X80.870 Y113.637 E0.01674 ; infill
G1 X105.838 Y138.605 E1.10780 ; infill
G1 X106.372 Y138.605 E0.01674 ; infill
G1 X80.870 Y113.103 E1.13148 ; infill
G1 X80.870 Y112.570 E0.01674 ; infill
G1 X106.905 Y138.605 E1.15515 ; infill
G1 X107.439 Y138.605 E0.01674 ; infill
G1 X80.870 Y112.036 E1.17883 ; infill
G1 X80.870 Y111.502 E0.01674 ; infill
G1 X107.973 Y138.605 E1.20250 ; infill
G1 X108.506 Y138.605 E0.01674 ; infill
G1 X80.870 Y110.969 E1.22618 ; infill
G1 X80.870 Y110.435 E0.01674 ; infill
G1 X109.040 Y138.605 E1.24985 ; infill
G1 X109.573 Y138.605 E0.01674 ; infill
G1 X80.870 Y109.902 E1.27352 ; infill
G1 X80.870 Y109.368 E0.01674 ; infill
G1 X110.107 Y138.605 E1.29720 ; infill
G1 X110.641 Y138.605 E0.01674 ; infill
G1 X80.870 Y108.834 E1.32087 ; infill
G1 X80.870 Y108.301 E0.01674 ; infill
G1 X111.174 Y138.605 E1.34455 ; infill
G1 X111.708 Y138.605 E0.01674 ; infill
G1 X80.870 Y107.767 E1.36822 ; infill
G1 X80.870 Y107.234 E0.01674 ; infill
G1 X112.241 Y138.605 E1.39190 ; infill
G1 X112.775 Y138.605 E0.01674 ; infill
G1 X80.870 Y106.700 E1.41557 ; infill
G1 X80.870 Y106.166 E0.01674 ; infill
G1 X113.309 Y138.605 E1.43924 ; infill
G1 X113.842 Y138.605 E0.01674 ; infill
G1 X80.870 Y105.633 E1.46292 ; infill
G1 X80.870 Y105.099 E0.01674 ; infill
G1 X114.376 Y138.605 E1.48659 ; infill
G1 X114.909 Y138.605 E0.01674 ; infill
G1 X80.870 Y104.566 E1.51027 ; infill
G1 X80.870 Y104.032 E0.01674 ; infill
G1 X115.443 Y138.605 E1.53394 ; infill
G1 X115.976 Y138.605 E0.01674 ; infill
G1 X80.870 Y103.499 E1.55762 ; infill
G1 X80.870 Y102.965 E0.01674 ; infill
G1 X116.510 Y138.605 E1.58129 ; infill
G1 X117.044 Y138.605 E0.01674 ; infill
G1 X80.870 Y102.431 E1.60497 ; infill
G1 X80.870 Y101.898 E0.01674 ; infill
G1 X117.577 Y138.605 E1.62864 ; infill
G1 X118.111 Y138.605 E0.01674 ; infill
G1 X80.870 Y101.364 E1.65231 ; infill
G1 X80.870 Y100.831 E0.01674 ; infill
G1 X118.644 Y138.605 E1.67599 ; infill
G1 X119.178 Y138.605 E0.01674 ; infill
G1 X80.870 Y100.297 E1.69966 ; infill
G1 X80.870 Y99.763 E0.01674 ; infill
G1 X119.712 Y138.605 E1.72334 ; infill
G1 X120.245 Y138.605 E0.01674 ; infill
G1 X80.870 Y99.230 E1.74701 ; infill
G1 X80.870 Y98.696 E0.01674 ; infill
G1 X120.779 Y138.605 E1.77069 ; infill
G1 X121.312 Y138.605 E0.01674 ; infill
G1 X80.870 Y98.163 E1.79436 ; infill
G1 X80.870 Y97.629 E0.01674 ; infill
G1 X121.846 Y138.605 E1.81804 ; infill
G1 X122.380 Y138.605 E0.01674 ; infill
G1 X80.870 Y97.095 E1.84171 ; infill
G1 X80.870 Y96.562 E0.01674 ; infill
G1 X122.913 Y138.605 E1.86538 ; infill
G1 X123.447 Y138.605 E0.01674 ; infill
G1 X80.870 Y96.028 E1.88906 ; infill
G1 X80.870 Y95.495 E0.01674 ; infill
G1 X123.980 Y138.605 E1.91273 ; infill
G1 X124.514 Y138.605 E0.01674 ; infill
G1 X80.870 Y94.961 E1.93641 ; infill
G1 X80.870 Y94.427 E0.01674 ; infill
G1 X125.048 Y138.605 E1.96008 ; infill
G1 X125.581 Y138.605 E0.01674 ; infill
G1 X80.870 Y93.894 E1.98376 ; infill
G1 X80.870 Y93.360 E0.01674 ; infill
G1 X126.115 Y138.605 E2.00743 ; infill
G1 X126.648 Y138.605 E0.01674 ; infill
G1 X80.870 Y92.827 E2.03111 ; infill
G1 X80.870 Y92.293 E0.01674 ; infill
G1 X127.182 Y138.605 E2.05478 ; infill
G1 X127.715 Y138.605 E0.01674 ; infill
G1 X80.870 Y91.760 E2.07845 ; infill
G1 X80.870 Y91.226 E0.01674 ; infill
G1 X128.249 Y138.605 E2.10213 ; infill
G1 X128.783 Y138.605 E0.01674 ; infill
G1 X80.870 Y90.692 E2.12580 ; infill
G1 X80.870 Y90.159 E0.01674 ; infill
G1 X129.316 Y138.605 E2.14948 ; infill
G1 X129.850 Y138.605 E0.01674 ; infill
G1 X80.870 Y89.625 E2.17315 ; infill
G1 X80.870 Y89.092 E0.01674 ; infill
G1 X130.383 Y138.605 E2.19683 ; infill
G1 X130.917 Y138.605 E0.01674 ; infill
G1 X80.870 Y88.558 E2.22050 ; infill
G1 X80.870 Y88.024 E0.01674 ; infill
G1 X131.451 Y138.605 E2.24417 ; infill
G1 X131.984 Y138.605 E0.01674 ; infill
G1 X80.870 Y87.491 E2.26785 ; infill
G1 X80.870 Y86.957 E0.01674 ; infill
G1 X132.518 Y138.605 E2.29152 ; infill
G1 X133.051 Y138.605 E0.01674 ; infill
G1 X80.870 Y86.424 E2.31520 ; infill
G1 X80.870 Y85.890 E0.01674 ; infill
G1 X133.585 Y138.605 E2.33887 ; infill
G1 X134.119 Y138.605 E0.01674 ; infill
G1 X80.870 Y85.356 E2.36255 ; infill
G1 X80.870 Y84.823 E0.01674 ; infill
G1 X134.652 Y138.605 E2.38622 ; infill
G1 X135.186 Y138.605 E0.01674 ; infill
G1 X80.870 Y84.289 E2.40990 ; infill
G1 X80.870 Y83.756 E0.01674 ; infill
G1 X135.719 Y138.605 E2.43357 ; infill
G1 X136.253 Y138.605 E0.01674 ; infill
G1 X80.870 Y83.222 E2.45724 ; infill
G1 X80.870 Y82.689 E0.01674 ; infill
G1 X136.786 Y138.605 E2.48092 ; infill
G1 X137.320 Y138.605 E0.01674 ; infill
G1 X80.870 Y82.155 E2.50459 ; infill
G1 X80.870 Y81.621 E0.01674 ; infill
G1 X137.854 Y138.605 E2.52827 ; infill
G1 X138.387 Y138.605 E0.01674 ; infill
G1 X80.870 Y81.088 E2.55194 ; infill
G1 X80.870 Y80.554 E0.01674 ; infill
G1 X138.921 Y138.605 E2.57562 ; infill
G1 X139.454 Y138.605 E0.01674 ; infill
G1 X80.870 Y80.021 E2.59929 ; infill
G1 X80.870 Y79.487 E0.01674 ; infill
G1 X139.988 Y138.605 E2.62297 ; infill
G1 X140.522 Y138.605 E0.01674 ; infill
G1 X80.870 Y78.953 E2.64664 ; infill
G1 X80.870 Y78.420 E0.01674 ; infill
G1 X141.055 Y138.605 E2.67031 ; infill
G1 X141.589 Y138.605 E0.01674 ; infill
G1 X80.870 Y77.886 E2.69399 ; infill
G1 X80.870 Y77.353 E0.01674 ; infill
G1 X142.122 Y138.605 E2.71766 ; infill
G1 X142.656 Y138.605 E0.01674 ; infill
G1 X80.870 Y76.819 E2.74134 ; infill
G1 X80.870 Y76.285 E0.01674 ; infill
G1 X143.190 Y138.605 E2.76501 ; infill
G1 X143.723 Y138.605 E0.01674 ; infill
G1 X80.870 Y75.752 E2.78869 ; infill
G1 X80.870 Y75.218 E0.01674 ; infill
G1 X144.257 Y138.605 E2.81236 ; infill
G1 X144.790 Y138.605 E0.01674 ; infill
G1 X80.870 Y74.685 E2.83604 ; infill
G1 X80.870 Y74.151 E0.01674 ; infill
G1 X145.324 Y138.605 E2.85971 ; infill
G1 X145.858 Y138.605 E0.01674 ; infill
G1 X80.870 Y73.617 E2.88338 ; infill
G1 X80.870 Y73.084 E0.01674 ; infill
G1 X146.391 Y138.605 E2.90706 ; infill
G1 X146.925 Y138.605 E0.01674 ; infill
G1 X80.870 Y72.550 E2.93073 ; infill
G1 X80.870 Y72.345 E0.00645 ; infill
G1 X81.198 Y72.345 E0.01030 ; infill
G1 X147.458 Y138.605 E2.93985 ; infill
G1 X147.992 Y138.605 E0.01674 ; infill
G1 X81.732 Y72.345 E2.93985 ; infill
G1 X82.265 Y72.345 E0.01674 ; infill
G1 X148.525 Y138.605 E2.93985 ; infill
G1 X149.059 Y138.605 E0.01674 ; infill
G1 X82.799 Y72.345 E2.93985 ; infill
G1 X83.332 Y72.345 E0.01674 ; infill
G1 X149.593 Y138.605 E2.93985 ; infill
G1 X150.126 Y138.605 E0.01674 ; infill
G1 X83.866 Y72.345 E2.93985 ; infill
G1 X84.400 Y72.345 E0.01674 ; infill
G1 X150.660 Y138.605 E2.93985 ; infill
G1 X151.193 Y138.605 E0.01674 ; infill
G1 X84.933 Y72.345 E2.93985 ; infill
G1 X85.467 Y72.345 E0.01674 ; infill
G1 X151.727 Y138.605 E2.93985 ; infill
G1 X152.261 Y138.605 E0.01674 ; infill
G1 X86.000 Y72.345 E2.93985 ; infill
G1 X86.534 Y72.345 E0.01674 ; infill
G1 X152.794 Y138.605 E2.93985 ; infill
G1 X153.328 Y138.605 E0.01674 ; infill
G1 X87.068 Y72.345 E2.93985 ; infill
G1 X87.601 Y72.345 E0.01674 ; infill
G1 X153.861 Y138.605 E2.93985 ; infill
G1 X154.395 Y138.605 E0.01674 ; infill
G1 X88.135 Y72.345 E2.93985 ; infill
G1 X88.668 Y72.345 E0.01674 ; infill
G1 X154.929 Y138.605 E2.93985 ; infill
G1 X155.462 Y138.605 E0.01674 ; infill
G1 X89.202 Y72.345 E2.93985 ; infill
G1 X89.735 Y72.345 E0.01674 ; infill
G1 X155.996 Y138.605 E2.93985 ; infill
G1 X156.529 Y138.605 E0.01674 ; infill
G1 X90.269 Y72.345 E2.93985 ; infill
G1 X90.803 Y72.345 E0.01674 ; infill
G1 X157.063 Y138.605 E2.93985 ; infill
G1 X157.596 Y138.605 E0.01674 ; infill
G1 X91.336 Y72.345 E2.93985 ; infill
G1 X91.870 Y72.345 E0.01674 ; infill
G1 X158.130 Y138.605 E2.93985 ; infill
G1 X158.664 Y138.605 E0.01674 ; infill
G1 X92.403 Y72.345 E2.93985 ; infill
G1 X92.937 Y72.345 E0.01674 ; infill
G1 X159.197 Y138.605 E2.93985 ; infill
G1 X159.731 Y138.605 E0.01674 ; infill
G1 X93.471 Y72.345 E2.93985 ; infill
G1 X94.004 Y72.345 E0.01674 ; infill
G1 X160.264 Y138.605 E2.93985 ; infill
G1 X160.798 Y138.605 E0.01674 ; infill
G1 X94.538 Y72.345 E2.93985 ; infill
G1 X95.071 Y72.345 E0.01674 ; infill
G1 X161.332 Y138.605 E2.93985 ; infill
G1 X161.865 Y138.605 E0.01674 ; infill
G1 X95.605 Y72.345 E2.93985 ; infill
G1 X96.139 Y72.345 E0.01674 ; infill
G1 X162.399 Y138.605 E2.93985 ; infill
G1 X162.932 Y138.605 E0.01674 ; infill
G1 X96.672 Y72.345 E2.93985 ; infill
G1 X97.206 Y72.345 E0.01674 ; infill
G1 X163.466 Y138.605 E2.93985 ; infill
G1 X164.000 Y138.605 E0.01674 ; infill
G1 X97.739 Y72.345 E2.93985 ; infill
G1 X98.273 Y72.345 E0.01674 ; infill
G1 X164.533 Y138.605 E2.93985 ; infill
G1 X165.067 Y138.605 E0.01674 ; infill
G1 X98.806 Y72.345 E2.93985 ; infill
G1 X99.340 Y72.345 E0.01674 ; infill
G1 X165.600 Y138.605 E2.93985 ; infill
G1 X166.134 Y138.605 E0.01674 ; infill
G1 X99.874 Y72.345 E2.93985 ; infill
G1 X100.407 Y72.345 E0.01674 ; infill
G1 X166.668 Y138.605 E2.93985 ; infill
G1 X167.201 Y138.605 E0.01674 ; infill
G1 X100.941 Y72.345 E2.93985 ; infill
G1 X101.474 Y72.345 E0.01674 ; infill
G1 X167.735 Y138.605 E2.93985 ; infill
G1 X168.268 Y138.605 E0.01674 ; infill
G1 X102.008 Y72.345 E2.93985 ; infill
G1 X102.542 Y72.345 E0.01674 ; infill
G1 X168.802 Y138.605 E2.93985 ; infill
G1 X169.130 Y138.605 E0.01030 ; infill
G1 X169.130 Y138.400 E0.00644 ; infill
G1 X103.075 Y72.345 E2.93074 ; infill
G1 X103.609 Y72.345 E0.01674 ; infill
G1 X169.130 Y137.866 E2.90706 ; infill
