; generated by Slic3r 1.37.1-prusa3d-linux64 on 2017-10-17 at 21:29:38

; 

; external perimeters extrusion width = 0.56mm
; perimeters extrusion width = 0.56mm
; infill extrusion width = 0.56mm
; solid infill extrusion width = 0.56mm
; top infill extrusion width = 0.50mm
; first layer extrusion width = 0.60mm

M107
M104 S200 ; set temperature
G28 ; home all axes
G1 Z5 F5000 ; lift nozzle

; Filament gcode

M109 S200 ; set temperature and wait for it to be reached
G21 ; set units to millimeters
G90 ; use absolute coordinates
M82 ; use absolute distances for extrusion
G92 E0
G1 Z0.350 F7800.000
G1 E-2.00000 F2400.00000
G92 E0
G1 X49.772 Y62.406 F7800.000
G1 E2.00000 F2400.00000
G1 F1800
G1 X50.770 Y61.376 E2.04438
G1 X51.688 Y60.738 E2.07897
G1 X52.699 Y60.262 E2.11355
G1 X53.777 Y59.964 E2.14814
G1 X54.895 Y59.851 E2.18292
G1 X145.006 Y59.850 E4.97109
G1 X146.251 Y59.969 E5.00979
G1 X147.458 Y60.323 E5.04869
G1 X148.570 Y60.895 E5.08739
G1 X149.560 Y61.670 E5.12629
G1 X150.382 Y62.612 E5.16499
G1 X151.015 Y63.699 E5.20389
G1 X151.430 Y64.879 E5.24259
G1 X151.615 Y66.122 E5.28149
G1 X151.621 Y134.691 E7.40310
G1 X151.429 Y136.074 E7.44631
G1 X150.951 Y137.386 E7.48951
G1 X150.209 Y138.569 E7.53272
G1 X149.230 Y139.574 E7.57612
G1 X148.312 Y140.212 E7.61071
G1 X147.301 Y140.688 E7.64529
G1 X146.223 Y140.986 E7.67988
G1 X145.105 Y141.099 E7.71466
G1 X54.943 Y141.100 E10.50440
G1 X53.512 Y140.931 E10.54898
G1 X52.158 Y140.459 E10.59335
G1 X50.936 Y139.707 E10.63773
G1 X49.901 Y138.705 E10.68231
G1 X49.266 Y137.793 E10.71670
G1 X48.792 Y136.788 E10.75109
G1 X48.493 Y135.717 E10.78548
G1 X48.377 Y134.612 E10.81987
G1 X48.376 Y66.399 E12.93047
G1 X48.546 Y64.981 E12.97466
G1 X49.019 Y63.627 E13.01904
G1 X49.732 Y62.470 E13.06109
G1 E11.06109 F2400.00000
G92 E0
G1 X143.400 Y132.875 F7800.000
G1 E2.00000 F2400.00000
G1 F1800
G1 X56.600 Y132.875 E4.68572
G1 X56.600 Y68.075 E6.69073
G1 X143.400 Y68.075 E9.37645
G1 X143.400 Y132.800 E11.37914
G1 X144.025 Y133.500 F7800.000
G1 F1800
G1 X55.975 Y133.500 E14.10353
G1 X55.975 Y67.450 E16.14721
G1 X144.025 Y67.450 E18.87160
G1 X144.025 Y133.425 E20.91296
G1 X144.650 Y134.125 F7800.000
G1 F1800
G1 X55.350 Y134.125 E23.67602
G1 X55.350 Y66.825 E25.75837
G1 X144.650 Y66.825 E28.52143
G1 X144.650 Y134.050 E30.60146
G1 X144.162 Y134.018 F7800.000
G1 E28.60146 F2400.00000
G92 E0
G1 X143.213 Y69.532 F7800.000
G1 E2.00000 F2400.00000
G1 F1800
G1 X142.224 Y68.543 E2.04347
G1 X141.336 Y68.543 E2.07108
G1 X142.932 Y70.139 E2.14124
G1 X142.932 Y71.027 E2.16885
G1 X140.448 Y68.543 E2.27806
G1 X139.560 Y68.543 E2.30568
G1 X142.932 Y71.915 E2.45394
G1 X142.932 Y72.803 E2.48156
G1 X138.672 Y68.543 E2.66887
G1 X137.784 Y68.543 E2.69649
G1 X142.932 Y73.691 E2.92285
G1 X142.932 Y74.579 E2.95047
G1 X136.896 Y68.543 E3.21589
G1 X136.008 Y68.543 E3.24350
G1 X142.932 Y75.467 E3.54798
G1 X142.932 Y76.355 E3.57559
G1 X135.120 Y68.543 E3.91912
G1 X134.231 Y68.543 E3.94673
G1 X142.932 Y77.244 E4.32931
G1 X142.932 Y78.132 E4.35693
G1 X133.343 Y68.543 E4.77856
G1 X132.455 Y68.543 E4.80618
G1 X142.932 Y79.020 E5.26686
G1 X142.932 Y79.908 E5.29448
G1 X131.567 Y68.543 E5.79421
G1 X130.679 Y68.543 E5.82183
G1 X142.932 Y80.796 E6.36062
G1 X142.932 Y81.684 E6.38823
G1 X129.791 Y68.543 E6.96608
G1 X128.903 Y68.543 E6.99369
G1 X142.932 Y82.572 E7.61059
G1 X142.932 Y83.460 E7.63820
G1 X128.015 Y68.543 E8.29415
G1 X127.127 Y68.543 E8.32177
G1 X142.932 Y84.348 E9.01677
G1 X142.932 Y85.236 E9.04439
G1 X126.239 Y68.543 E9.77844
G1 X125.350 Y68.543 E9.80606
G1 X142.932 Y86.125 E10.57916
G1 X142.932 Y87.013 E10.60678
G1 X124.462 Y68.543 E11.41894
G1 X123.574 Y68.543 E11.44655
G1 X142.932 Y87.901 E12.29777
G1 X142.932 Y88.789 E12.32538
G1 X122.686 Y68.543 E13.21565
G1 X121.798 Y68.543 E13.24327
G1 X142.932 Y89.677 E14.17259
G1 X142.932 Y90.565 E14.20020
G1 X120.910 Y68.543 E15.16857
G1 X120.022 Y68.543 E15.19619
G1 X142.932 Y91.453 E16.20361
G1 X142.932 Y92.341 E16.23123
G1 X119.134 Y68.543 E17.27771
G1 X118.246 Y68.543 E17.30532
G1 X142.932 Y93.229 E18.39085
G1 X142.932 Y94.117 E18.41847
G1 X117.358 Y68.543 E19.54305
G1 X116.470 Y68.543 E19.57067
G1 X142.932 Y95.005 E20.73430
G1 X142.932 Y95.894 E20.76192
G1 X115.581 Y68.543 E21.96461
G1 X114.693 Y68.543 E21.99222
G1 X142.932 Y96.782 E23.23397
G1 X142.932 Y97.670 E23.26158
G1 X113.805 Y68.543 E24.54238
G1 X112.917 Y68.543 E24.56999
G1 X142.932 Y98.558 E25.88984
G1 X142.932 Y99.446 E25.91745
G1 X112.029 Y68.543 E27.27636
G1 X111.141 Y68.543 E27.30397
G1 X142.932 Y100.334 E28.70193
G1 X142.932 Y101.222 E28.72954
G1 X110.253 Y68.543 E30.16655
G1 X109.365 Y68.543 E30.19416
G1 X142.932 Y102.110 E31.67022
G1 X142.932 Y102.998 E31.69784
G1 X108.477 Y68.543 E33.21295
G1 X107.589 Y68.543 E33.24056
G1 X142.932 Y103.886 E34.79473
G1 X142.932 Y104.774 E34.82235
G1 X106.701 Y68.543 E36.41556
G1 X105.812 Y68.543 E36.44318
G1 X142.932 Y105.663 E38.07545
G1 X142.932 Y106.551 E38.10307
G1 X104.924 Y68.543 E39.77439
G1 X104.036 Y68.543 E39.80200
G1 X142.932 Y107.439 E41.51238
G1 X142.932 Y108.327 E41.54000
G1 X103.148 Y68.543 E43.28943
G1 X102.260 Y68.543 E43.31704
G1 X142.932 Y109.215 E45.10553
G1 X142.932 Y110.103 E45.13314
G1 X101.372 Y68.543 E46.96068
G1 X100.484 Y68.543 E46.98829
G1 X142.932 Y110.991 E48.85488
G1 X142.932 Y111.879 E48.88250
G1 X99.596 Y68.543 E50.78814
G1 X98.708 Y68.543 E50.81575
G1 X142.932 Y112.767 E52.76045
G1 X142.932 Y113.655 E52.78806
G1 X97.820 Y68.543 E54.77181
G1 X96.931 Y68.543 E54.79942
G1 X142.932 Y114.544 E56.82222
G1 X142.932 Y115.432 E56.84984
G1 X96.043 Y68.543 E58.91169
G1 X95.155 Y68.543 E58.93931
G1 X142.932 Y116.320 E61.04021
G1 X142.932 Y117.208 E61.06783
G1 X94.267 Y68.543 E63.20779
G1 X93.379 Y68.543 E63.23540
G1 X142.932 Y118.096 E65.41441
G1 X142.932 Y118.984 E65.44203
G1 X92.491 Y68.543 E67.66009
G1 X91.603 Y68.543 E67.68771
G1 X142.932 Y119.872 E69.94483
G1 X142.932 Y120.760 E69.97244
G1 X90.715 Y68.543 E72.26861
G1 X89.827 Y68.543 E72.29623
G1 X142.932 Y121.648 E74.63145
G1 X142.932 Y122.536 E74.65906
G1 X88.939 Y68.543 E77.03334
G1 X88.051 Y68.543 E77.06096
G1 X142.932 Y123.424 E79.47429
G1 X142.932 Y124.313 E79.50190
G1 X87.162 Y68.543 E81.95428
G1 X86.274 Y68.543 E81.98190
G1 X142.932 Y125.201 E84.47333
G1 X142.932 Y126.089 E84.50095
G1 X85.386 Y68.543 E87.03144
G1 X84.498 Y68.543 E87.05905
G1 X142.932 Y126.977 E89.62859
G1 X142.932 Y127.865 E89.65621
G1 X83.610 Y68.543 E92.26480
G1 X82.722 Y68.543 E92.29241
G1 X142.932 Y128.753 E94.94006
G1 X142.932 Y129.641 E94.96768
G1 X81.834 Y68.543 E97.65438
G1 X80.946 Y68.543 E97.68199
G1 X142.932 Y130.529 E100.40774
G1 X142.932 Y131.417 E100.43536
G1 X80.058 Y68.543 E103.20016
G1 X79.170 Y68.543 E103.22778
G1 X142.932 Y132.305 E106.03164
G1 X142.932 Y132.407 E106.03478
G1 X142.145 Y132.407 E106.05925
G1 X78.282 Y68.543 E108.86756
G1 X77.393 Y68.543 E108.89517
G1 X141.257 Y132.407 E111.70348
G1 X140.368 Y132.407 E111.73109
G1 X76.505 Y68.543 E114.53940
G1 X75.617 Y68.543 E114.56702
G1 X139.480 Y132.407 E117.37533
G1 X138.592 Y132.407 E117.40294
G1 X74.729 Y68.543 E120.21125
G1 X73.841 Y68.543 E120.23886
G1 X137.704 Y132.407 E123.04717
G1 X136.816 Y132.407 E123.07479
G1 X72.953 Y68.543 E125.88309
G1 X72.065 Y68.543 E125.91071
G1 X135.928 Y132.407 E128.71902
G1 X135.040 Y132.407 E128.74663
G1 X71.177 Y68.543 E131.55494
G1 X70.289 Y68.543 E131.58255
G1 X134.152 Y132.407 E134.39086
G1 X133.264 Y132.407 E134.41848
G1 X69.401 Y68.543 E137.22678
G1 X68.512 Y68.543 E137.25440
G1 X132.376 Y132.407 E140.06271
G1 X131.488 Y132.407 E140.09032
G1 X67.624 Y68.543 E142.89863
G1 X66.736 Y68.543 E142.92624
G1 X130.599 Y132.407 E145.73455
G1 X129.711 Y132.407 E145.76217
G1 X65.848 Y68.543 E148.57047
G1 X64.960 Y68.543 E148.59809
G1 X128.823 Y132.407 E151.40640
G1 X127.935 Y132.407 E151.43401
G1 X64.072 Y68.543 E154.24232
G1 X63.184 Y68.543 E154.26993
G1 X127.047 Y132.407 E157.07824
G1 X126.159 Y132.407 E157.10586
G1 X62.296 Y68.543 E159.91416
G1 X61.408 Y68.543 E159.94178
G1 X125.271 Y132.407 E162.75009
G1 X124.383 Y132.407 E162.77770
G1 X60.520 Y68.543 E165.58601
G1 X59.632 Y68.543 E165.61362
G1 X123.495 Y132.407 E168.42193
G1 X122.607 Y132.407 E168.44955
G1 X58.743 Y68.543 E171.25785
G1 X57.855 Y68.543 E171.28547
G1 X121.719 Y132.407 E174.09378
G1 X120.830 Y132.407 E174.12139
G1 X57.068 Y68.645 E176.92525
G1 X57.068 Y69.533 E176.95286
G1 X119.942 Y132.407 E179.71767
G1 X119.054 Y132.407 E179.74529
G1 X57.068 Y70.421 E182.47104
G1 X57.068 Y71.309 E182.49866
G1 X118.166 Y132.407 E185.18536
G1 X117.278 Y132.407 E185.21297
G1 X57.068 Y72.197 E187.86062
G1 X57.068 Y73.085 E187.88823
G1 X116.390 Y132.407 E190.49683
G1 X115.502 Y132.407 E190.52444
G1 X57.068 Y73.973 E193.09399
G1 X57.068 Y74.861 E193.12160
G1 X114.614 Y132.407 E195.65209
G1 X113.726 Y132.407 E195.67971
G1 X57.068 Y75.749 E198.17114
G1 X57.068 Y76.637 E198.19876
G1 X112.838 Y132.407 E200.65114
G1 X111.949 Y132.407 E200.67876
G1 X57.068 Y77.526 E203.09209
G1 X57.068 Y78.414 E203.11970
G1 X111.061 Y132.407 E205.49398
G1 X110.173 Y132.407 E205.52159
G1 X57.068 Y79.302 E207.85682
G1 X57.068 Y80.190 E207.88443
G1 X109.285 Y132.407 E210.18061
G1 X108.397 Y132.407 E210.20822
G1 X57.068 Y81.078 E212.46534
G1 X57.068 Y81.966 E212.49295
G1 X107.509 Y132.407 E214.71102
G1 X106.621 Y132.407 E214.73864
G1 X57.068 Y82.854 E216.91765
G1 X57.068 Y83.742 E216.94526
G1 X105.733 Y132.407 E219.08522
G1 X104.845 Y132.407 E219.11284
G1 X57.068 Y84.630 E221.21375
G1 X57.068 Y85.518 E221.24136
G1 X103.957 Y132.407 E223.30322
G1 X103.069 Y132.407 E223.33083
G1 X57.068 Y86.406 E225.35363
G1 X57.068 Y87.295 E225.38125
G1 X102.180 Y132.407 E227.36500
G1 X101.292 Y132.407 E227.39261
G1 X57.068 Y88.183 E229.33731
G1 X57.068 Y89.071 E229.36492
G1 X100.404 Y132.407 E231.27057
G1 X99.516 Y132.407 E231.29818
G1 X57.068 Y89.959 E233.16477
G1 X57.068 Y90.847 E233.19239
G1 X98.628 Y132.407 E235.01992
G1 X97.740 Y132.407 E235.04754
G1 X57.068 Y91.735 E236.83602
G1 X57.068 Y92.623 E236.86364
G1 X96.852 Y132.407 E238.61307
G1 X95.964 Y132.407 E238.64068
G1 X57.068 Y93.511 E240.35106
G1 X57.068 Y94.399 E240.37868
G1 X95.076 Y132.407 E242.05000
G1 X94.188 Y132.407 E242.07762
G1 X57.068 Y95.287 E243.70989
G1 X57.068 Y96.175 E243.73751
G1 X93.300 Y132.407 E245.33073
G1 X92.411 Y132.407 E245.35834
G1 X57.068 Y97.064 E246.91251
G1 X57.068 Y97.952 E246.94012
G1 X91.523 Y132.407 E248.45524
G1 X90.635 Y132.407 E248.48285
G1 X57.068 Y98.840 E249.95892
G1 X57.068 Y99.728 E249.98653
G1 X89.747 Y132.407 E251.42354
G1 X88.859 Y132.407 E251.45115
G1 X57.068 Y100.616 E252.84911
G1 X57.068 Y101.504 E252.87672
G1 X87.971 Y132.407 E254.23563
G1 X87.083 Y132.407 E254.26324
G1 X57.068 Y102.392 E255.58309
G1 X57.068 Y103.280 E255.61071
G1 X86.195 Y132.407 E256.89150
G1 X85.307 Y132.407 E256.91912
G1 X57.068 Y104.168 E258.16086
G1 X57.068 Y105.056 E258.18848
G1 X84.419 Y132.407 E259.39117
G1 X83.530 Y132.407 E259.41878
G1 X57.068 Y105.945 E260.58242
G1 X57.068 Y106.833 E260.61004
G1 X82.642 Y132.407 E261.73462
G1 X81.754 Y132.407 E261.76224
G1 X57.068 Y107.721 E262.84777
G1 X57.068 Y108.609 E262.87539
G1 X80.866 Y132.407 E263.92187
G1 X79.978 Y132.407 E263.94948
G1 X57.068 Y109.497 E264.95691
G1 X57.068 Y110.385 E264.98452
G1 X79.090 Y132.407 E265.95290
G1 X78.202 Y132.407 E265.98051
G1 X57.068 Y111.273 E266.90983
G1 X57.068 Y112.161 E266.93745
G1 X77.314 Y132.407 E267.82772
G1 X76.426 Y132.407 E267.85533
G1 X57.068 Y113.049 E268.70655
G1 X57.068 Y113.937 E268.73416
G1 X75.538 Y132.407 E269.54632
G1 X74.650 Y132.407 E269.57394
G1 X57.068 Y114.825 E270.34705
G1 X57.068 Y115.714 E270.37466
G1 X73.761 Y132.407 E271.10872
G1 X72.873 Y132.407 E271.13633
G1 X57.068 Y116.602 E271.83134
G1 X57.068 Y117.490 E271.85895
G1 X71.985 Y132.407 E272.51490
G1 X71.097 Y132.407 E272.54252
G1 X57.068 Y118.378 E273.15942
G1 X57.068 Y119.266 E273.18703
G1 X70.209 Y132.407 E273.76488
G1 X69.321 Y132.407 E273.79249
G1 X57.068 Y120.154 E274.33128
G1 X57.068 Y121.042 E274.35890
G1 X68.433 Y132.407 E274.85864
G1 X67.545 Y132.407 E274.88625
G1 X57.068 Y121.930 E275.34694
G1 X57.068 Y122.818 E275.37455
G1 X66.657 Y132.407 E275.79619
G1 X65.769 Y132.407 E275.82380
G1 X57.068 Y123.706 E276.20638
G1 X57.068 Y124.594 E276.23400
G1 X64.881 Y132.407 E276.57753
G1 X63.992 Y132.407 E276.60514
G1 X57.068 Y125.483 E276.90962
G1 X57.068 Y126.371 E276.93723
G1 X63.104 Y132.407 E277.20265
G1 X62.216 Y132.407 E277.23027
G1 X57.068 Y127.259 E277.45664
G1 X57.068 Y128.147 E277.48425
G1 X61.328 Y132.407 E277.67157
G1 X60.440 Y132.407 E277.69918
G1 X57.068 Y129.035 E277.84745
G1 X57.068 Y129.923 E277.87506
G1 X59.552 Y132.407 E277.98427
G1 X58.664 Y132.407 E278.01189
G1 X57.068 Y130.811 E278.08205
G1 X57.068 Y131.699 E278.10966
G1 X58.057 Y132.688 E278.15313
G1 Z0.650 F7800.000
G1 X143.723 Y133.198 F7800.000
G1 F3600
G1 X56.277 Y133.198 E280.00179
G1 X56.277 Y67.752 E281.38536
G1 X143.723 Y67.752 E283.23402
G1 X143.723 Y133.123 E284.61600
G1 X144.221 Y133.696 F7800.000
G1 F3600
G1 X55.779 Y133.696 E286.48572
G1 X55.779 Y67.254 E287.89034
G1 X144.221 Y67.254 E289.76007
G1 X144.221 Y133.621 E291.16311
G1 X144.719 Y134.194 F7800.000
G1 F1800
G1 X55.281 Y134.194 E293.05389
G1 X55.281 Y66.756 E294.47958
G1 X144.719 Y66.756 E296.37036
G1 X144.719 Y134.119 E297.79446
G1 X144.230 Y134.087 F7800.000
G1 X142.565 Y133.048 F7800.000
G1 F1200
G1 X143.349 Y132.264 E297.81795
G1 X143.349 Y131.558 E297.83289
G1 X142.083 Y132.824 E297.87079
G1 X141.378 Y132.824 E297.88572
G1 X143.349 Y130.853 E297.94475
G1 X143.349 Y130.147 E297.95969
G1 X140.672 Y132.824 E298.03984
G1 X139.967 Y132.824 E298.05478
G1 X143.349 Y129.442 E298.15605
G1 X143.349 Y128.736 E298.17099
G1 X139.261 Y132.824 E298.29339
G1 X138.556 Y132.824 E298.30833
G1 X143.349 Y128.031 E298.45186
G1 X143.349 Y127.325 E298.46680
G1 X137.850 Y132.824 E298.63145
G1 X137.145 Y132.824 E298.64639
G1 X143.349 Y126.620 E298.83217
G1 X143.349 Y125.914 E298.84710
G1 X136.439 Y132.824 E299.05401
G1 X135.734 Y132.824 E299.06894
G1 X143.349 Y125.209 E299.29697
G1 X143.349 Y124.503 E299.31191
G1 X135.028 Y132.824 E299.56107
G1 X134.323 Y132.824 E299.57600
G1 X143.349 Y123.798 E299.84628
G1 X143.349 Y123.092 E299.86122
G1 X133.617 Y132.824 E300.15263
G1 X132.911 Y132.824 E300.16756
G1 X143.349 Y122.386 E300.48009
G1 X143.349 Y121.681 E300.49503
G1 X132.206 Y132.824 E300.82869
G1 X131.500 Y132.824 E300.84363
G1 X143.349 Y120.975 E301.19841
G1 X143.349 Y120.270 E301.21334
G1 X130.795 Y132.824 E301.58925
G1 X130.089 Y132.824 E301.60419
G1 X143.349 Y119.564 E302.00122
G1 X143.349 Y118.859 E302.01616
G1 X129.384 Y132.824 E302.43432
G1 X128.678 Y132.824 E302.44925
G1 X143.349 Y118.153 E302.88854
G1 X143.349 Y117.448 E302.90347
G1 X127.973 Y132.824 E303.36388
G1 X127.267 Y132.824 E303.37882
G1 X143.349 Y116.742 E303.86035
G1 X143.349 Y116.037 E303.87529
G1 X126.562 Y132.824 E304.37795
G1 X125.856 Y132.824 E304.39289
G1 X143.349 Y115.331 E304.91667
G1 X143.349 Y114.626 E304.93161
G1 X125.151 Y132.824 E305.47652
G1 X124.445 Y132.824 E305.49146
G1 X143.349 Y113.920 E306.05749
G1 X143.349 Y113.215 E306.07243
G1 X123.740 Y132.824 E306.65959
G1 X123.034 Y132.824 E306.67453
G1 X143.349 Y112.509 E307.28281
G1 X143.349 Y111.804 E307.29775
G1 X122.329 Y132.824 E307.92716
G1 X121.623 Y132.824 E307.94210
G1 X143.349 Y111.098 E308.59263
G1 X143.349 Y110.393 E308.60757
G1 X120.918 Y132.824 E309.27923
G1 X120.212 Y132.824 E309.29417
G1 X143.349 Y109.687 E309.98696
G1 X143.349 Y108.982 E310.00189
G1 X119.507 Y132.824 E310.71581
G1 X118.801 Y132.824 E310.73074
G1 X143.349 Y108.276 E311.46578
G1 X143.349 Y107.571 E311.48072
G1 X118.096 Y132.824 E312.23688
G1 X117.390 Y132.824 E312.25182
G1 X143.349 Y106.865 E313.02911
G1 X143.349 Y106.160 E313.04405
G1 X116.685 Y132.824 E313.84246
G1 X115.979 Y132.824 E313.85740
G1 X143.349 Y105.454 E314.67694
G1 X143.349 Y104.749 E314.69187
G1 X115.274 Y132.824 E315.53254
G1 X114.568 Y132.824 E315.54748
G1 X143.349 Y104.043 E316.40927
G1 X143.349 Y103.338 E316.42420
G1 X113.863 Y132.824 E317.30712
G1 X113.157 Y132.824 E317.32206
G1 X143.349 Y102.632 E318.22610
G1 X143.349 Y101.926 E318.24103
