; generated by Slic3r 1.37.1-prusa3d-linux64 on 2017-10-19 at 22:34:11

; 

; external perimeters extrusion width = 0.45mm
; perimeters extrusion width = 0.45mm
; infill extrusion width = 0.45mm
; solid infill extrusion width = 0.45mm
; top infill extrusion width = 0.45mm
; first layer extrusion width = 0.42mm

M107 ; disable fan
M115 U3.0.12 ; tell printer latest fw version
M83  ; extruder relative mode
M104 S255 ; set extruder temp
M140 S100 ; set bed temp
M190 S100 ; wait for bed temp
M109 S255 ; wait for extruder temp
G28 W ; home all without mesh bed level
G80 ; mesh bed leveling
G1 Y-3.0 F1000.0 ; go outside pritn area
G1 X60.0 E9.0  F1000.0 ; intro line
G1 X100.0 E12.5  F1000.0 ; intro line
; Filament gcode

G21 ; set units to millimeters
G90 ; use absolute coordinates
M83 ; use relative distances for extrusion
;BEFORE_LAYER_CHANGE
;0.2


G1 E-0.80000 F2100.00000 ; retract
G1 Z0.600 F7200.000 ; lift Z
;AFTER_LAYER_CHANGE
;0.2
G1 X74.279 Y69.210 F7200.000 ; move to first skirt point
G1 Z0.200 F7200.000 ; restore layer Z
G1 E0.80000 F2100.00000 ; unretract
M204 S1000 ; adjust acceleration
G1 F2100
G1 X74.991 Y69.098 E0.02260 ; skirt
G1 X175.004 Y69.098 E3.13582 ; skirt
G1 X175.899 Y69.274 E0.02860 ; skirt
G1 X176.664 Y69.778 E0.02872 ; skirt
G1 X177.182 Y70.533 E0.02872 ; skirt
G1 X177.377 Y71.428 E0.02872 ; skirt
G1 X177.377 Y139.509 E2.13463 ; skirt
G1 X177.303 Y140.063 E0.01752 ; skirt
G1 X177.102 Y140.584 E0.01752 ; skirt
G1 X176.785 Y141.044 E0.01752 ; skirt
G1 X176.367 Y141.420 E0.01763 ; skirt
G1 X175.721 Y141.740 E0.02260 ; skirt
G1 X175.009 Y141.852 E0.02260 ; skirt
G1 X74.989 Y141.852 E3.13606 ; skirt
G1 X74.430 Y141.783 E0.01763 ; skirt
G1 X73.901 Y141.583 E0.01775 ; skirt
G1 X73.434 Y141.263 E0.01775 ; skirt
G1 X73.055 Y140.842 E0.01775 ; skirt
G1 X72.736 Y140.200 E0.02249 ; skirt
G1 X72.623 Y139.491 E0.02249 ; skirt
G1 X72.623 Y71.456 E2.13320 ; skirt
G1 X72.694 Y70.898 E0.01763 ; skirt
G1 X72.894 Y70.372 E0.01763 ; skirt
G1 X73.215 Y69.906 E0.01775 ; skirt
G1 X73.633 Y69.530 E0.01763 ; skirt
G1 X74.225 Y69.237 E0.02072 ; skirt
G1 E-0.48000 F2100.00000 ; retract
G1 F5760
G1 X74.991 Y69.098 E-0.26959 ; wipe and retract
G1 F5760
G1 X75.091 Y69.098 E-0.03441 ; wipe and retract
G1 E-0.01600 F2100.00000 ; retract
G1 Z0.800 F7200.000 ; lift Z
G1 X75.587 Y72.062 F7200.000 ; move to first perimeter point
G1 Z0.200 F7200.000 ; restore layer Z
G1 E0.80000 F2100.00000 ; unretract
G1 F1680
G1 X174.413 Y72.062 E3.09861 ; perimeter
G1 X174.413 Y138.888 E2.09528 ; perimeter
G1 X75.587 Y138.888 E3.09861 ; perimeter
G1 X75.587 Y72.122 E2.09340 ; perimeter
G1 X75.210 Y71.685 F7200.000 ; move to first perimeter point
G1 F1260
G1 X174.790 Y71.685 E3.12226 ; perimeter
G1 X174.790 Y139.265 E2.11892 ; perimeter
G1 X75.210 Y139.265 E3.12226 ; perimeter
G1 X75.210 Y71.745 E2.11704 ; perimeter
G1 X75.602 Y71.764 F7200.000 ; move inwards before travel
G1 E-0.48000 F2100.00000 ; retract
G1 F5760
G1 X76.088 Y71.744 E-0.30400 ; wipe and retract
G1 E-0.01600 F2100.00000 ; retract
G1 Z0.800 F7200.000 ; lift Z
G1 X75.700 Y138.010 F7200.000 ; move to first infill point
G1 Z0.200 F7200.000 ; restore layer Z
G1 E0.80000 F2100.00000 ; unretract
G1 F1680
G1 X76.295 Y138.605 E0.02647 ; infill
G1 X76.830 Y138.605 E0.01682 ; infill
G1 X75.870 Y137.645 E0.04271 ; infill
G1 X75.870 Y137.110 E0.01682 ; infill
G1 X77.365 Y138.605 E0.06650 ; infill
G1 X77.900 Y138.605 E0.01682 ; infill
G1 X75.870 Y136.575 E0.09029 ; infill
G1 X75.870 Y136.040 E0.01682 ; infill
G1 X78.435 Y138.605 E0.11408 ; infill
G1 X78.970 Y138.605 E0.01682 ; infill
G1 X75.870 Y135.505 E0.13787 ; infill
G1 X75.870 Y134.970 E0.01682 ; infill
G1 X79.505 Y138.605 E0.16165 ; infill
G1 X80.039 Y138.605 E0.01682 ; infill
G1 X75.870 Y134.436 E0.18544 ; infill
G1 X75.870 Y133.901 E0.01682 ; infill
G1 X80.574 Y138.605 E0.20923 ; infill
G1 X81.109 Y138.605 E0.01682 ; infill
G1 X75.870 Y133.366 E0.23302 ; infill
G1 X75.870 Y132.831 E0.01682 ; infill
G1 X81.644 Y138.605 E0.25681 ; infill
G1 X82.179 Y138.605 E0.01682 ; infill
G1 X75.870 Y132.296 E0.28059 ; infill
G1 X75.870 Y131.761 E0.01682 ; infill
G1 X82.714 Y138.605 E0.30438 ; infill
G1 X83.249 Y138.605 E0.01682 ; infill
G1 X75.870 Y131.226 E0.32817 ; infill
G1 X75.870 Y130.691 E0.01682 ; infill
G1 X83.784 Y138.605 E0.35196 ; infill
G1 X84.318 Y138.605 E0.01682 ; infill
G1 X75.870 Y130.157 E0.37575 ; infill
G1 X75.870 Y129.622 E0.01682 ; infill
G1 X84.853 Y138.605 E0.39953 ; infill
G1 X85.388 Y138.605 E0.01682 ; infill
G1 X75.870 Y129.087 E0.42332 ; infill
G1 X75.870 Y128.552 E0.01682 ; infill
G1 X85.923 Y138.605 E0.44711 ; infill
G1 X86.458 Y138.605 E0.01682 ; infill
G1 X75.870 Y128.017 E0.47090 ; infill
G1 X75.870 Y127.482 E0.01682 ; infill
G1 X86.993 Y138.605 E0.49469 ; infill
G1 X87.528 Y138.605 E0.01682 ; infill
G1 X75.870 Y126.947 E0.51847 ; infill
G1 X75.870 Y126.412 E0.01682 ; infill
G1 X88.063 Y138.605 E0.54226 ; infill
G1 X88.597 Y138.605 E0.01682 ; infill
G1 X75.870 Y125.878 E0.56605 ; infill
G1 X75.870 Y125.343 E0.01682 ; infill
G1 X89.132 Y138.605 E0.58984 ; infill
G1 X89.667 Y138.605 E0.01682 ; infill
G1 X75.870 Y124.808 E0.61363 ; infill
G1 X75.870 Y124.273 E0.01682 ; infill
G1 X90.202 Y138.605 E0.63741 ; infill
G1 X90.737 Y138.605 E0.01682 ; infill
G1 X75.870 Y123.738 E0.66120 ; infill
G1 X75.870 Y123.203 E0.01682 ; infill
G1 X91.272 Y138.605 E0.68499 ; infill
G1 X91.807 Y138.605 E0.01682 ; infill
G1 X75.870 Y122.668 E0.70878 ; infill
G1 X75.870 Y122.134 E0.01682 ; infill
G1 X92.341 Y138.605 E0.73257 ; infill
G1 X92.876 Y138.605 E0.01682 ; infill
G1 X75.870 Y121.599 E0.75635 ; infill
G1 X75.870 Y121.064 E0.01682 ; infill
G1 X93.411 Y138.605 E0.78014 ; infill
G1 X93.946 Y138.605 E0.01682 ; infill
G1 X75.870 Y120.529 E0.80393 ; infill
G1 X75.870 Y119.994 E0.01682 ; infill
G1 X94.481 Y138.605 E0.82772 ; infill
G1 X95.016 Y138.605 E0.01682 ; infill
G1 X75.870 Y119.459 E0.85151 ; infill
G1 X75.870 Y118.924 E0.01682 ; infill
G1 X95.551 Y138.605 E0.87529 ; infill
G1 X96.086 Y138.605 E0.01682 ; infill
G1 X75.870 Y118.389 E0.89908 ; infill
G1 X75.870 Y117.855 E0.01682 ; infill
G1 X96.620 Y138.605 E0.92287 ; infill
G1 X97.155 Y138.605 E0.01682 ; infill
G1 X75.870 Y117.320 E0.94666 ; infill
G1 X75.870 Y116.785 E0.01682 ; infill
G1 X97.690 Y138.605 E0.97045 ; infill
G1 X98.225 Y138.605 E0.01682 ; infill
G1 X75.870 Y116.250 E0.99423 ; infill
G1 X75.870 Y115.715 E0.01682 ; infill
G1 X98.760 Y138.605 E1.01802 ; infill
G1 X99.295 Y138.605 E0.01682 ; infill
G1 X75.870 Y115.180 E1.04181 ; infill
G1 X75.870 Y114.645 E0.01682 ; infill
G1 X99.830 Y138.605 E1.06560 ; infill
G1 X100.364 Y138.605 E0.01682 ; infill
G1 X75.870 Y114.111 E1.08939 ; infill
G1 X75.870 Y113.576 E0.01682 ; infill
G1 X100.899 Y138.605 E1.11317 ; infill
G1 X101.434 Y138.605 E0.01682 ; infill
G1 X75.870 Y113.041 E1.13696 ; infill
G1 X75.870 Y112.506 E0.01682 ; infill
G1 X101.969 Y138.605 E1.16075 ; infill
G1 X102.504 Y138.605 E0.01682 ; infill
G1 X75.870 Y111.971 E1.18454 ; infill
G1 X75.870 Y111.436 E0.01682 ; infill
G1 X103.039 Y138.605 E1.20833 ; infill
G1 X103.574 Y138.605 E0.01682 ; infill
G1 X75.870 Y110.901 E1.23211 ; infill
G1 X75.870 Y110.366 E0.01682 ; infill
G1 X104.109 Y138.605 E1.25590 ; infill
G1 X104.643 Y138.605 E0.01682 ; infill
G1 X75.870 Y109.832 E1.27969 ; infill
G1 X75.870 Y109.297 E0.01682 ; infill
G1 X105.178 Y138.605 E1.30348 ; infill
G1 X105.713 Y138.605 E0.01682 ; infill
G1 X75.870 Y108.762 E1.32727 ; infill
G1 X75.870 Y108.227 E0.01682 ; infill
G1 X106.248 Y138.605 E1.35105 ; infill
G1 X106.783 Y138.605 E0.01682 ; infill
G1 X75.870 Y107.692 E1.37484 ; infill
G1 X75.870 Y107.157 E0.01682 ; infill
G1 X107.318 Y138.605 E1.39863 ; infill
G1 X107.853 Y138.605 E0.01682 ; infill
G1 X75.870 Y106.622 E1.42242 ; infill
G1 X75.870 Y106.087 E0.01682 ; infill
G1 X108.388 Y138.605 E1.44621 ; infill
G1 X108.922 Y138.605 E0.01682 ; infill
G1 X75.870 Y105.553 E1.46999 ; infill
G1 X75.870 Y105.018 E0.01682 ; infill
G1 X109.457 Y138.605 E1.49378 ; infill
G1 X109.992 Y138.605 E0.01682 ; infill
G1 X75.870 Y104.483 E1.51757 ; infill
G1 X75.870 Y103.948 E0.01682 ; infill
G1 X110.527 Y138.605 E1.54136 ; infill
G1 X111.062 Y138.605 E0.01682 ; infill
G1 X75.870 Y103.413 E1.56515 ; infill
G1 X75.870 Y102.878 E0.01682 ; infill
G1 X111.597 Y138.605 E1.58893 ; infill
G1 X112.132 Y138.605 E0.01682 ; infill
G1 X75.870 Y102.343 E1.61272 ; infill
G1 X75.870 Y101.809 E0.01682 ; infill
G1 X112.666 Y138.605 E1.63651 ; infill
G1 X113.201 Y138.605 E0.01682 ; infill
G1 X75.870 Y101.274 E1.66030 ; infill
G1 X75.870 Y100.739 E0.01682 ; infill
G1 X113.736 Y138.605 E1.68409 ; infill
G1 X114.271 Y138.605 E0.01682 ; infill
G1 X75.870 Y100.204 E1.70787 ; infill
G1 X75.870 Y99.669 E0.01682 ; infill
G1 X114.806 Y138.605 E1.73166 ; infill
G1 X115.341 Y138.605 E0.01682 ; infill
G1 X75.870 Y99.134 E1.75545 ; infill
G1 X75.870 Y98.599 E0.01682 ; infill
G1 X115.876 Y138.605 E1.77924 ; infill
G1 X116.411 Y138.605 E0.01682 ; infill
G1 X75.870 Y98.064 E1.80303 ; infill
G1 X75.870 Y97.530 E0.01682 ; infill
G1 X116.945 Y138.605 E1.82681 ; infill
G1 X117.480 Y138.605 E0.01682 ; infill
G1 X75.870 Y96.995 E1.85060 ; infill
G1 X75.870 Y96.460 E0.01682 ; infill
G1 X118.015 Y138.605 E1.87439 ; infill
G1 X118.550 Y138.605 E0.01682 ; infill
G1 X75.870 Y95.925 E1.89818 ; infill
G1 X75.870 Y95.390 E0.01682 ; infill
G1 X119.085 Y138.605 E1.92196 ; infill
G1 X119.620 Y138.605 E0.01682 ; infill
G1 X75.870 Y94.855 E1.94575 ; infill
G1 X75.870 Y94.320 E0.01682 ; infill
G1 X120.155 Y138.605 E1.96954 ; infill
G1 X120.689 Y138.605 E0.01682 ; infill
G1 X75.870 Y93.786 E1.99333 ; infill
G1 X75.870 Y93.251 E0.01682 ; infill
G1 X121.224 Y138.605 E2.01712 ; infill
G1 X121.759 Y138.605 E0.01682 ; infill
G1 X75.870 Y92.716 E2.04090 ; infill
G1 X75.870 Y92.181 E0.01682 ; infill
G1 X122.294 Y138.605 E2.06469 ; infill
G1 X122.829 Y138.605 E0.01682 ; infill
G1 X75.870 Y91.646 E2.08848 ; infill
G1 X75.870 Y91.111 E0.01682 ; infill
G1 X123.364 Y138.605 E2.11227 ; infill
G1 X123.899 Y138.605 E0.01682 ; infill
G1 X75.870 Y90.576 E2.13606 ; infill
G1 X75.870 Y90.041 E0.01682 ; infill
G1 X124.434 Y138.605 E2.15984 ; infill
G1 X124.968 Y138.605 E0.01682 ; infill
G1 X75.870 Y89.507 E2.18363 ; infill
G1 X75.870 Y88.972 E0.01682 ; infill
G1 X125.503 Y138.605 E2.20742 ; infill
G1 X126.038 Y138.605 E0.01682 ; infill
G1 X75.870 Y88.437 E2.23121 ; infill
G1 X75.870 Y87.902 E0.01682 ; infill
G1 X126.573 Y138.605 E2.25500 ; infill
G1 X127.108 Y138.605 E0.01682 ; infill
G1 X75.870 Y87.367 E2.27878 ; infill
G1 X75.870 Y86.832 E0.01682 ; infill
G1 X127.643 Y138.605 E2.30257 ; infill
G1 X128.178 Y138.605 E0.01682 ; infill
G1 X75.870 Y86.297 E2.32636 ; infill
G1 X75.870 Y85.763 E0.01682 ; infill
G1 X128.713 Y138.605 E2.35015 ; infill
G1 X129.247 Y138.605 E0.01682 ; infill
G1 X75.870 Y85.228 E2.37394 ; infill
G1 X75.870 Y84.693 E0.01682 ; infill
G1 X129.782 Y138.605 E2.39772 ; infill
G1 X130.317 Y138.605 E0.01682 ; infill
G1 X75.870 Y84.158 E2.42151 ; infill
G1 X75.870 Y83.623 E0.01682 ; infill
G1 X130.852 Y138.605 E2.44530 ; infill
G1 X131.387 Y138.605 E0.01682 ; infill
G1 X75.870 Y83.088 E2.46909 ; infill
G1 X75.870 Y82.553 E0.01682 ; infill
G1 X131.922 Y138.605 E2.49288 ; infill
G1 X132.457 Y138.605 E0.01682 ; infill
G1 X75.870 Y82.018 E2.51666 ; infill
G1 X75.870 Y81.484 E0.01682 ; infill
G1 X132.991 Y138.605 E2.54045 ; infill
G1 X133.526 Y138.605 E0.01682 ; infill
G1 X75.870 Y80.949 E2.56424 ; infill
G1 X75.870 Y80.414 E0.01682 ; infill
G1 X134.061 Y138.605 E2.58803 ; infill
G1 X134.596 Y138.605 E0.01682 ; infill
G1 X75.870 Y79.879 E2.61182 ; infill
G1 X75.870 Y79.344 E0.01682 ; infill
G1 X135.131 Y138.605 E2.63560 ; infill
G1 X135.666 Y138.605 E0.01682 ; infill
G1 X75.870 Y78.809 E2.65939 ; infill
G1 X75.870 Y78.274 E0.01682 ; infill
G1 X136.201 Y138.605 E2.68318 ; infill
G1 X136.736 Y138.605 E0.01682 ; infill
G1 X75.870 Y77.739 E2.70697 ; infill
G1 X75.870 Y77.205 E0.01682 ; infill
G1 X137.270 Y138.605 E2.73076 ; infill
G1 X137.805 Y138.605 E0.01682 ; infill
G1 X75.870 Y76.670 E2.75454 ; infill
G1 X75.870 Y76.135 E0.01682 ; infill
G1 X138.340 Y138.605 E2.77833 ; infill
G1 X138.875 Y138.605 E0.01682 ; infill
G1 X75.870 Y75.600 E2.80212 ; infill
G1 X75.870 Y75.065 E0.01682 ; infill
G1 X139.410 Y138.605 E2.82591 ; infill
G1 X139.945 Y138.605 E0.01682 ; infill
G1 X75.870 Y74.530 E2.84970 ; infill
G1 X75.870 Y73.995 E0.01682 ; infill
G1 X140.480 Y138.605 E2.87348 ; infill
G1 X141.014 Y138.605 E0.01682 ; infill
G1 X75.870 Y73.461 E2.89727 ; infill
G1 X75.870 Y72.926 E0.01682 ; infill
G1 X141.549 Y138.605 E2.92106 ; infill
G1 X142.084 Y138.605 E0.01682 ; infill
G1 X75.870 Y72.391 E2.94485 ; infill
G1 X75.870 Y72.345 E0.00144 ; infill
G1 X76.359 Y72.345 E0.01538 ; infill
G1 X142.619 Y138.605 E2.94689 ; infill
G1 X143.154 Y138.605 E0.01682 ; infill
G1 X76.894 Y72.345 E2.94689 ; infill
G1 X77.429 Y72.345 E0.01682 ; infill
G1 X143.689 Y138.605 E2.94689 ; infill
G1 X144.224 Y138.605 E0.01682 ; infill
G1 X77.963 Y72.345 E2.94689 ; infill
G1 X78.498 Y72.345 E0.01682 ; infill
G1 X144.759 Y138.605 E2.94689 ; infill
G1 X145.293 Y138.605 E0.01682 ; infill
G1 X79.033 Y72.345 E2.94689 ; infill
G1 X79.568 Y72.345 E0.01682 ; infill
G1 X145.828 Y138.605 E2.94689 ; infill
G1 X146.363 Y138.605 E0.01682 ; infill
G1 X80.103 Y72.345 E2.94689 ; infill
G1 X80.638 Y72.345 E0.01682 ; infill
G1 X146.898 Y138.605 E2.94689 ; infill
G1 X147.433 Y138.605 E0.01682 ; infill
G1 X81.173 Y72.345 E2.94689 ; infill
G1 X81.707 Y72.345 E0.01682 ; infill
G1 X147.968 Y138.605 E2.94689 ; infill
G1 X148.503 Y138.605 E0.01682 ; infill
G1 X82.242 Y72.345 E2.94689 ; infill
G1 X82.777 Y72.345 E0.01682 ; infill
G1 X149.037 Y138.605 E2.94689 ; infill
G1 X149.572 Y138.605 E0.01682 ; infill
G1 X83.312 Y72.345 E2.94689 ; infill
G1 X83.847 Y72.345 E0.01682 ; infill
G1 X150.107 Y138.605 E2.94689 ; infill
G1 X150.642 Y138.605 E0.01682 ; infill
G1 X84.382 Y72.345 E2.94689 ; infill
G1 X84.917 Y72.345 E0.01682 ; infill
G1 X151.177 Y138.605 E2.94689 ; infill
G1 X151.712 Y138.605 E0.01682 ; infill
G1 X85.452 Y72.345 E2.94689 ; infill
G1 X85.986 Y72.345 E0.01682 ; infill
G1 X152.247 Y138.605 E2.94689 ; infill
G1 X152.782 Y138.605 E0.01682 ; infill
G1 X86.521 Y72.345 E2.94689 ; infill
G1 X87.056 Y72.345 E0.01682 ; infill
G1 X153.316 Y138.605 E2.94689 ; infill
G1 X153.851 Y138.605 E0.01682 ; infill
G1 X87.591 Y72.345 E2.94689 ; infill
G1 X88.126 Y72.345 E0.01682 ; infill
G1 X154.386 Y138.605 E2.94689 ; infill
G1 X154.921 Y138.605 E0.01682 ; infill
G1 X88.661 Y72.345 E2.94689 ; infill
G1 X89.196 Y72.345 E0.01682 ; infill
G1 X155.456 Y138.605 E2.94689 ; infill
G1 X155.991 Y138.605 E0.01682 ; infill
G1 X89.731 Y72.345 E2.94689 ; infill
G1 X90.265 Y72.345 E0.01682 ; infill
G1 X156.526 Y138.605 E2.94689 ; infill
G1 X157.061 Y138.605 E0.01682 ; infill
G1 X90.800 Y72.345 E2.94689 ; infill
G1 X91.335 Y72.345 E0.01682 ; infill
G1 X157.595 Y138.605 E2.94689 ; infill
G1 X158.130 Y138.605 E0.01682 ; infill
G1 X91.870 Y72.345 E2.94689 ; infill
G1 X92.405 Y72.345 E0.01682 ; infill
G1 X158.665 Y138.605 E2.94689 ; infill
G1 X159.200 Y138.605 E0.01682 ; infill
G1 X92.940 Y72.345 E2.94689 ; infill
G1 X93.475 Y72.345 E0.01682 ; infill
G1 X159.735 Y138.605 E2.94689 ; infill
G1 X160.270 Y138.605 E0.01682 ; infill
G1 X94.009 Y72.345 E2.94689 ; infill
G1 X94.544 Y72.345 E0.01682 ; infill
G1 X160.805 Y138.605 E2.94689 ; infill
G1 X161.339 Y138.605 E0.01682 ; infill
G1 X95.079 Y72.345 E2.94689 ; infill
G1 X95.614 Y72.345 E0.01682 ; infill
G1 X161.874 Y138.605 E2.94689 ; infill
G1 X162.409 Y138.605 E0.01682 ; infill
G1 X96.149 Y72.345 E2.94689 ; infill
G1 X96.684 Y72.345 E0.01682 ; infill
G1 X162.944 Y138.605 E2.94689 ; infill
G1 X163.479 Y138.605 E0.01682 ; infill
G1 X97.219 Y72.345 E2.94689 ; infill
G1 X97.754 Y72.345 E0.01682 ; infill
G1 X164.014 Y138.605 E2.94689 ; infill
G1 X164.549 Y138.605 E0.01682 ; infill
G1 X98.288 Y72.345 E2.94689 ; infill
G1 X98.823 Y72.345 E0.01682 ; infill
G1 X165.084 Y138.605 E2.94689 ; infill
G1 X165.618 Y138.605 E0.01682 ; infill
G1 X99.358 Y72.345 E2.94689 ; infill
