; generated by Slic3r 1.37.1-prusa3d-linux64 on 2017-10-18 at 10:25:37

; 

; external perimeters extrusion width = 0.56mm
; perimeters extrusion width = 0.56mm
; infill extrusion width = 0.56mm
; solid infill extrusion width = 0.56mm
; top infill extrusion width = 0.50mm
; first layer extrusion width = 0.60mm

M107
M104 S200 ; set temperature
G28 ; home all axes
G1 Z5 F5000 ; lift nozzle

; Filament gcode

M109 S200 ; set temperature and wait for it to be reached
G21 ; set units to millimeters
G90 ; use absolute coordinates
M82 ; use absolute distances for extrusion
G92 E0
G1 Z0.350 F7800.000
G1 E-2.00000 F2400.00000
G92 E0
G1 X44.940 Y62.199 F7800.000
G1 E2.00000 F2400.00000
G1 F1800
G1 X46.040 Y61.164 E2.04673
G1 X46.916 Y60.612 E2.07876
G1 X47.873 Y60.201 E2.11100
G1 X48.877 Y59.946 E2.14303
G1 X49.914 Y59.851 E2.17527
G1 X150.006 Y59.850 E5.27226
G1 X151.258 Y59.971 E5.31115
G1 X152.464 Y60.325 E5.35005
G1 X153.581 Y60.901 E5.38895
G1 X154.570 Y61.678 E5.42785
G1 X155.393 Y62.628 E5.46675
G1 X156.023 Y63.716 E5.50564
G1 X156.436 Y64.904 E5.54454
G1 X156.617 Y66.148 E5.58344
G1 X156.621 Y134.710 E7.70486
G1 X156.404 Y136.173 E7.75061
G1 X155.868 Y137.551 E7.79635
G1 X155.039 Y138.775 E7.84210
G1 X153.960 Y139.786 E7.88785
G1 X153.084 Y140.338 E7.91989
G1 X152.127 Y140.749 E7.95212
G1 X151.123 Y141.004 E7.98416
G1 X150.086 Y141.099 E8.01639
G1 X49.917 Y141.099 E11.11574
G1 X48.413 Y140.907 E11.16266
G1 X46.992 Y140.378 E11.20958
G1 X45.729 Y139.539 E11.25650
G1 X44.689 Y138.435 E11.30342
G1 X44.140 Y137.565 E11.33527
G1 X43.732 Y136.620 E11.36711
G1 X43.475 Y135.623 E11.39895
G1 X43.376 Y134.599 E11.43079
G1 X43.376 Y66.361 E13.54218
G1 X43.573 Y64.870 E13.58871
G1 X44.103 Y63.456 E13.63543
G1 X44.898 Y62.261 E13.67984
G1 E11.67984 F2400.00000
G92 E0
G1 X51.600 Y132.875 F7800.000
G1 E2.00000 F2400.00000
G1 F1800
G1 X51.600 Y68.075 E4.00501
G1 X148.400 Y68.075 E7.00014
G1 X148.400 Y132.875 E9.00516
G1 X51.675 Y132.875 E11.99797
G1 X50.975 Y133.500 F7800.000
G1 F1800
G1 X50.975 Y67.450 E14.04165
G1 X149.025 Y67.450 E17.07545
G1 X149.025 Y133.500 E19.11913
G1 X51.050 Y133.500 E22.15061
G1 X50.350 Y134.125 F7800.000
G1 F1800
G1 X50.350 Y66.825 E24.23297
G1 X149.650 Y66.825 E27.30544
G1 X149.650 Y134.125 E29.38779
G1 X50.425 Y134.125 E32.45794
G1 X50.510 Y133.651 F7800.000
G1 E30.45794 F2400.00000
G92 E0
G1 X53.052 Y132.688 F7800.000
G1 E2.00000 F2400.00000
G1 F1800
G1 X52.068 Y131.705 E2.04306
G1 X52.068 Y130.820 E2.07045
G1 X53.655 Y132.407 E2.13992
G1 X54.539 Y132.407 E2.16731
G1 X52.068 Y129.936 E2.27553
G1 X52.068 Y129.051 E2.30292
G1 X55.424 Y132.407 E2.44987
G1 X56.308 Y132.407 E2.47726
G1 X52.068 Y128.167 E2.66294
G1 X52.068 Y127.282 E2.69033
G1 X57.193 Y132.407 E2.91475
G1 X58.077 Y132.407 E2.94214
G1 X52.068 Y126.398 E3.20530
G1 X52.068 Y125.513 E3.23269
G1 X58.962 Y132.407 E3.53458
G1 X59.846 Y132.407 E3.56197
G1 X52.068 Y124.629 E3.90260
G1 X52.068 Y123.744 E3.92999
G1 X60.731 Y132.407 E4.30936
G1 X61.615 Y132.407 E4.33675
G1 X52.068 Y122.860 E4.75485
G1 X52.068 Y121.975 E4.78224
G1 X62.500 Y132.407 E5.23908
G1 X63.384 Y132.407 E5.26647
G1 X52.068 Y121.091 E5.76204
G1 X52.068 Y120.206 E5.78943
G1 X64.269 Y132.407 E6.32374
G1 X65.153 Y132.407 E6.35113
G1 X52.068 Y119.322 E6.92417
G1 X52.068 Y118.437 E6.95157
G1 X66.038 Y132.407 E7.56335
G1 X66.922 Y132.407 E7.59074
G1 X52.068 Y117.553 E8.24125
G1 X52.068 Y116.668 E8.26864
G1 X67.807 Y132.407 E8.95790
G1 X68.691 Y132.407 E8.98529
G1 X52.068 Y115.784 E9.71328
G1 X52.068 Y114.899 E9.74067
G1 X69.576 Y132.407 E10.50739
G1 X70.460 Y132.407 E10.53478
G1 X52.068 Y114.015 E11.34024
G1 X52.068 Y113.131 E11.36763
G1 X71.344 Y132.407 E12.21183
G1 X72.229 Y132.407 E12.23922
G1 X52.068 Y112.246 E13.12215
G1 X52.068 Y111.362 E13.14954
G1 X73.113 Y132.407 E14.07121
G1 X73.998 Y132.407 E14.09860
G1 X52.068 Y110.477 E15.05901
G1 X52.068 Y109.593 E15.08640
G1 X74.882 Y132.407 E16.08554
G1 X75.767 Y132.407 E16.11293
G1 X52.068 Y108.708 E17.15081
G1 X52.068 Y107.824 E17.17820
G1 X76.651 Y132.407 E18.25481
G1 X77.536 Y132.407 E18.28220
G1 X52.068 Y106.939 E19.39755
G1 X52.068 Y106.055 E19.42494
G1 X78.420 Y132.407 E20.57902
G1 X79.305 Y132.407 E20.60641
G1 X52.068 Y105.170 E21.79923
G1 X52.068 Y104.286 E21.82663
G1 X80.189 Y132.407 E23.05818
G1 X81.074 Y132.407 E23.08557
G1 X52.068 Y103.401 E24.35586
G1 X52.068 Y102.517 E24.38326
G1 X81.958 Y132.407 E25.69228
G1 X82.843 Y132.407 E25.71967
G1 X52.068 Y101.632 E27.06744
G1 X52.068 Y100.748 E27.09483
G1 X83.727 Y132.407 E28.48133
G1 X84.612 Y132.407 E28.50872
G1 X52.068 Y99.863 E29.93396
G1 X52.068 Y98.979 E29.96135
G1 X85.496 Y132.407 E31.42532
G1 X86.381 Y132.407 E31.45271
G1 X52.068 Y98.094 E32.95542
G1 X52.068 Y97.210 E32.98281
G1 X87.265 Y132.407 E34.52426
G1 X88.150 Y132.407 E34.55165
G1 X52.068 Y96.325 E36.13183
G1 X52.068 Y95.441 E36.15922
G1 X89.034 Y132.407 E37.77813
G1 X89.919 Y132.407 E37.80552
G1 X52.068 Y94.556 E39.46318
G1 X52.068 Y93.672 E39.49057
G1 X90.803 Y132.407 E41.18696
G1 X91.688 Y132.407 E41.21435
G1 X52.068 Y92.787 E42.94947
G1 X52.068 Y91.903 E42.97686
G1 X92.572 Y132.407 E44.75072
G1 X93.457 Y132.407 E44.77811
G1 X52.068 Y91.018 E46.59071
G1 X52.068 Y90.134 E46.61810
G1 X94.341 Y132.407 E48.46943
G1 X95.226 Y132.407 E48.49682
G1 X52.068 Y89.249 E50.38689
G1 X52.068 Y88.365 E50.41428
G1 X96.110 Y132.407 E52.34309
G1 X96.995 Y132.407 E52.37048
G1 X52.068 Y87.480 E54.33802
G1 X52.068 Y86.596 E54.36541
G1 X97.879 Y132.407 E56.37169
G1 X98.763 Y132.407 E56.39908
G1 X52.068 Y85.712 E58.44409
G1 X52.068 Y84.827 E58.47148
G1 X99.648 Y132.407 E60.55523
G1 X100.532 Y132.407 E60.58262
G1 X52.068 Y83.943 E62.70510
G1 X52.068 Y83.058 E62.73249
G1 X101.417 Y132.407 E64.89371
G1 X102.301 Y132.407 E64.92110
G1 X52.068 Y82.174 E67.12106
G1 X52.068 Y81.289 E67.14845
G1 X103.186 Y132.407 E69.38714
G1 X104.070 Y132.407 E69.41453
G1 X52.068 Y80.405 E71.69196
G1 X52.068 Y79.520 E71.71935
G1 X104.955 Y132.407 E74.03552
G1 X105.839 Y132.407 E74.06291
G1 X52.068 Y78.636 E76.41781
G1 X52.068 Y77.751 E76.44520
G1 X106.724 Y132.407 E78.83884
G1 X107.608 Y132.407 E78.86623
G1 X52.068 Y76.867 E81.29860
G1 X52.068 Y75.982 E81.32599
G1 X108.493 Y132.407 E83.79710
G1 X109.377 Y132.407 E83.82449
G1 X52.068 Y75.098 E86.33433
G1 X52.068 Y74.213 E86.36172
G1 X110.262 Y132.407 E88.91031
G1 X111.146 Y132.407 E88.93770
G1 X52.068 Y73.329 E91.52501
G1 X52.068 Y72.444 E91.55240
G1 X112.031 Y132.407 E94.17846
G1 X112.915 Y132.407 E94.20585
G1 X52.068 Y71.560 E96.87063
G1 X52.068 Y70.675 E96.89802
G1 X113.800 Y132.407 E99.60155
G1 X114.684 Y132.407 E99.62894
G1 X52.068 Y69.791 E102.37120
G1 X52.068 Y68.906 E102.39859
G1 X115.569 Y132.407 E105.17959
G1 X116.453 Y132.407 E105.20698
G1 X52.590 Y68.543 E108.00387
G1 X53.474 Y68.543 E108.03126
G1 X117.338 Y132.407 E110.82815
G1 X118.222 Y132.407 E110.85554
G1 X54.359 Y68.543 E113.65243
G1 X55.243 Y68.543 E113.67982
G1 X119.107 Y132.407 E116.47671
G1 X119.991 Y132.407 E116.50410
G1 X56.128 Y68.543 E119.30100
G1 X57.012 Y68.543 E119.32839
G1 X120.876 Y132.407 E122.12528
G1 X121.760 Y132.407 E122.15267
G1 X57.897 Y68.543 E124.94956
G1 X58.781 Y68.543 E124.97695
G1 X122.645 Y132.407 E127.77384
G1 X123.529 Y132.407 E127.80123
G1 X59.666 Y68.543 E130.59812
G1 X60.550 Y68.543 E130.62551
G1 X124.413 Y132.407 E133.42240
G1 X125.298 Y132.407 E133.44979
G1 X61.435 Y68.543 E136.24668
G1 X62.319 Y68.543 E136.27407
G1 X126.182 Y132.407 E139.07097
G1 X127.067 Y132.407 E139.09836
G1 X63.204 Y68.543 E141.89525
G1 X64.088 Y68.543 E141.92264
G1 X127.951 Y132.407 E144.71953
G1 X128.836 Y132.407 E144.74692
G1 X64.973 Y68.543 E147.54381
G1 X65.857 Y68.543 E147.57120
G1 X129.720 Y132.407 E150.36809
G1 X130.605 Y132.407 E150.39548
G1 X66.742 Y68.543 E153.19237
G1 X67.626 Y68.543 E153.21976
G1 X131.489 Y132.407 E156.01665
G1 X132.374 Y132.407 E156.04405
G1 X68.511 Y68.543 E158.84094
G1 X69.395 Y68.543 E158.86833
G1 X133.258 Y132.407 E161.66522
G1 X134.143 Y132.407 E161.69261
G1 X70.280 Y68.543 E164.48950
G1 X71.164 Y68.543 E164.51689
G1 X135.027 Y132.407 E167.31378
G1 X135.912 Y132.407 E167.34117
G1 X72.049 Y68.543 E170.13806
G1 X72.933 Y68.543 E170.16545
G1 X136.796 Y132.407 E172.96234
G1 X137.681 Y132.407 E172.98973
G1 X73.818 Y68.543 E175.78663
G1 X74.702 Y68.543 E175.81402
G1 X138.565 Y132.407 E178.61091
G1 X139.450 Y132.407 E178.63830
G1 X75.587 Y68.543 E181.43519
G1 X76.471 Y68.543 E181.46258
G1 X140.334 Y132.407 E184.25947
G1 X141.219 Y132.407 E184.28686
G1 X77.356 Y68.543 E187.08375
G1 X78.240 Y68.543 E187.11114
G1 X142.103 Y132.407 E189.90803
G1 X142.988 Y132.407 E189.93542
G1 X79.124 Y68.543 E192.73231
G1 X80.009 Y68.543 E192.75971
G1 X143.872 Y132.407 E195.55660
G1 X144.757 Y132.407 E195.58399
G1 X80.893 Y68.543 E198.38088
G1 X81.778 Y68.543 E198.40827
G1 X145.641 Y132.407 E201.20516
G1 X146.526 Y132.407 E201.23255
G1 X82.662 Y68.543 E204.02944
G1 X83.547 Y68.543 E204.05683
G1 X147.410 Y132.407 E206.85372
G1 X147.932 Y132.407 E206.86987
G1 X147.932 Y132.044 E206.88111
G1 X84.431 Y68.543 E209.66211
G1 X85.316 Y68.543 E209.68950
G1 X147.932 Y131.159 E212.43176
G1 X147.932 Y130.275 E212.45915
G1 X86.200 Y68.543 E215.16267
G1 X87.085 Y68.543 E215.19006
G1 X147.932 Y129.390 E217.85485
G1 X147.932 Y128.506 E217.88224
G1 X87.969 Y68.543 E220.50829
G1 X88.854 Y68.543 E220.53568
G1 X147.932 Y127.621 E223.12300
G1 X147.932 Y126.737 E223.15039
G1 X89.738 Y68.543 E225.69897
G1 X90.623 Y68.543 E225.72636
G1 X147.932 Y125.852 E228.23620
G1 X147.932 Y124.968 E228.26359
G1 X91.507 Y68.543 E230.73470
G1 X92.392 Y68.543 E230.76209
G1 X147.932 Y124.083 E233.19447
G1 X147.932 Y123.199 E233.22186
G1 X93.276 Y68.543 E235.61549
G1 X94.161 Y68.543 E235.64288
G1 X147.932 Y122.314 E237.99778
G1 X147.932 Y121.430 E238.02517
G1 X95.045 Y68.543 E240.34134
G1 X95.930 Y68.543 E240.36873
G1 X147.932 Y120.545 E242.64615
G1 X147.932 Y119.661 E242.67354
G1 X96.814 Y68.543 E244.91224
G1 X97.699 Y68.543 E244.93963
G1 X147.932 Y118.776 E247.13958
G1 X147.932 Y117.892 E247.16697
G1 X98.583 Y68.543 E249.32819
G1 X99.468 Y68.543 E249.35558
G1 X147.932 Y117.007 E251.47807
G1 X147.932 Y116.123 E251.50546
G1 X100.352 Y68.543 E253.58921
G1 X101.237 Y68.543 E253.61660
G1 X147.932 Y115.238 E255.66161
G1 X147.932 Y114.354 E255.68900
G1 X102.121 Y68.543 E257.69527
G1 X103.006 Y68.543 E257.72266
G1 X147.932 Y113.469 E259.69020
G1 X147.932 Y112.585 E259.71760
G1 X103.890 Y68.543 E261.64640
G1 X104.774 Y68.543 E261.67379
G1 X147.932 Y111.701 E263.56386
G1 X147.932 Y110.816 E263.59125
G1 X105.659 Y68.543 E265.44258
G1 X106.543 Y68.543 E265.46997
G1 X147.932 Y109.932 E267.28257
G1 X147.932 Y109.047 E267.30996
G1 X107.428 Y68.543 E269.08382
G1 X108.312 Y68.543 E269.11121
G1 X147.932 Y108.163 E270.84633
G1 X147.932 Y107.278 E270.87372
G1 X109.197 Y68.543 E272.57011
G1 X110.081 Y68.543 E272.59750
G1 X147.932 Y106.394 E274.25515
G1 X147.932 Y105.509 E274.28254
G1 X110.966 Y68.543 E275.90146
G1 X111.850 Y68.543 E275.92885
G1 X147.932 Y104.625 E277.50903
G1 X147.932 Y103.740 E277.53642
G1 X112.735 Y68.543 E279.07786
G1 X113.619 Y68.543 E279.10525
G1 X147.932 Y102.856 E280.60796
G1 X147.932 Y101.971 E280.63535
G1 X114.504 Y68.543 E282.09932
G1 X115.388 Y68.543 E282.12671
G1 X147.932 Y101.087 E283.55195
G1 X147.932 Y100.202 E283.57934
G1 X116.273 Y68.543 E284.96584
G1 X117.157 Y68.543 E284.99323
G1 X147.932 Y99.318 E286.34100
G1 X147.932 Y98.433 E286.36839
G1 X118.042 Y68.543 E287.67741
G1 X118.926 Y68.543 E287.70480
G1 X147.932 Y97.549 E288.97510
G1 X147.932 Y96.664 E289.00249
G1 X119.811 Y68.543 E290.23404
G1 X120.695 Y68.543 E290.26143
G1 X147.932 Y95.780 E291.45425
G1 X147.932 Y94.895 E291.48164
G1 X121.580 Y68.543 E292.63573
G1 X122.464 Y68.543 E292.66312
G1 X147.932 Y94.011 E293.77847
G1 X147.932 Y93.126 E293.80586
G1 X123.349 Y68.543 E294.88247
G1 X124.233 Y68.543 E294.90986
G1 X147.932 Y92.242 E295.94773
G1 X147.932 Y91.357 E295.97513
G1 X125.118 Y68.543 E296.97427
G1 X126.002 Y68.543 E297.00166
G1 X147.932 Y90.473 E297.96206
G1 X147.932 Y89.588 E297.98945
G1 X126.887 Y68.543 E298.91112
G1 X127.771 Y68.543 E298.93851
G1 X147.932 Y88.704 E299.82144
G1 X147.932 Y87.819 E299.84883
G1 X128.656 Y68.543 E300.69303
G1 X129.540 Y68.543 E300.72042
G1 X147.932 Y86.935 E301.52588
G1 X147.932 Y86.051 E301.55327
G1 X130.424 Y68.543 E302.31999
G1 X131.309 Y68.543 E302.34738
G1 X147.932 Y85.166 E303.07537
G1 X147.932 Y84.282 E303.10276
G1 X132.193 Y68.543 E303.79201
G1 X133.078 Y68.543 E303.81940
G1 X147.932 Y83.397 E304.46992
G1 X147.932 Y82.513 E304.49731
G1 X133.962 Y68.543 E305.10909
G1 X134.847 Y68.543 E305.13648
G1 X147.932 Y81.628 E305.70952
G1 X147.932 Y80.744 E305.73691
G1 X135.731 Y68.543 E306.27122
G1 X136.616 Y68.543 E306.29861
G1 X147.932 Y79.859 E306.79419
G1 X147.932 Y78.975 E306.82158
G1 X137.500 Y68.543 E307.27841
G1 X138.385 Y68.543 E307.30580
G1 X147.932 Y78.090 E307.72390
G1 X147.932 Y77.206 E307.75129
G1 X139.269 Y68.543 E308.13066
G1 X140.154 Y68.543 E308.15805
G1 X147.932 Y76.321 E308.49868
G1 X147.932 Y75.437 E308.52607
G1 X141.038 Y68.543 E308.82796
G1 X141.923 Y68.543 E308.85535
G1 X147.932 Y74.552 E309.11850
G1 X147.932 Y73.668 E309.14589
G1 X142.807 Y68.543 E309.37031
G1 X143.692 Y68.543 E309.39771
G1 X147.932 Y72.783 E309.58339
G1 X147.932 Y71.899 E309.61078
G1 X144.576 Y68.543 E309.75773
G1 X145.461 Y68.543 E309.78512
G1 X147.932 Y71.014 E309.89333
G1 X147.932 Y70.130 E309.92072
G1 X146.345 Y68.543 E309.99020
G1 X147.230 Y68.543 E310.01759
G1 X148.213 Y69.527 E310.06064
G1 Z0.650 F7800.000
G1 X51.277 Y133.198 F7800.000
G1 F3600
G1 X51.277 Y67.752 E311.44421
G1 X148.723 Y67.752 E313.50428
G1 X148.723 Y133.198 E314.88784
G1 X51.352 Y133.198 E316.94632
G1 X50.779 Y133.696 F7800.000
G1 F3600
G1 X50.779 Y67.254 E318.35095
G1 X149.221 Y67.254 E320.43208
G1 X149.221 Y133.696 E321.83670
G1 X50.854 Y133.696 E323.91625
G1 X50.281 Y134.194 F7800.000
G1 F1800
G1 X50.281 Y66.756 E325.34194
G1 X149.719 Y66.756 E327.44413
G1 X149.719 Y134.194 E328.86982
G1 X50.356 Y134.194 E330.97042
G1 X50.441 Y133.720 F7800.000
G1 X51.427 Y68.911 F7800.000
G1 F1200
G1 X52.212 Y68.126 E330.99395
G1 X52.918 Y68.126 E331.00891
G1 X51.651 Y69.393 E331.04688
G1 X51.651 Y70.099 E331.06184
G1 X53.624 Y68.126 E331.12096
G1 X54.330 Y68.126 E331.13593
G1 X51.651 Y70.805 E331.21621
G1 X51.651 Y71.511 E331.23117
G1 X55.036 Y68.126 E331.33261
G1 X55.742 Y68.126 E331.34757
G1 X51.651 Y72.217 E331.47017
G1 X51.651 Y72.923 E331.48513
G1 X56.448 Y68.126 E331.62888
G1 X57.154 Y68.126 E331.64384
G1 X51.651 Y73.629 E331.80875
G1 X51.651 Y74.335 E331.82371
G1 X57.860 Y68.126 E332.00978
G1 X58.567 Y68.126 E332.02474
G1 X51.651 Y75.042 E332.23197
G1 X51.651 Y75.748 E332.24693
G1 X59.273 Y68.126 E332.47532
G1 X59.979 Y68.126 E332.49028
G1 X51.651 Y76.454 E332.73982
G1 X51.651 Y77.160 E332.75478
G1 X60.685 Y68.126 E333.02548
G1 X61.391 Y68.126 E333.04044
G1 X51.651 Y77.866 E333.33229
G1 X51.651 Y78.572 E333.34726
G1 X62.097 Y68.126 E333.66027
G1 X62.803 Y68.126 E333.67523
G1 X51.651 Y79.278 E334.00940
G1 X51.651 Y79.984 E334.02436
G1 X63.509 Y68.126 E334.37969
G1 X64.215 Y68.126 E334.39465
G1 X51.651 Y80.690 E334.77114
G1 X51.651 Y81.396 E334.78610
G1 X64.921 Y68.126 E335.18374
G1 X65.627 Y68.126 E335.19870
G1 X51.651 Y82.102 E335.61750
G1 X51.651 Y82.808 E335.63246
G1 X66.333 Y68.126 E336.07242
G1 X67.039 Y68.126 E336.08738
G1 X51.651 Y83.514 E336.54850
G1 X51.651 Y84.220 E336.56346
G1 X67.745 Y68.126 E337.04573
G1 X68.451 Y68.126 E337.06069
G1 X51.651 Y84.926 E337.56412
G1 X51.651 Y85.632 E337.57908
G1 X69.157 Y68.126 E338.10367
G1 X69.863 Y68.126 E338.11863
G1 X51.651 Y86.338 E338.66437
G1 X51.651 Y87.044 E338.67933
G1 X70.569 Y68.126 E339.24624
G1 X71.275 Y68.126 E339.26120
G1 X51.651 Y87.750 E339.84926
G1 X51.651 Y88.456 E339.86422
G1 X71.981 Y68.126 E340.47343
G1 X72.688 Y68.126 E340.48840
G1 X51.651 Y89.163 E341.11877
G1 X51.651 Y89.869 E341.13373
G1 X73.394 Y68.126 E341.78526
G1 X74.100 Y68.126 E341.80022
G1 X51.651 Y90.575 E342.47291
G1 X51.651 Y91.281 E342.48787
G1 X74.806 Y68.126 E343.18172
G1 X75.512 Y68.126 E343.19668
G1 X51.651 Y91.987 E343.91168
