; generated by Slic3r 1.37.1-prusa3d-linux64 on 2017-10-17 at 16:29:00

; 

; external perimeters extrusion width = 0.56mm
; perimeters extrusion width = 0.56mm
; infill extrusion width = 0.56mm
; solid infill extrusion width = 0.56mm
; top infill extrusion width = 0.50mm
; first layer extrusion width = 0.60mm

M107
M104 S200 ; set temperature
G28 ; home all axes
G1 Z5 F5000 ; lift nozzle

; Filament gcode

M109 S200 ; set temperature and wait for it to be reached
G21 ; set units to millimeters
G90 ; use absolute coordinates
M82 ; use absolute distances for extrusion
G92 E0
G1 Z0.350 F7800.000
G1 E-2.00000 F2400.00000
G92 E0
G1 X48.546 Y74.012 F7800.000
G1 E2.00000 F2400.00000
G1 F1800
G1 X49.959 Y73.850 E2.04399
G1 X150.006 Y73.850 E5.13960
G1 X151.251 Y73.969 E5.17830
G1 X152.458 Y74.323 E5.21720
G1 X153.570 Y74.895 E5.25590
G1 X154.560 Y75.670 E5.29480
G1 X155.382 Y76.612 E5.33350
G1 X156.015 Y77.699 E5.37240
G1 X156.430 Y78.879 E5.41110
G1 X156.615 Y80.122 E5.45000
G1 X156.602 Y121.021 E6.71547
G1 X156.474 Y121.882 E6.74241
G1 X156.233 Y122.719 E6.76934
G1 X155.885 Y123.517 E6.79628
G1 X155.436 Y124.262 E6.82321
G1 X154.892 Y124.942 E6.85015
G1 X154.264 Y125.545 E6.87708
G1 X153.562 Y126.060 E6.90402
G1 X152.799 Y126.479 E6.93095
G1 X151.454 Y126.938 E6.97494
G1 X150.041 Y127.100 E7.01893
G1 X49.809 Y127.097 E10.12024
G1 X48.899 Y127.008 E10.14855
G1 X48.009 Y126.794 E10.17686
G1 X47.158 Y126.459 E10.20517
G1 X46.360 Y126.010 E10.23348
G1 X45.632 Y125.456 E10.26179
G1 X44.988 Y124.807 E10.29010
G1 X44.439 Y124.075 E10.31841
G1 X43.996 Y123.274 E10.34672
G1 X43.542 Y121.954 E10.38993
G1 X43.376 Y120.567 E10.43313
G1 X43.389 Y80.043 E11.68701
G1 X43.505 Y79.167 E11.71434
G1 X43.737 Y78.315 E11.74166
G1 X44.080 Y77.501 E11.76899
G1 X44.532 Y76.735 E11.79652
G1 X45.078 Y76.041 E11.82385
G1 X45.716 Y75.421 E11.85137
G1 X46.427 Y74.896 E11.87870
G1 X47.201 Y74.471 E11.90603
G1 X48.475 Y74.036 E11.94769
G1 E9.94769 F2400.00000
G92 E0
G1 X51.600 Y118.875 F7800.000
G1 E2.00000 F2400.00000
G1 F1800
G1 X51.600 Y82.075 E3.13865
G1 X148.400 Y82.075 E6.13379
G1 X148.400 Y118.875 E7.27244
G1 X51.675 Y118.875 E10.26525
G1 X50.975 Y119.500 F7800.000
G1 F1800
G1 X50.975 Y81.450 E11.44258
G1 X149.025 Y81.450 E14.47638
G1 X149.025 Y119.500 E15.65370
G1 X51.050 Y119.500 E18.68519
G1 X50.350 Y120.125 F7800.000
G1 F1800
G1 X50.350 Y80.825 E19.90118
G1 X149.650 Y80.825 E22.97365
G1 X149.650 Y120.125 E24.18965
G1 X50.425 Y120.125 E27.25980
G1 X50.544 Y119.664 F7800.000
G1 E25.25980 F2400.00000
G92 E0
G1 X53.054 Y118.688 F7800.000
G1 E2.00000 F2400.00000
G1 F1800
G1 X52.068 Y117.702 E2.04328
G1 X52.068 Y116.815 E2.07080
G1 X53.660 Y118.407 E2.14065
G1 X54.546 Y118.407 E2.16817
G1 X52.068 Y115.929 E2.27694
G1 X52.068 Y115.042 E2.30445
G1 X55.433 Y118.407 E2.45213
G1 X56.319 Y118.407 E2.47965
G1 X52.068 Y114.156 E2.66624
G1 X52.068 Y113.269 E2.69376
G1 X57.206 Y118.407 E2.91926
G1 X58.092 Y118.407 E2.94678
G1 X52.068 Y112.383 E3.21120
G1 X52.068 Y111.496 E3.23872
G1 X58.979 Y118.407 E3.54205
G1 X59.865 Y118.407 E3.56957
G1 X52.068 Y110.610 E3.91181
G1 X52.068 Y109.723 E3.93933
G1 X60.752 Y118.407 E4.32049
G1 X61.638 Y118.407 E4.34801
G1 X52.068 Y108.837 E4.76808
G1 X52.068 Y107.950 E4.79560
G1 X62.525 Y118.407 E5.25459
G1 X63.411 Y118.407 E5.28210
G1 X52.068 Y107.064 E5.78000
G1 X52.068 Y106.177 E5.80752
G1 X64.298 Y118.407 E6.34433
G1 X65.184 Y118.407 E6.37185
G1 X52.068 Y105.291 E6.94758
G1 X52.068 Y104.404 E6.97509
G1 X66.071 Y118.407 E7.58974
G1 X66.957 Y118.407 E7.61725
G1 X52.068 Y103.518 E8.27081
G1 X52.068 Y102.631 E8.29832
G1 X67.844 Y118.407 E8.99079
G1 X68.730 Y118.407 E9.01831
G1 X52.068 Y101.745 E9.74969
G1 X52.068 Y100.858 E9.77721
G1 X69.617 Y118.407 E10.54750
G1 X70.503 Y118.407 E10.57502
G1 X52.068 Y99.972 E11.38423
G1 X52.068 Y99.085 E11.41174
G1 X71.390 Y118.407 E12.25987
G1 X72.276 Y118.407 E12.28738
G1 X52.068 Y98.199 E13.17442
G1 X52.068 Y97.312 E13.20193
G1 X73.163 Y118.407 E14.12788
G1 X74.049 Y118.407 E14.15540
G1 X52.068 Y96.426 E15.12026
G1 X52.068 Y95.539 E15.14778
G1 X74.936 Y118.407 E16.15155
G1 X75.822 Y118.407 E16.17907
G1 X52.068 Y94.653 E17.22176
G1 X52.068 Y93.766 E17.24928
G1 X76.709 Y118.407 E18.33088
G1 X77.595 Y118.407 E18.35840
G1 X52.068 Y92.880 E19.47891
G1 X52.068 Y91.993 E19.50643
G1 X78.482 Y118.407 E20.66586
G1 X79.368 Y118.407 E20.69338
G1 X52.068 Y91.107 E21.89172
G1 X52.068 Y90.220 E21.91923
G1 X80.255 Y118.407 E23.15649
G1 X81.142 Y118.407 E23.18401
G1 X52.068 Y89.333 E24.46018
G1 X52.068 Y88.447 E24.48769
G1 X82.028 Y118.407 E25.80278
G1 X82.915 Y118.407 E25.83029
G1 X52.068 Y87.560 E27.18429
G1 X52.068 Y86.674 E27.21181
G1 X83.801 Y118.407 E28.60472
G1 X84.688 Y118.407 E28.63223
G1 X52.068 Y85.787 E30.06406
G1 X52.068 Y84.901 E30.09158
G1 X85.574 Y118.407 E31.56231
G1 X86.461 Y118.407 E31.58983
G1 X52.068 Y84.014 E33.09948
G1 X52.068 Y83.128 E33.12700
G1 X87.347 Y118.407 E34.67556
G1 X88.234 Y118.407 E34.70308
G1 X52.370 Y82.543 E36.27730
G1 X53.257 Y82.543 E36.30482
G1 X89.120 Y118.407 E37.87904
G1 X90.007 Y118.407 E37.90656
G1 X54.143 Y82.543 E39.48078
G1 X55.030 Y82.543 E39.50829
G1 X90.893 Y118.407 E41.08252
G1 X91.780 Y118.407 E41.11003
G1 X55.916 Y82.543 E42.68426
G1 X56.803 Y82.543 E42.71177
G1 X92.666 Y118.407 E44.28599
G1 X93.553 Y118.407 E44.31351
G1 X57.689 Y82.543 E45.88773
G1 X58.576 Y82.543 E45.91525
G1 X94.439 Y118.407 E47.48947
G1 X95.326 Y118.407 E47.51699
G1 X59.462 Y82.543 E49.09121
G1 X60.349 Y82.543 E49.11873
G1 X96.212 Y118.407 E50.69295
G1 X97.099 Y118.407 E50.72047
G1 X61.235 Y82.543 E52.29469
G1 X62.122 Y82.543 E52.32220
G1 X97.985 Y118.407 E53.89643
G1 X98.872 Y118.407 E53.92394
G1 X63.008 Y82.543 E55.49817
G1 X63.895 Y82.543 E55.52568
G1 X99.758 Y118.407 E57.09990
G1 X100.645 Y118.407 E57.12742
G1 X64.781 Y82.543 E58.70164
G1 X65.668 Y82.543 E58.72916
G1 X101.531 Y118.407 E60.30338
G1 X102.418 Y118.407 E60.33090
G1 X66.555 Y82.543 E61.90512
G1 X67.441 Y82.543 E61.93264
G1 X103.304 Y118.407 E63.50686
G1 X104.191 Y118.407 E63.53438
G1 X68.328 Y82.543 E65.10860
G1 X69.214 Y82.543 E65.13611
G1 X105.077 Y118.407 E66.71034
G1 X105.964 Y118.407 E66.73785
G1 X70.101 Y82.543 E68.31208
G1 X70.987 Y82.543 E68.33959
G1 X106.850 Y118.407 E69.91382
G1 X107.737 Y118.407 E69.94133
G1 X71.874 Y82.543 E71.51555
G1 X72.760 Y82.543 E71.54307
G1 X108.623 Y118.407 E73.11729
G1 X109.510 Y118.407 E73.14481
G1 X73.647 Y82.543 E74.71903
G1 X74.533 Y82.543 E74.74655
G1 X110.396 Y118.407 E76.32077
G1 X111.283 Y118.407 E76.34829
G1 X75.420 Y82.543 E77.92251
G1 X76.306 Y82.543 E77.95003
G1 X112.169 Y118.407 E79.52425
G1 X113.056 Y118.407 E79.55176
G1 X77.193 Y82.543 E81.12599
G1 X78.079 Y82.543 E81.15350
G1 X113.942 Y118.407 E82.72773
G1 X114.829 Y118.407 E82.75524
G1 X78.966 Y82.543 E84.32946
G1 X79.852 Y82.543 E84.35698
G1 X115.715 Y118.407 E85.93120
G1 X116.602 Y118.407 E85.95872
G1 X80.739 Y82.543 E87.53294
G1 X81.625 Y82.543 E87.56046
G1 X117.488 Y118.407 E89.13468
G1 X118.375 Y118.407 E89.16220
G1 X82.512 Y82.543 E90.73642
G1 X83.398 Y82.543 E90.76394
G1 X119.261 Y118.407 E92.33816
G1 X120.148 Y118.407 E92.36567
G1 X84.285 Y82.543 E93.93990
G1 X85.171 Y82.543 E93.96741
G1 X121.034 Y118.407 E95.54164
G1 X121.921 Y118.407 E95.56915
G1 X86.058 Y82.543 E97.14337
G1 X86.944 Y82.543 E97.17089
G1 X122.807 Y118.407 E98.74511
G1 X123.694 Y118.407 E98.77263
G1 X87.831 Y82.543 E100.34685
G1 X88.717 Y82.543 E100.37437
G1 X124.580 Y118.407 E101.94859
G1 X125.467 Y118.407 E101.97611
G1 X89.604 Y82.543 E103.55033
G1 X90.490 Y82.543 E103.57785
G1 X126.353 Y118.407 E105.15207
G1 X127.240 Y118.407 E105.17958
G1 X91.377 Y82.543 E106.75381
G1 X92.263 Y82.543 E106.78132
G1 X128.126 Y118.407 E108.35555
G1 X129.013 Y118.407 E108.38306
G1 X93.150 Y82.543 E109.95728
G1 X94.036 Y82.543 E109.98480
G1 X129.899 Y118.407 E111.55902
G1 X130.786 Y118.407 E111.58654
G1 X94.923 Y82.543 E113.16076
G1 X95.809 Y82.543 E113.18828
G1 X131.672 Y118.407 E114.76250
G1 X132.559 Y118.407 E114.79002
G1 X96.696 Y82.543 E116.36424
G1 X97.582 Y82.543 E116.39176
G1 X133.445 Y118.407 E117.96598
G1 X134.332 Y118.407 E117.99349
G1 X98.469 Y82.543 E119.56772
G1 X99.355 Y82.543 E119.59523
G1 X135.218 Y118.407 E121.16946
G1 X136.105 Y118.407 E121.19697
G1 X100.242 Y82.543 E122.77119
G1 X101.128 Y82.543 E122.79871
G1 X136.991 Y118.407 E124.37293
G1 X137.878 Y118.407 E124.40045
G1 X102.015 Y82.543 E125.97467
G1 X102.901 Y82.543 E126.00219
G1 X138.764 Y118.407 E127.57641
G1 X139.651 Y118.407 E127.60393
G1 X103.788 Y82.543 E129.17815
G1 X104.674 Y82.543 E129.20567
G1 X140.537 Y118.407 E130.77989
G1 X141.424 Y118.407 E130.80740
G1 X105.561 Y82.543 E132.38163
G1 X106.447 Y82.543 E132.40914
G1 X142.310 Y118.407 E133.98337
G1 X143.197 Y118.407 E134.01088
G1 X107.334 Y82.543 E135.58511
G1 X108.220 Y82.543 E135.61262
G1 X144.083 Y118.407 E137.18684
G1 X144.970 Y118.407 E137.21436
G1 X109.107 Y82.543 E138.78858
G1 X109.993 Y82.543 E138.81610
G1 X145.856 Y118.407 E140.39032
G1 X146.743 Y118.407 E140.41784
G1 X110.880 Y82.543 E141.99206
G1 X111.766 Y82.543 E142.01958
G1 X147.630 Y118.407 E143.59380
G1 X147.932 Y118.407 E143.60318
G1 X147.932 Y117.822 E143.62132
G1 X112.653 Y82.543 E145.16988
G1 X113.539 Y82.543 E145.19740
G1 X147.932 Y116.936 E146.70706
G1 X147.932 Y116.049 E146.73457
G1 X114.426 Y82.543 E148.20531
G1 X115.312 Y82.543 E148.23283
G1 X147.932 Y115.163 E149.66466
G1 X147.932 Y114.276 E149.69217
G1 X116.199 Y82.543 E151.08509
G1 X117.085 Y82.543 E151.11260
G1 X147.932 Y113.390 E152.46660
G1 X147.932 Y112.503 E152.49412
G1 X117.972 Y82.543 E153.80921
G1 X118.858 Y82.543 E153.83672
G1 X147.932 Y111.617 E155.11290
G1 X147.932 Y110.730 E155.14042
G1 X119.745 Y82.543 E156.37768
G1 X120.631 Y82.543 E156.40519
G1 X147.932 Y109.844 E157.60354
G1 X147.932 Y108.957 E157.63106
G1 X121.518 Y82.543 E158.79049
G1 X122.404 Y82.543 E158.81801
G1 X147.932 Y108.071 E159.93853
G1 X147.932 Y107.184 E159.96604
G1 X123.291 Y82.543 E161.04765
G1 X124.177 Y82.543 E161.07516
G1 X147.932 Y106.298 E162.11786
G1 X147.932 Y105.411 E162.14537
G1 X125.064 Y82.543 E163.14915
G1 X125.950 Y82.543 E163.17667
G1 X147.932 Y104.525 E164.14154
G1 X147.932 Y103.638 E164.16905
G1 X126.837 Y82.543 E165.09501
G1 X127.723 Y82.543 E165.12252
G1 X147.932 Y102.752 E166.00956
G1 X147.932 Y101.865 E166.03708
G1 X128.610 Y82.543 E166.88520
G1 X129.496 Y82.543 E166.91272
G1 X147.932 Y100.979 E167.72193
G1 X147.932 Y100.092 E167.74945
G1 X130.383 Y82.543 E168.51975
G1 X131.270 Y82.543 E168.54726
G1 X147.932 Y99.205 E169.27865
G1 X147.932 Y98.319 E169.30617
G1 X132.156 Y82.543 E169.99864
G1 X133.043 Y82.543 E170.02615
G1 X147.932 Y97.432 E170.67971
G1 X147.932 Y96.546 E170.70723
G1 X133.929 Y82.543 E171.32188
G1 X134.816 Y82.543 E171.34939
G1 X147.932 Y95.659 E171.92512
G1 X147.932 Y94.773 E171.95264
G1 X135.702 Y82.543 E172.48946
G1 X136.589 Y82.543 E172.51697
G1 X147.932 Y93.886 E173.01488
G1 X147.932 Y93.000 E173.04240
G1 X137.475 Y82.543 E173.50139
G1 X138.362 Y82.543 E173.52890
G1 X147.932 Y92.113 E173.94898
G1 X147.932 Y91.227 E173.97650
G1 X139.248 Y82.543 E174.35766
G1 X140.135 Y82.543 E174.38518
G1 X147.932 Y90.340 E174.72743
G1 X147.932 Y89.454 E174.75495
G1 X141.021 Y82.543 E175.05828
G1 X141.908 Y82.543 E175.08580
G1 X147.932 Y88.567 E175.35022
G1 X147.932 Y87.681 E175.37774
G1 X142.794 Y82.543 E175.60325
G1 X143.681 Y82.543 E175.63077
G1 X147.932 Y86.794 E175.81736
G1 X147.932 Y85.908 E175.84488
G1 X144.567 Y82.543 E175.99256
G1 X145.454 Y82.543 E176.02008
G1 X147.932 Y85.021 E176.12885
G1 X147.932 Y84.135 E176.15637
G1 X146.340 Y82.543 E176.22622
G1 X147.227 Y82.543 E176.25374
G1 X148.213 Y83.530 E176.29703
G1 Z0.650 F7800.000
G1 X51.277 Y119.198 F7800.000
G1 F3600
G1 X51.277 Y81.752 E177.08865
G1 X148.723 Y81.752 E179.14872
G1 X148.723 Y119.198 E179.94034
G1 X51.352 Y119.198 E181.99882
G1 X50.779 Y119.696 F7800.000
G1 F3600
G1 X50.779 Y81.254 E182.81150
G1 X149.221 Y81.254 E184.89263
G1 X149.221 Y119.696 E185.70531
G1 X50.854 Y119.696 E187.78486
G1 X50.281 Y120.194 F7800.000
G1 F1800
G1 X50.281 Y80.756 E188.61860
G1 X149.719 Y80.756 E190.72080
G1 X149.719 Y120.194 E191.55454
G1 X50.356 Y120.194 E193.65514
G1 X50.475 Y119.733 F7800.000
G1 X51.427 Y82.913 F7800.000
G1 F1200
G1 X52.214 Y82.126 E193.67877
G1 X52.921 Y82.126 E193.69379
G1 X51.651 Y83.396 E193.73192
G1 X51.651 Y84.104 E193.74693
G1 X53.629 Y82.126 E193.80630
G1 X54.336 Y82.126 E193.82131
G1 X51.651 Y84.811 E193.90191
G1 X51.651 Y85.518 E193.91692
G1 X55.043 Y82.126 E194.01876
G1 X55.751 Y82.126 E194.03377
G1 X51.651 Y86.226 E194.15684
G1 X51.651 Y86.933 E194.17185
G1 X56.458 Y82.126 E194.31615
G1 X57.165 Y82.126 E194.33117
G1 X51.651 Y87.640 E194.49670
G1 X51.651 Y88.348 E194.51172
G1 X57.873 Y82.126 E194.69848
G1 X58.580 Y82.126 E194.71350
G1 X51.651 Y89.055 E194.92150
G1 X51.651 Y89.762 E194.93652
G1 X59.287 Y82.126 E195.16575
G1 X59.995 Y82.126 E195.18077
G1 X51.651 Y90.470 E195.43124
G1 X51.651 Y91.177 E195.44625
G1 X60.702 Y82.126 E195.71795
G1 X61.409 Y82.126 E195.73297
G1 X51.651 Y91.884 E196.02590
G1 X51.651 Y92.591 E196.04092
G1 X62.116 Y82.126 E196.35509
G1 X62.824 Y82.126 E196.37010
G1 X51.651 Y93.299 E196.70551
G1 X51.651 Y94.006 E196.72052
G1 X63.531 Y82.126 E197.07716
G1 X64.238 Y82.126 E197.09218
G1 X51.651 Y94.713 E197.47005
G1 X51.651 Y95.421 E197.48506
G1 X64.946 Y82.126 E197.88417
G1 X65.653 Y82.126 E197.89918
G1 X51.651 Y96.128 E198.31952
G1 X51.651 Y96.835 E198.33454
G1 X66.360 Y82.126 E198.77611
G1 X67.068 Y82.126 E198.79113
G1 X51.651 Y97.543 E199.25393
G1 X51.651 Y98.250 E199.26895
G1 X67.775 Y82.126 E199.75299
G1 X68.482 Y82.126 E199.76800
G1 X51.651 Y98.957 E200.27328
G1 X51.651 Y99.665 E200.28829
G1 X69.190 Y82.126 E200.81480
G1 X69.897 Y82.126 E200.82982
G1 X51.651 Y100.372 E201.37756
G1 X51.651 Y101.079 E201.39258
G1 X70.604 Y82.126 E201.96155
G1 X71.312 Y82.126 E201.97657
G1 X51.651 Y101.787 E202.56678
G1 X51.651 Y102.494 E202.58179
G1 X72.019 Y82.126 E203.19324
G1 X72.726 Y82.126 E203.20825
G1 X51.651 Y103.201 E203.84093
G1 X51.651 Y103.909 E203.85594
G1 X73.434 Y82.126 E204.50985
G1 X74.141 Y82.126 E204.52487
G1 X51.651 Y104.616 E205.20001
G1 X51.651 Y105.323 E205.21503
G1 X74.848 Y82.126 E205.91141
G1 X75.556 Y82.126 E205.92642
G1 X51.651 Y106.031 E206.64404
G1 X51.651 Y106.738 E206.65905
G1 X76.263 Y82.126 E207.39790
G1 X76.970 Y82.126 E207.41291
G1 X51.651 Y107.445 E208.17299
G1 X51.651 Y108.153 E208.18801
G1 X77.678 Y82.126 E208.96932
G1 X78.385 Y82.126 E208.98434
G1 X51.651 Y108.860 E209.78689
G1 X51.651 Y109.567 E209.80190
G1 X79.092 Y82.126 E210.62568
G1 X79.800 Y82.126 E210.64070
G1 X51.651 Y110.275 E211.48571
G1 X51.651 Y110.982 E211.50073
G1 X80.507 Y82.126 E212.36698
G1 X81.214 Y82.126 E212.38199
G1 X51.651 Y111.689 E213.26948
G1 X51.651 Y112.397 E213.28449
G1 X81.922 Y82.126 E214.19321
G1 X82.629 Y82.126 E214.20822
G1 X51.651 Y113.104 E215.13817
G1 X51.651 Y113.811 E215.15319
G1 X83.336 Y82.126 E216.10437
G1 X84.044 Y82.126 E216.11939
G1 X51.651 Y114.519 E217.09181
G1 X51.651 Y115.226 E217.10682
G1 X84.751 Y82.126 E218.10047
G1 X85.458 Y82.126 E218.11549
G1 X51.651 Y115.933 E219.13038
G1 X51.651 Y116.641 E219.14539
G1 X86.166 Y82.126 E220.18151
G1 X86.873 Y82.126 E220.19653
G1 X51.651 Y117.348 E221.25388
G1 X51.651 Y118.055 E221.26889
G1 X87.580 Y82.126 E222.34748
G1 X88.288 Y82.126 E222.36250
G1 X51.651 Y118.763 E223.46232
G1 X51.651 Y118.824 E223.46362
G1 X52.297 Y118.824 E223.47733
G1 X88.995 Y82.126 E224.57900
G1 X89.702 Y82.126 E224.59401
G1 X53.004 Y118.824 E225.69568
G1 X53.712 Y118.824 E225.71069
G1 X90.410 Y82.126 E226.81236
G1 X91.117 Y82.126 E226.82737
G1 X54.419 Y118.824 E227.92904
G1 X55.126 Y118.824 E227.94405
G1 X91.824 Y82.126 E229.04572
G1 X92.532 Y82.126 E229.06073
G1 X55.834 Y118.824 E230.16240
G1 X56.541 Y118.824 E230.17741
G1 X93.239 Y82.126 E231.27908
G1 X93.946 Y82.126 E231.29409
G1 X57.248 Y118.824 E232.39576
G1 X57.956 Y118.824 E232.41077
G1 X94.653 Y82.126 E233.51244
G1 X95.361 Y82.126 E233.52745
G1 X58.663 Y118.824 E234.62912
G1 X59.370 Y118.824 E234.64413
G1 X96.068 Y82.126 E235.74580
G1 X96.775 Y82.126 E235.76081
