; generated by Slic3r 1.37.1-prusa3d-linux64 on 2017-10-18 at 10:25:22

; 

; external perimeters extrusion width = 0.56mm
; perimeters extrusion width = 0.56mm
; infill extrusion width = 0.56mm
; solid infill extrusion width = 0.56mm
; top infill extrusion width = 0.50mm
; first layer extrusion width = 0.60mm

M107
M104 S200 ; set temperature
G28 ; home all axes
G1 Z5 F5000 ; lift nozzle

; Filament gcode

M109 S200 ; set temperature and wait for it to be reached
G21 ; set units to millimeters
G90 ; use absolute coordinates
M82 ; use absolute distances for extrusion
G92 E0
G1 Z0.350 F7800.000
G1 E-2.00000 F2400.00000
G92 E0
G1 X45.177 Y66.933 F7800.000
G1 E2.00000 F2400.00000
G1 F1800
G1 X46.405 Y65.910 E2.04946
G1 X47.218 Y65.463 E2.07816
G1 X48.091 Y65.131 E2.10706
G1 X49.002 Y64.926 E2.13596
G1 X49.933 Y64.850 E2.16486
G1 X150.006 Y64.850 E5.26125
G1 X151.251 Y64.969 E5.29996
G1 X152.458 Y65.323 E5.33886
G1 X153.576 Y65.898 E5.37775
G1 X154.565 Y66.674 E5.41665
G1 X155.390 Y67.623 E5.45555
G1 X156.020 Y68.710 E5.49445
G1 X156.433 Y69.891 E5.53315
G1 X156.616 Y71.135 E5.57205
G1 X156.618 Y129.786 E7.38681
G1 X156.359 Y131.332 E7.43529
G1 X155.742 Y132.779 E7.48397
G1 X154.805 Y134.035 E7.53245
G1 X153.595 Y135.040 E7.58113
G1 X152.782 Y135.487 E7.60983
G1 X151.909 Y135.819 E7.63873
G1 X150.998 Y136.024 E7.66763
G1 X150.067 Y136.100 E7.69653
G1 X49.879 Y136.099 E10.79647
G1 X48.278 Y135.872 E10.84651
G1 X46.779 Y135.264 E10.89656
G1 X45.472 Y134.311 E10.94661
G1 X44.435 Y133.070 E10.99665
G1 X43.990 Y132.263 E11.02516
G1 X43.662 Y131.402 E11.05367
G1 X43.456 Y130.504 E11.08217
G1 X43.376 Y129.586 E11.11068
G1 X43.378 Y71.284 E12.91462
G1 X43.618 Y69.697 E12.96428
G1 X44.230 Y68.221 E13.01374
G1 X45.133 Y66.994 E13.06088
G1 E11.06088 F2400.00000
G92 E0
G1 X51.600 Y127.875 F7800.000
G1 E2.00000 F2400.00000
G1 F1800
G1 X51.600 Y73.075 E3.69560
G1 X148.400 Y73.075 E6.69073
G1 X148.400 Y127.875 E8.38633
G1 X51.675 Y127.875 E11.37914
G1 X50.975 Y128.500 F7800.000
G1 F1800
G1 X50.975 Y72.450 E13.11341
G1 X149.025 Y72.450 E16.14721
G1 X149.025 Y128.500 E17.88148
G1 X51.050 Y128.500 E20.91296
G1 X50.350 Y129.125 F7800.000
G1 F1800
G1 X50.350 Y71.825 E22.68590
G1 X149.650 Y71.825 E25.75837
G1 X149.650 Y129.125 E27.53131
G1 X50.425 Y129.125 E30.60146
G1 X50.521 Y128.655 F7800.000
G1 E28.60146 F2400.00000
G92 E0
G1 X53.057 Y127.688 F7800.000
G1 E2.00000 F2400.00000
G1 F1800
G1 X52.068 Y126.699 E2.04347
G1 X52.068 Y125.811 E2.07109
G1 X53.664 Y127.407 E2.14124
G1 X54.552 Y127.407 E2.16886
G1 X52.068 Y124.923 E2.27807
G1 X52.068 Y124.035 E2.30568
G1 X55.440 Y127.407 E2.45395
G1 X56.328 Y127.407 E2.48156
G1 X52.068 Y123.147 E2.66888
G1 X52.068 Y122.259 E2.69649
G1 X57.216 Y127.407 E2.92286
G1 X58.104 Y127.407 E2.95048
G1 X52.068 Y121.371 E3.21590
G1 X52.068 Y120.483 E3.24351
G1 X58.992 Y127.407 E3.54799
G1 X59.881 Y127.407 E3.57560
G1 X52.068 Y119.594 E3.91913
G1 X52.068 Y118.706 E3.94675
G1 X60.769 Y127.407 E4.32933
G1 X61.657 Y127.407 E4.35694
G1 X52.068 Y117.818 E4.77858
G1 X52.068 Y116.930 E4.80619
G1 X62.545 Y127.407 E5.26688
G1 X63.433 Y127.407 E5.29449
G1 X52.068 Y116.042 E5.79423
G1 X52.068 Y115.154 E5.82185
G1 X64.321 Y127.407 E6.36064
G1 X65.209 Y127.407 E6.38825
G1 X52.068 Y114.266 E6.96610
G1 X52.068 Y113.378 E6.99371
G1 X66.097 Y127.407 E7.61061
G1 X66.985 Y127.407 E7.63823
G1 X52.068 Y112.490 E8.29418
G1 X52.068 Y111.602 E8.32179
G1 X67.873 Y127.407 E9.01680
G1 X68.761 Y127.407 E9.04441
G1 X52.068 Y110.714 E9.77847
G1 X52.068 Y109.825 E9.80608
G1 X69.650 Y127.407 E10.57919
G1 X70.538 Y127.407 E10.60681
G1 X52.068 Y108.937 E11.41897
G1 X52.068 Y108.049 E11.44658
G1 X71.426 Y127.407 E12.29780
G1 X72.314 Y127.407 E12.32541
G1 X52.068 Y107.161 E13.21568
G1 X52.068 Y106.273 E13.24330
G1 X73.202 Y127.407 E14.17262
G1 X74.090 Y127.407 E14.20023
G1 X52.068 Y105.385 E15.16861
G1 X52.068 Y104.497 E15.19622
G1 X74.978 Y127.407 E16.20365
G1 X75.866 Y127.407 E16.23126
G1 X52.068 Y103.609 E17.27774
G1 X52.068 Y102.721 E17.30536
G1 X76.754 Y127.407 E18.39089
G1 X77.642 Y127.407 E18.41851
G1 X52.068 Y101.833 E19.54309
G1 X52.068 Y100.945 E19.57071
G1 X78.530 Y127.407 E20.73434
G1 X79.419 Y127.407 E20.76196
G1 X52.068 Y100.056 E21.96465
G1 X52.068 Y99.168 E21.99227
G1 X80.307 Y127.407 E23.23401
G1 X81.195 Y127.407 E23.26162
G1 X52.068 Y98.280 E24.54242
G1 X52.068 Y97.392 E24.57004
G1 X82.083 Y127.407 E25.88989
G1 X82.971 Y127.407 E25.91750
G1 X52.068 Y96.504 E27.27640
G1 X52.068 Y95.616 E27.30402
G1 X83.859 Y127.407 E28.70197
G1 X84.747 Y127.407 E28.72959
G1 X52.068 Y94.728 E30.16660
G1 X52.068 Y93.840 E30.19421
G1 X85.635 Y127.407 E31.67027
G1 X86.523 Y127.407 E31.69789
G1 X52.068 Y92.952 E33.21300
G1 X52.068 Y92.064 E33.24062
G1 X87.411 Y127.407 E34.79479
G1 X88.300 Y127.407 E34.82240
G1 X52.068 Y91.175 E36.41562
G1 X52.068 Y90.287 E36.44324
G1 X89.188 Y127.407 E38.07551
G1 X90.076 Y127.407 E38.10312
G1 X52.068 Y89.399 E39.77445
G1 X52.068 Y88.511 E39.80206
G1 X90.964 Y127.407 E41.51244
G1 X91.852 Y127.407 E41.54006
G1 X52.068 Y87.623 E43.28949
G1 X52.068 Y86.735 E43.31710
G1 X92.740 Y127.407 E45.10559
G1 X93.628 Y127.407 E45.13320
G1 X52.068 Y85.847 E46.96074
G1 X52.068 Y84.959 E46.98836
G1 X94.516 Y127.407 E48.85495
G1 X95.404 Y127.407 E48.88256
G1 X52.068 Y84.071 E50.78821
G1 X52.068 Y83.183 E50.81582
G1 X96.292 Y127.407 E52.76052
G1 X97.180 Y127.407 E52.78813
G1 X52.068 Y82.295 E54.77188
G1 X52.068 Y81.406 E54.79949
G1 X98.069 Y127.407 E56.82230
G1 X98.957 Y127.407 E56.84991
G1 X52.068 Y80.518 E58.91177
G1 X52.068 Y79.630 E58.93938
G1 X99.845 Y127.407 E61.04029
G1 X100.733 Y127.407 E61.06790
G1 X52.068 Y78.742 E63.20786
G1 X52.068 Y77.854 E63.23548
G1 X101.621 Y127.407 E65.41449
G1 X102.509 Y127.407 E65.44211
G1 X52.068 Y76.966 E67.66017
G1 X52.068 Y76.078 E67.68779
G1 X103.397 Y127.407 E69.94491
G1 X104.285 Y127.407 E69.97252
G1 X52.068 Y75.190 E72.26869
G1 X52.068 Y74.302 E72.29631
G1 X105.173 Y127.407 E74.63153
G1 X106.061 Y127.407 E74.65915
G1 X52.198 Y73.543 E77.02772
G1 X53.086 Y73.543 E77.05533
G1 X106.949 Y127.407 E79.42390
G1 X107.838 Y127.407 E79.45152
G1 X53.974 Y73.543 E81.82009
G1 X54.863 Y73.543 E81.84770
G1 X108.726 Y127.407 E84.21627
G1 X109.614 Y127.407 E84.24389
G1 X55.751 Y73.543 E86.61246
G1 X56.639 Y73.543 E86.64007
G1 X110.502 Y127.407 E89.00864
G1 X111.390 Y127.407 E89.03625
G1 X57.527 Y73.543 E91.40482
G1 X58.415 Y73.543 E91.43244
G1 X112.278 Y127.407 E93.80101
G1 X113.166 Y127.407 E93.82862
G1 X59.303 Y73.543 E96.19719
G1 X60.191 Y73.543 E96.22481
G1 X114.054 Y127.407 E98.59338
G1 X114.942 Y127.407 E98.62099
G1 X61.079 Y73.543 E100.98956
G1 X61.967 Y73.543 E101.01717
G1 X115.830 Y127.407 E103.38574
G1 X116.719 Y127.407 E103.41336
G1 X62.855 Y73.543 E105.78193
G1 X63.743 Y73.543 E105.80954
G1 X117.607 Y127.407 E108.17811
G1 X118.495 Y127.407 E108.20573
G1 X64.632 Y73.543 E110.57430
G1 X65.520 Y73.543 E110.60191
G1 X119.383 Y127.407 E112.97048
G1 X120.271 Y127.407 E112.99809
G1 X66.408 Y73.543 E115.36666
G1 X67.296 Y73.543 E115.39428
G1 X121.159 Y127.407 E117.76285
G1 X122.047 Y127.407 E117.79046
G1 X68.184 Y73.543 E120.15903
G1 X69.072 Y73.543 E120.18665
G1 X122.935 Y127.407 E122.55522
G1 X123.823 Y127.407 E122.58283
G1 X69.960 Y73.543 E124.95140
G1 X70.848 Y73.543 E124.97902
G1 X124.711 Y127.407 E127.34759
G1 X125.599 Y127.407 E127.37520
G1 X71.736 Y73.543 E129.74377
G1 X72.624 Y73.543 E129.77138
G1 X126.488 Y127.407 E132.13995
G1 X127.376 Y127.407 E132.16757
G1 X73.512 Y73.543 E134.53614
G1 X74.401 Y73.543 E134.56375
G1 X128.264 Y127.407 E136.93232
G1 X129.152 Y127.407 E136.95994
G1 X75.289 Y73.543 E139.32851
G1 X76.177 Y73.543 E139.35612
G1 X130.040 Y127.407 E141.72469
G1 X130.928 Y127.407 E141.75230
G1 X77.065 Y73.543 E144.12087
G1 X77.953 Y73.543 E144.14849
G1 X131.816 Y127.407 E146.51706
G1 X132.704 Y127.407 E146.54467
G1 X78.841 Y73.543 E148.91324
G1 X79.729 Y73.543 E148.94086
G1 X133.592 Y127.407 E151.30943
G1 X134.480 Y127.407 E151.33704
G1 X80.617 Y73.543 E153.70561
G1 X81.505 Y73.543 E153.73323
G1 X135.368 Y127.407 E156.10179
G1 X136.257 Y127.407 E156.12941
G1 X82.393 Y73.543 E158.49798
G1 X83.282 Y73.543 E158.52559
G1 X137.145 Y127.407 E160.89416
G1 X138.033 Y127.407 E160.92178
G1 X84.170 Y73.543 E163.29035
G1 X85.058 Y73.543 E163.31796
G1 X138.921 Y127.407 E165.68653
G1 X139.809 Y127.407 E165.71415
G1 X85.946 Y73.543 E168.08272
G1 X86.834 Y73.543 E168.11033
G1 X140.697 Y127.407 E170.47890
G1 X141.585 Y127.407 E170.50651
G1 X87.722 Y73.543 E172.87508
G1 X88.610 Y73.543 E172.90270
G1 X142.473 Y127.407 E175.27127
G1 X143.361 Y127.407 E175.29888
G1 X89.498 Y73.543 E177.66745
G1 X90.386 Y73.543 E177.69507
G1 X144.249 Y127.407 E180.06364
G1 X145.138 Y127.407 E180.09125
G1 X91.274 Y73.543 E182.45982
G1 X92.162 Y73.543 E182.48743
G1 X146.026 Y127.407 E184.85600
G1 X146.914 Y127.407 E184.88362
G1 X93.051 Y73.543 E187.25219
G1 X93.939 Y73.543 E187.27980
G1 X147.802 Y127.407 E189.64837
G1 X147.932 Y127.407 E189.65241
G1 X147.932 Y126.648 E189.67599
G1 X94.827 Y73.543 E192.01121
G1 X95.715 Y73.543 E192.03883
G1 X147.932 Y125.760 E194.33500
G1 X147.932 Y124.872 E194.36261
G1 X96.603 Y73.543 E196.61973
G1 X97.491 Y73.543 E196.64734
G1 X147.932 Y123.984 E198.86541
G1 X147.932 Y123.096 E198.89302
G1 X98.379 Y73.543 E201.07204
G1 X99.267 Y73.543 E201.09965
G1 X147.932 Y122.208 E203.23961
G1 X147.932 Y121.320 E203.26722
G1 X100.155 Y73.543 E205.36813
G1 X101.043 Y73.543 E205.39575
G1 X147.932 Y120.432 E207.45760
G1 X147.932 Y119.544 E207.48521
G1 X101.931 Y73.543 E209.50801
G1 X102.820 Y73.543 E209.53563
G1 X147.932 Y118.655 E211.51938
G1 X147.932 Y117.767 E211.54699
G1 X103.708 Y73.543 E213.49169
G1 X104.596 Y73.543 E213.51930
G1 X147.932 Y116.879 E215.42494
G1 X147.932 Y115.991 E215.45256
G1 X105.484 Y73.543 E217.31915
G1 X106.372 Y73.543 E217.34676
G1 X147.932 Y115.103 E219.17430
G1 X147.932 Y114.215 E219.20191
G1 X107.260 Y73.543 E220.99040
G1 X108.148 Y73.543 E221.01801
G1 X147.932 Y113.327 E222.76744
G1 X147.932 Y112.439 E222.79506
G1 X109.036 Y73.543 E224.50543
G1 X109.924 Y73.543 E224.53305
G1 X147.932 Y111.551 E226.20437
G1 X147.932 Y110.663 E226.23199
G1 X110.812 Y73.543 E227.86426
G1 X111.701 Y73.543 E227.89187
G1 X147.932 Y109.774 E229.48509
G1 X147.932 Y108.886 E229.51271
G1 X112.589 Y73.543 E231.06687
G1 X113.477 Y73.543 E231.09449
G1 X147.932 Y107.998 E232.60960
G1 X147.932 Y107.110 E232.63722
G1 X114.365 Y73.543 E234.11328
G1 X115.253 Y73.543 E234.14089
G1 X147.932 Y106.222 E235.57790
G1 X147.932 Y105.334 E235.60551
G1 X116.141 Y73.543 E237.00347
G1 X117.029 Y73.543 E237.03108
G1 X147.932 Y104.446 E238.38998
G1 X147.932 Y103.558 E238.41760
G1 X117.917 Y73.543 E239.73745
G1 X118.805 Y73.543 E239.76506
G1 X147.932 Y102.670 E241.04586
G1 X147.932 Y101.782 E241.07347
G1 X119.693 Y73.543 E242.31522
G1 X120.581 Y73.543 E242.34283
G1 X147.932 Y100.894 E243.54552
G1 X147.932 Y100.005 E243.57314
G1 X121.470 Y73.543 E244.73677
G1 X122.358 Y73.543 E244.76439
G1 X147.932 Y99.117 E245.88897
G1 X147.932 Y98.229 E245.91659
G1 X123.246 Y73.543 E247.00212
G1 X124.134 Y73.543 E247.02973
G1 X147.932 Y97.341 E248.07621
G1 X147.932 Y96.453 E248.10383
G1 X125.022 Y73.543 E249.11125
G1 X125.910 Y73.543 E249.13887
G1 X147.932 Y95.565 E250.10724
G1 X147.932 Y94.677 E250.13485
G1 X126.798 Y73.543 E251.06417
G1 X127.686 Y73.543 E251.09179
G1 X147.932 Y93.789 E251.98206
G1 X147.932 Y92.901 E252.00967
G1 X128.574 Y73.543 E252.86088
G1 X129.462 Y73.543 E252.88850
G1 X147.932 Y92.013 E253.70066
G1 X147.932 Y91.125 E253.72827
G1 X130.350 Y73.543 E254.50138
G1 X131.239 Y73.543 E254.52900
G1 X147.932 Y90.236 E255.26305
G1 X147.932 Y89.348 E255.29067
G1 X132.127 Y73.543 E255.98567
G1 X133.015 Y73.543 E256.01329
G1 X147.932 Y88.460 E256.66924
G1 X147.932 Y87.572 E256.69685
G1 X133.903 Y73.543 E257.31375
G1 X134.791 Y73.543 E257.34136
G1 X147.932 Y86.684 E257.91921
G1 X147.932 Y85.796 E257.94682
G1 X135.679 Y73.543 E258.48561
G1 X136.567 Y73.543 E258.51323
G1 X147.932 Y84.908 E259.01296
G1 X147.932 Y84.020 E259.04058
G1 X137.455 Y73.543 E259.50126
G1 X138.343 Y73.543 E259.52888
G1 X147.932 Y83.132 E259.95051
G1 X147.932 Y82.244 E259.97813
G1 X139.231 Y73.543 E260.36071
G1 X140.120 Y73.543 E260.38832
G1 X147.932 Y81.355 E260.73185
G1 X147.932 Y80.467 E260.75946
G1 X141.008 Y73.543 E261.06394
G1 X141.896 Y73.543 E261.09155
G1 X147.932 Y79.579 E261.35697
G1 X147.932 Y78.691 E261.38459
G1 X142.784 Y73.543 E261.61095
G1 X143.672 Y73.543 E261.63857
G1 X147.932 Y77.803 E261.82588
G1 X147.932 Y76.915 E261.85350
G1 X144.560 Y73.543 E262.00176
G1 X145.448 Y73.543 E262.02937
G1 X147.932 Y76.027 E262.13858
G1 X147.932 Y75.139 E262.16620
G1 X146.336 Y73.543 E262.23636
G1 X147.224 Y73.543 E262.26397
G1 X148.213 Y74.532 E262.30744
G1 Z0.650 F7800.000
G1 X51.277 Y128.198 F7800.000
G1 F3600
G1 X51.277 Y72.752 E263.47959
G1 X148.723 Y72.752 E265.53966
G1 X148.723 Y128.198 E266.71182
G1 X51.352 Y128.198 E268.77030
G1 X50.779 Y128.696 F7800.000
G1 F3600
G1 X50.779 Y72.254 E269.96352
G1 X149.221 Y72.254 E272.04465
G1 X149.221 Y128.696 E273.23787
G1 X50.854 Y128.696 E275.31741
G1 X50.281 Y129.194 F7800.000
G1 F1800
G1 X50.281 Y71.756 E276.53169
G1 X149.719 Y71.756 E278.63388
G1 X149.719 Y129.194 E279.84816
G1 X50.356 Y129.194 E281.94877
G1 X50.452 Y128.724 F7800.000
G1 X51.427 Y73.910 F7800.000
G1 F1200
G1 X52.211 Y73.126 E281.97225
G1 X52.917 Y73.126 E281.98719
G1 X51.651 Y74.392 E282.02509
G1 X51.651 Y75.097 E282.04002
G1 X53.622 Y73.126 E282.09905
G1 X54.328 Y73.126 E282.11398
G1 X51.651 Y75.803 E282.19413
G1 X51.651 Y76.508 E282.20907
G1 X55.033 Y73.126 E282.31034
G1 X55.739 Y73.126 E282.32528
G1 X51.651 Y77.214 E282.44768
G1 X51.651 Y77.919 E282.46262
G1 X56.444 Y73.126 E282.60614
G1 X57.150 Y73.126 E282.62108
G1 X51.651 Y78.625 E282.78573
G1 X51.651 Y79.330 E282.80066
G1 X57.855 Y73.126 E282.98644
G1 X58.561 Y73.126 E283.00138
G1 X51.651 Y80.036 E283.20828
G1 X51.651 Y80.741 E283.22321
G1 X59.266 Y73.126 E283.45124
G1 X59.972 Y73.126 E283.46618
G1 X51.651 Y81.447 E283.71533
G1 X51.651 Y82.152 E283.73027
G1 X60.677 Y73.126 E284.00054
G1 X61.383 Y73.126 E284.01548
G1 X51.651 Y82.858 E284.30688
G1 X51.651 Y83.563 E284.32182
G1 X62.088 Y73.126 E284.63435
G1 X62.794 Y73.126 E284.64929
G1 X51.651 Y84.269 E284.98294
G1 X51.651 Y84.974 E284.99788
G1 X63.499 Y73.126 E285.35266
G1 X64.205 Y73.126 E285.36759
G1 X51.651 Y85.680 E285.74350
G1 X51.651 Y86.385 E285.75843
G1 X64.910 Y73.126 E286.15546
G1 X65.616 Y73.126 E286.17040
G1 X51.651 Y87.091 E286.58856
G1 X51.651 Y87.797 E286.60349
G1 X66.322 Y73.126 E287.04277
G1 X67.027 Y73.126 E287.05771
G1 X51.651 Y88.502 E287.51812
G1 X51.651 Y89.208 E287.53306
G1 X67.733 Y73.126 E288.01459
G1 X68.438 Y73.126 E288.02952
G1 X51.651 Y89.913 E288.53218
G1 X51.651 Y90.619 E288.54712
G1 X69.144 Y73.126 E289.07090
G1 X69.849 Y73.126 E289.08584
G1 X51.651 Y91.324 E289.63075
G1 X51.651 Y92.030 E289.64568
G1 X70.555 Y73.126 E290.21172
G1 X71.260 Y73.126 E290.22665
G1 X51.651 Y92.735 E290.81381
G1 X51.651 Y93.441 E290.82875
G1 X71.966 Y73.126 E291.43703
G1 X72.671 Y73.126 E291.45197
G1 X51.651 Y94.146 E292.08138
G1 X51.651 Y94.852 E292.09632
G1 X73.377 Y73.126 E292.74685
G1 X74.082 Y73.126 E292.76179
G1 X51.651 Y95.557 E293.43345
G1 X51.651 Y96.263 E293.44839
G1 X74.788 Y73.126 E294.14117
G1 X75.493 Y73.126 E294.15611
G1 X51.651 Y96.968 E294.87002
G1 X51.651 Y97.674 E294.88496
G1 X76.199 Y73.126 E295.62000
G1 X76.904 Y73.126 E295.63494
G1 X51.651 Y98.379 E296.39110
G1 X51.651 Y99.085 E296.40603
G1 X77.610 Y73.126 E297.18332
G1 X78.315 Y73.126 E297.19826
G1 X51.651 Y99.790 E297.99667
G1 X51.651 Y100.496 E298.01161
G1 X79.021 Y73.126 E298.83115
G1 X79.726 Y73.126 E298.84609
G1 X51.651 Y101.201 E299.68675
G1 X51.651 Y101.907 E299.70169
G1 X80.432 Y73.126 E300.56348
G1 X81.137 Y73.126 E300.57841
G1 X51.651 Y102.612 E301.46133
G1 X51.651 Y103.318 E301.47627
G1 X81.843 Y73.126 E302.38031
G1 X82.548 Y73.126 E302.39524
G1 X51.651 Y104.023 E303.32041
G1 X51.651 Y104.729 E303.33535
G1 X83.254 Y73.126 E304.28164
G1 X83.959 Y73.126 E304.29658
G1 X51.651 Y105.434 E305.26399
G1 X51.651 Y106.140 E305.27893
