; generated by Slic3r 1.37.1-prusa3d-linux64 on 2017-10-19 at 22:33:56

; 

; external perimeters extrusion width = 0.45mm
; perimeters extrusion width = 0.45mm
; infill extrusion width = 0.45mm
; solid infill extrusion width = 0.45mm
; top infill extrusion width = 0.45mm
; first layer extrusion width = 0.42mm

M107 ; disable fan
M115 U3.0.12 ; tell printer latest fw version
M83  ; extruder relative mode
M104 S255 ; set extruder temp
M140 S100 ; set bed temp
M190 S100 ; wait for bed temp
M109 S255 ; wait for extruder temp
G28 W ; home all without mesh bed level
G80 ; mesh bed leveling
G1 Y-3.0 F1000.0 ; go outside pritn area
G1 X60.0 E9.0  F1000.0 ; intro line
G1 X100.0 E12.5  F1000.0 ; intro line
; Filament gcode

G21 ; set units to millimeters
G90 ; use absolute coordinates
M83 ; use relative distances for extrusion
;BEFORE_LAYER_CHANGE
;0.2


G1 E-0.80000 F2100.00000 ; retract
G1 Z0.600 F7200.000 ; lift Z
;AFTER_LAYER_CHANGE
;0.2
G1 X73.297 Y74.816 F7200.000 ; move to first skirt point
G1 Z0.200 F7200.000 ; restore layer Z
G1 E0.80000 F2100.00000 ; unretract
M204 S1000 ; adjust acceleration
G1 F2100
G1 X73.770 Y74.441 E0.01894 ; skirt
G1 X74.356 Y74.187 E0.02000 ; skirt
G1 X74.991 Y74.098 E0.02012 ; skirt
G1 X175.004 Y74.098 E3.13582 ; skirt
G1 X175.899 Y74.274 E0.02860 ; skirt
G1 X176.664 Y74.778 E0.02872 ; skirt
G1 X177.182 Y75.533 E0.02872 ; skirt
G1 X177.377 Y76.428 E0.02872 ; skirt
G1 X177.377 Y134.521 E1.82145 ; skirt
G1 X177.290 Y135.111 E0.01870 ; skirt
G1 X177.060 Y135.661 E0.01870 ; skirt
G1 X176.697 Y136.139 E0.01882 ; skirt
G1 X176.230 Y136.509 E0.01870 ; skirt
G1 X175.644 Y136.763 E0.02000 ; skirt
G1 X175.009 Y136.852 E0.02012 ; skirt
G1 X74.981 Y136.852 E3.13630 ; skirt
G1 X74.382 Y136.770 E0.01894 ; skirt
G1 X73.824 Y136.541 E0.01894 ; skirt
G1 X73.341 Y136.178 E0.01894 ; skirt
G1 X72.966 Y135.705 E0.01894 ; skirt
G1 X72.712 Y135.119 E0.02000 ; skirt
G1 X72.623 Y134.488 E0.02000 ; skirt
G1 X72.623 Y76.445 E1.81990 ; skirt
G1 X72.707 Y75.850 E0.01882 ; skirt
G1 X72.936 Y75.296 E0.01882 ; skirt
G1 X73.261 Y74.864 E0.01694 ; skirt
G1 E-0.48000 F2100.00000 ; retract
G1 F5760
G1 X73.770 Y74.441 E-0.22937 ; wipe and retract
G1 F5760
G1 X73.968 Y74.355 E-0.07463 ; wipe and retract
G1 E-0.01600 F2100.00000 ; retract
G1 Z0.800 F7200.000 ; lift Z
G1 X75.587 Y77.062 F7200.000 ; move to first perimeter point
G1 Z0.200 F7200.000 ; restore layer Z
G1 E0.80000 F2100.00000 ; unretract
G1 F1680
G1 X174.413 Y77.062 E3.09861 ; perimeter
G1 X174.413 Y133.888 E1.78173 ; perimeter
G1 X75.587 Y133.888 E3.09861 ; perimeter
G1 X75.587 Y77.122 E1.77985 ; perimeter
G1 X75.210 Y76.685 F7200.000 ; move to first perimeter point
G1 F1260
G1 X174.790 Y76.685 E3.12226 ; perimeter
G1 X174.790 Y134.265 E1.80538 ; perimeter
G1 X75.210 Y134.265 E3.12226 ; perimeter
G1 X75.210 Y76.745 E1.80350 ; perimeter
G1 X75.604 Y76.755 F7200.000 ; move inwards before travel
G1 E-0.48000 F2100.00000 ; retract
G1 F5760
G1 X76.088 Y76.744 E-0.30400 ; wipe and retract
G1 E-0.01600 F2100.00000 ; retract
G1 Z0.800 F7200.000 ; lift Z
G1 X75.700 Y133.012 F7200.000 ; move to first infill point
G1 Z0.200 F7200.000 ; restore layer Z
G1 E0.80000 F2100.00000 ; unretract
G1 F1680
G1 X76.293 Y133.605 E0.02631 ; infill
G1 X76.827 Y133.605 E0.01674 ; infill
G1 X75.870 Y132.648 E0.04245 ; infill
G1 X75.870 Y132.115 E0.01674 ; infill
G1 X77.360 Y133.605 E0.06613 ; infill
G1 X77.894 Y133.605 E0.01674 ; infill
G1 X75.870 Y131.581 E0.08980 ; infill
G1 X75.870 Y131.047 E0.01674 ; infill
G1 X78.428 Y133.605 E0.11348 ; infill
G1 X78.961 Y133.605 E0.01674 ; infill
G1 X75.870 Y130.514 E0.13715 ; infill
G1 X75.870 Y129.980 E0.01674 ; infill
G1 X79.495 Y133.605 E0.16083 ; infill
G1 X80.028 Y133.605 E0.01674 ; infill
G1 X75.870 Y129.447 E0.18450 ; infill
G1 X75.870 Y128.913 E0.01674 ; infill
G1 X80.562 Y133.605 E0.20818 ; infill
G1 X81.095 Y133.605 E0.01674 ; infill
G1 X75.870 Y128.380 E0.23185 ; infill
G1 X75.870 Y127.846 E0.01674 ; infill
G1 X81.629 Y133.605 E0.25552 ; infill
G1 X82.163 Y133.605 E0.01674 ; infill
G1 X75.870 Y127.312 E0.27920 ; infill
G1 X75.870 Y126.779 E0.01674 ; infill
G1 X82.696 Y133.605 E0.30287 ; infill
G1 X83.230 Y133.605 E0.01674 ; infill
G1 X75.870 Y126.245 E0.32655 ; infill
G1 X75.870 Y125.712 E0.01674 ; infill
G1 X83.763 Y133.605 E0.35022 ; infill
G1 X84.297 Y133.605 E0.01674 ; infill
G1 X75.870 Y125.178 E0.37390 ; infill
G1 X75.870 Y124.644 E0.01674 ; infill
G1 X84.831 Y133.605 E0.39757 ; infill
G1 X85.364 Y133.605 E0.01674 ; infill
G1 X75.870 Y124.111 E0.42125 ; infill
G1 X75.870 Y123.577 E0.01674 ; infill
G1 X85.898 Y133.605 E0.44492 ; infill
G1 X86.431 Y133.605 E0.01674 ; infill
G1 X75.870 Y123.044 E0.46859 ; infill
G1 X75.870 Y122.510 E0.01674 ; infill
G1 X86.965 Y133.605 E0.49227 ; infill
G1 X87.499 Y133.605 E0.01674 ; infill
G1 X75.870 Y121.976 E0.51594 ; infill
G1 X75.870 Y121.443 E0.01674 ; infill
G1 X88.032 Y133.605 E0.53962 ; infill
G1 X88.566 Y133.605 E0.01674 ; infill
G1 X75.870 Y120.909 E0.56329 ; infill
G1 X75.870 Y120.376 E0.01674 ; infill
G1 X89.099 Y133.605 E0.58697 ; infill
G1 X89.633 Y133.605 E0.01674 ; infill
G1 X75.870 Y119.842 E0.61064 ; infill
G1 X75.870 Y119.309 E0.01674 ; infill
G1 X90.166 Y133.605 E0.63432 ; infill
G1 X90.700 Y133.605 E0.01674 ; infill
G1 X75.870 Y118.775 E0.65799 ; infill
G1 X75.870 Y118.241 E0.01674 ; infill
G1 X91.234 Y133.605 E0.68166 ; infill
G1 X91.767 Y133.605 E0.01674 ; infill
G1 X75.870 Y117.708 E0.70534 ; infill
G1 X75.870 Y117.174 E0.01674 ; infill
G1 X92.301 Y133.605 E0.72901 ; infill
G1 X92.834 Y133.605 E0.01674 ; infill
G1 X75.870 Y116.641 E0.75269 ; infill
G1 X75.870 Y116.107 E0.01674 ; infill
G1 X93.368 Y133.605 E0.77636 ; infill
G1 X93.902 Y133.605 E0.01674 ; infill
G1 X75.870 Y115.573 E0.80004 ; infill
G1 X75.870 Y115.040 E0.01674 ; infill
G1 X94.435 Y133.605 E0.82371 ; infill
G1 X94.969 Y133.605 E0.01674 ; infill
G1 X75.870 Y114.506 E0.84738 ; infill
G1 X75.870 Y113.973 E0.01674 ; infill
G1 X95.502 Y133.605 E0.87106 ; infill
G1 X96.036 Y133.605 E0.01674 ; infill
G1 X75.870 Y113.439 E0.89473 ; infill
G1 X75.870 Y112.905 E0.01674 ; infill
G1 X96.570 Y133.605 E0.91841 ; infill
G1 X97.103 Y133.605 E0.01674 ; infill
G1 X75.870 Y112.372 E0.94208 ; infill
G1 X75.870 Y111.838 E0.01674 ; infill
G1 X97.637 Y133.605 E0.96576 ; infill
G1 X98.170 Y133.605 E0.01674 ; infill
G1 X75.870 Y111.305 E0.98943 ; infill
G1 X75.870 Y110.771 E0.01674 ; infill
G1 X98.704 Y133.605 E1.01311 ; infill
G1 X99.238 Y133.605 E0.01674 ; infill
G1 X75.870 Y110.237 E1.03678 ; infill
G1 X75.870 Y109.704 E0.01674 ; infill
G1 X99.771 Y133.605 E1.06045 ; infill
G1 X100.305 Y133.605 E0.01674 ; infill
G1 X75.870 Y109.170 E1.08413 ; infill
G1 X75.870 Y108.637 E0.01674 ; infill
G1 X100.838 Y133.605 E1.10780 ; infill
G1 X101.372 Y133.605 E0.01674 ; infill
G1 X75.870 Y108.103 E1.13148 ; infill
G1 X75.870 Y107.570 E0.01674 ; infill
G1 X101.905 Y133.605 E1.15515 ; infill
G1 X102.439 Y133.605 E0.01674 ; infill
G1 X75.870 Y107.036 E1.17883 ; infill
G1 X75.870 Y106.502 E0.01674 ; infill
G1 X102.973 Y133.605 E1.20250 ; infill
G1 X103.506 Y133.605 E0.01674 ; infill
G1 X75.870 Y105.969 E1.22618 ; infill
G1 X75.870 Y105.435 E0.01674 ; infill
G1 X104.040 Y133.605 E1.24985 ; infill
G1 X104.573 Y133.605 E0.01674 ; infill
G1 X75.870 Y104.902 E1.27352 ; infill
G1 X75.870 Y104.368 E0.01674 ; infill
G1 X105.107 Y133.605 E1.29720 ; infill
G1 X105.641 Y133.605 E0.01674 ; infill
G1 X75.870 Y103.834 E1.32087 ; infill
G1 X75.870 Y103.301 E0.01674 ; infill
G1 X106.174 Y133.605 E1.34455 ; infill
G1 X106.708 Y133.605 E0.01674 ; infill
G1 X75.870 Y102.767 E1.36822 ; infill
G1 X75.870 Y102.234 E0.01674 ; infill
G1 X107.241 Y133.605 E1.39190 ; infill
G1 X107.775 Y133.605 E0.01674 ; infill
G1 X75.870 Y101.700 E1.41557 ; infill
G1 X75.870 Y101.166 E0.01674 ; infill
G1 X108.309 Y133.605 E1.43924 ; infill
G1 X108.842 Y133.605 E0.01674 ; infill
G1 X75.870 Y100.633 E1.46292 ; infill
G1 X75.870 Y100.099 E0.01674 ; infill
G1 X109.376 Y133.605 E1.48659 ; infill
G1 X109.909 Y133.605 E0.01674 ; infill
G1 X75.870 Y99.566 E1.51027 ; infill
G1 X75.870 Y99.032 E0.01674 ; infill
G1 X110.443 Y133.605 E1.53394 ; infill
G1 X110.976 Y133.605 E0.01674 ; infill
G1 X75.870 Y98.499 E1.55762 ; infill
G1 X75.870 Y97.965 E0.01674 ; infill
G1 X111.510 Y133.605 E1.58129 ; infill
G1 X112.044 Y133.605 E0.01674 ; infill
G1 X75.870 Y97.431 E1.60497 ; infill
G1 X75.870 Y96.898 E0.01674 ; infill
G1 X112.577 Y133.605 E1.62864 ; infill
G1 X113.111 Y133.605 E0.01674 ; infill
G1 X75.870 Y96.364 E1.65231 ; infill
G1 X75.870 Y95.831 E0.01674 ; infill
G1 X113.644 Y133.605 E1.67599 ; infill
G1 X114.178 Y133.605 E0.01674 ; infill
G1 X75.870 Y95.297 E1.69966 ; infill
G1 X75.870 Y94.763 E0.01674 ; infill
G1 X114.712 Y133.605 E1.72334 ; infill
G1 X115.245 Y133.605 E0.01674 ; infill
G1 X75.870 Y94.230 E1.74701 ; infill
G1 X75.870 Y93.696 E0.01674 ; infill
G1 X115.779 Y133.605 E1.77069 ; infill
G1 X116.312 Y133.605 E0.01674 ; infill
G1 X75.870 Y93.163 E1.79436 ; infill
G1 X75.870 Y92.629 E0.01674 ; infill
G1 X116.846 Y133.605 E1.81804 ; infill
G1 X117.380 Y133.605 E0.01674 ; infill
G1 X75.870 Y92.095 E1.84171 ; infill
G1 X75.870 Y91.562 E0.01674 ; infill
G1 X117.913 Y133.605 E1.86538 ; infill
G1 X118.447 Y133.605 E0.01674 ; infill
G1 X75.870 Y91.028 E1.88906 ; infill
G1 X75.870 Y90.495 E0.01674 ; infill
G1 X118.980 Y133.605 E1.91273 ; infill
G1 X119.514 Y133.605 E0.01674 ; infill
G1 X75.870 Y89.961 E1.93641 ; infill
G1 X75.870 Y89.427 E0.01674 ; infill
G1 X120.048 Y133.605 E1.96008 ; infill
G1 X120.581 Y133.605 E0.01674 ; infill
G1 X75.870 Y88.894 E1.98376 ; infill
G1 X75.870 Y88.360 E0.01674 ; infill
G1 X121.115 Y133.605 E2.00743 ; infill
G1 X121.648 Y133.605 E0.01674 ; infill
G1 X75.870 Y87.827 E2.03111 ; infill
G1 X75.870 Y87.293 E0.01674 ; infill
G1 X122.182 Y133.605 E2.05478 ; infill
G1 X122.715 Y133.605 E0.01674 ; infill
G1 X75.870 Y86.760 E2.07845 ; infill
G1 X75.870 Y86.226 E0.01674 ; infill
G1 X123.249 Y133.605 E2.10213 ; infill
G1 X123.783 Y133.605 E0.01674 ; infill
G1 X75.870 Y85.692 E2.12580 ; infill
G1 X75.870 Y85.159 E0.01674 ; infill
G1 X124.316 Y133.605 E2.14948 ; infill
G1 X124.850 Y133.605 E0.01674 ; infill
G1 X75.870 Y84.625 E2.17315 ; infill
G1 X75.870 Y84.092 E0.01674 ; infill
G1 X125.383 Y133.605 E2.19683 ; infill
G1 X125.917 Y133.605 E0.01674 ; infill
G1 X75.870 Y83.558 E2.22050 ; infill
G1 X75.870 Y83.024 E0.01674 ; infill
G1 X126.451 Y133.605 E2.24417 ; infill
G1 X126.984 Y133.605 E0.01674 ; infill
G1 X75.870 Y82.491 E2.26785 ; infill
G1 X75.870 Y81.957 E0.01674 ; infill
G1 X127.518 Y133.605 E2.29152 ; infill
G1 X128.051 Y133.605 E0.01674 ; infill
G1 X75.870 Y81.424 E2.31520 ; infill
G1 X75.870 Y80.890 E0.01674 ; infill
G1 X128.585 Y133.605 E2.33887 ; infill
G1 X129.119 Y133.605 E0.01674 ; infill
G1 X75.870 Y80.356 E2.36255 ; infill
G1 X75.870 Y79.823 E0.01674 ; infill
G1 X129.652 Y133.605 E2.38622 ; infill
G1 X130.186 Y133.605 E0.01674 ; infill
G1 X75.870 Y79.289 E2.40990 ; infill
G1 X75.870 Y78.756 E0.01674 ; infill
G1 X130.719 Y133.605 E2.43357 ; infill
G1 X131.253 Y133.605 E0.01674 ; infill
G1 X75.870 Y78.222 E2.45724 ; infill
G1 X75.870 Y77.689 E0.01674 ; infill
G1 X131.786 Y133.605 E2.48092 ; infill
G1 X132.320 Y133.605 E0.01674 ; infill
G1 X76.060 Y77.345 E2.49617 ; infill
G1 X76.593 Y77.345 E0.01674 ; infill
G1 X132.854 Y133.605 E2.49617 ; infill
G1 X133.387 Y133.605 E0.01674 ; infill
G1 X77.127 Y77.345 E2.49617 ; infill
G1 X77.661 Y77.345 E0.01674 ; infill
G1 X133.921 Y133.605 E2.49617 ; infill
G1 X134.454 Y133.605 E0.01674 ; infill
G1 X78.194 Y77.345 E2.49617 ; infill
G1 X78.728 Y77.345 E0.01674 ; infill
G1 X134.988 Y133.605 E2.49617 ; infill
G1 X135.522 Y133.605 E0.01674 ; infill
G1 X79.261 Y77.345 E2.49617 ; infill
G1 X79.795 Y77.345 E0.01674 ; infill
G1 X136.055 Y133.605 E2.49617 ; infill
G1 X136.589 Y133.605 E0.01674 ; infill
G1 X80.329 Y77.345 E2.49617 ; infill
G1 X80.862 Y77.345 E0.01674 ; infill
G1 X137.122 Y133.605 E2.49617 ; infill
G1 X137.656 Y133.605 E0.01674 ; infill
G1 X81.396 Y77.345 E2.49617 ; infill
G1 X81.929 Y77.345 E0.01674 ; infill
G1 X138.190 Y133.605 E2.49617 ; infill
G1 X138.723 Y133.605 E0.01674 ; infill
G1 X82.463 Y77.345 E2.49617 ; infill
G1 X82.996 Y77.345 E0.01674 ; infill
G1 X139.257 Y133.605 E2.49617 ; infill
G1 X139.790 Y133.605 E0.01674 ; infill
G1 X83.530 Y77.345 E2.49617 ; infill
G1 X84.064 Y77.345 E0.01674 ; infill
G1 X140.324 Y133.605 E2.49617 ; infill
G1 X140.858 Y133.605 E0.01674 ; infill
G1 X84.597 Y77.345 E2.49617 ; infill
G1 X85.131 Y77.345 E0.01674 ; infill
G1 X141.391 Y133.605 E2.49617 ; infill
G1 X141.925 Y133.605 E0.01674 ; infill
G1 X85.664 Y77.345 E2.49617 ; infill
G1 X86.198 Y77.345 E0.01674 ; infill
G1 X142.458 Y133.605 E2.49617 ; infill
G1 X142.992 Y133.605 E0.01674 ; infill
G1 X86.732 Y77.345 E2.49617 ; infill
G1 X87.265 Y77.345 E0.01674 ; infill
G1 X143.525 Y133.605 E2.49617 ; infill
G1 X144.059 Y133.605 E0.01674 ; infill
G1 X87.799 Y77.345 E2.49617 ; infill
G1 X88.332 Y77.345 E0.01674 ; infill
G1 X144.593 Y133.605 E2.49617 ; infill
G1 X145.126 Y133.605 E0.01674 ; infill
G1 X88.866 Y77.345 E2.49617 ; infill
G1 X89.400 Y77.345 E0.01674 ; infill
G1 X145.660 Y133.605 E2.49617 ; infill
G1 X146.193 Y133.605 E0.01674 ; infill
G1 X89.933 Y77.345 E2.49617 ; infill
G1 X90.467 Y77.345 E0.01674 ; infill
G1 X146.727 Y133.605 E2.49617 ; infill
G1 X147.261 Y133.605 E0.01674 ; infill
G1 X91.000 Y77.345 E2.49617 ; infill
G1 X91.534 Y77.345 E0.01674 ; infill
G1 X147.794 Y133.605 E2.49617 ; infill
G1 X148.328 Y133.605 E0.01674 ; infill
G1 X92.068 Y77.345 E2.49617 ; infill
G1 X92.601 Y77.345 E0.01674 ; infill
G1 X148.861 Y133.605 E2.49617 ; infill
G1 X149.395 Y133.605 E0.01674 ; infill
G1 X93.135 Y77.345 E2.49617 ; infill
G1 X93.668 Y77.345 E0.01674 ; infill
G1 X149.929 Y133.605 E2.49617 ; infill
G1 X150.462 Y133.605 E0.01674 ; infill
G1 X94.202 Y77.345 E2.49617 ; infill
G1 X94.735 Y77.345 E0.01674 ; infill
G1 X150.996 Y133.605 E2.49617 ; infill
G1 X151.529 Y133.605 E0.01674 ; infill
G1 X95.269 Y77.345 E2.49617 ; infill
G1 X95.803 Y77.345 E0.01674 ; infill
G1 X152.063 Y133.605 E2.49617 ; infill
G1 X152.596 Y133.605 E0.01674 ; infill
G1 X96.336 Y77.345 E2.49617 ; infill
G1 X96.870 Y77.345 E0.01674 ; infill
G1 X153.130 Y133.605 E2.49617 ; infill
G1 X153.664 Y133.605 E0.01674 ; infill
G1 X97.403 Y77.345 E2.49617 ; infill
G1 X97.937 Y77.345 E0.01674 ; infill
G1 X154.197 Y133.605 E2.49617 ; infill
G1 X154.731 Y133.605 E0.01674 ; infill
G1 X98.471 Y77.345 E2.49617 ; infill
G1 X99.004 Y77.345 E0.01674 ; infill
G1 X155.264 Y133.605 E2.49617 ; infill
G1 X155.798 Y133.605 E0.01674 ; infill
G1 X99.538 Y77.345 E2.49617 ; infill
G1 X100.071 Y77.345 E0.01674 ; infill
G1 X156.332 Y133.605 E2.49617 ; infill
G1 X156.865 Y133.605 E0.01674 ; infill
G1 X100.605 Y77.345 E2.49617 ; infill
G1 X101.139 Y77.345 E0.01674 ; infill
G1 X157.399 Y133.605 E2.49617 ; infill
G1 X157.932 Y133.605 E0.01674 ; infill
G1 X101.672 Y77.345 E2.49617 ; infill
G1 X102.206 Y77.345 E0.01674 ; infill
G1 X158.466 Y133.605 E2.49617 ; infill
G1 X159.000 Y133.605 E0.01674 ; infill
G1 X102.739 Y77.345 E2.49617 ; infill
G1 X103.273 Y77.345 E0.01674 ; infill
G1 X159.533 Y133.605 E2.49617 ; infill
G1 X160.067 Y133.605 E0.01674 ; infill
G1 X103.806 Y77.345 E2.49617 ; infill
G1 X104.340 Y77.345 E0.01674 ; infill
G1 X160.600 Y133.605 E2.49617 ; infill
G1 X161.134 Y133.605 E0.01674 ; infill
G1 X104.874 Y77.345 E2.49617 ; infill
G1 X105.407 Y77.345 E0.01674 ; infill
G1 X161.668 Y133.605 E2.49617 ; infill
G1 X162.201 Y133.605 E0.01674 ; infill
G1 X105.941 Y77.345 E2.49617 ; infill
G1 X106.474 Y77.345 E0.01674 ; infill
G1 X162.735 Y133.605 E2.49617 ; infill
G1 X163.268 Y133.605 E0.01674 ; infill
G1 X107.008 Y77.345 E2.49617 ; infill
G1 X107.542 Y77.345 E0.01674 ; infill
G1 X163.802 Y133.605 E2.49617 ; infill
G1 X164.335 Y133.605 E0.01674 ; infill
G1 X108.075 Y77.345 E2.49617 ; infill
G1 X108.609 Y77.345 E0.01674 ; infill
G1 X164.869 Y133.605 E2.49617 ; infill
G1 X165.403 Y133.605 E0.01674 ; infill
G1 X109.142 Y77.345 E2.49617 ; infill
G1 X109.676 Y77.345 E0.01674 ; infill
