; generated by Slic3r 1.37.1-prusa3d-linux64 on 2017-10-17 at 16:28:47

; 

; external perimeters extrusion width = 0.56mm
; perimeters extrusion width = 0.56mm
; infill extrusion width = 0.56mm
; solid infill extrusion width = 0.56mm
; top infill extrusion width = 0.50mm
; first layer extrusion width = 0.60mm

M107
M104 S200 ; set temperature
G28 ; home all axes
G1 Z5 F5000 ; lift nozzle

; Filament gcode

M109 S200 ; set temperature and wait for it to be reached
G21 ; set units to millimeters
G90 ; use absolute coordinates
M82 ; use absolute distances for extrusion
G92 E0
G1 Z0.350 F7800.000
G1 E-2.00000 F2400.00000
G92 E0
G1 X49.956 Y66.179 F7800.000
G1 E2.00000 F2400.00000
G1 F1800
G1 X51.060 Y65.149 E2.04673
G1 X51.933 Y64.603 E2.07857
G1 X52.879 Y64.199 E2.11041
G1 X53.877 Y63.946 E2.14225
G1 X54.908 Y63.851 E2.17429
G1 X145.006 Y63.850 E4.96206
G1 X146.251 Y63.969 E5.00076
G1 X147.458 Y64.323 E5.03966
G1 X148.570 Y64.895 E5.07836
G1 X149.556 Y65.665 E5.11706
G1 X150.379 Y66.607 E5.15577
G1 X151.010 Y67.687 E5.19447
G1 X151.428 Y68.873 E5.23337
G1 X151.615 Y70.109 E5.27207
G1 X151.620 Y130.742 E7.14812
G1 X151.395 Y132.203 E7.19387
G1 X150.853 Y133.579 E7.23961
G1 X150.019 Y134.800 E7.28536
G1 X148.940 Y135.801 E7.33091
G1 X148.067 Y136.347 E7.36276
G1 X147.121 Y136.751 E7.39460
G1 X146.123 Y137.004 E7.42644
G1 X145.092 Y137.099 E7.45848
G1 X54.911 Y137.099 E10.24880
G1 X53.401 Y136.904 E10.29592
G1 X51.981 Y136.372 E10.34284
G1 X50.714 Y135.527 E10.38996
G1 X49.674 Y134.415 E10.43707
G1 X49.131 Y133.548 E10.46872
G1 X48.730 Y132.614 E10.50017
G1 X48.477 Y131.630 E10.53162
G1 X48.377 Y130.612 E10.56326
G1 X48.376 Y70.341 E12.42811
G1 X48.579 Y68.845 E12.47483
G1 X49.115 Y67.433 E12.52156
G1 X49.915 Y66.242 E12.56596
G1 E10.56596 F2400.00000
G92 E0
G1 X143.400 Y128.875 F7800.000
G1 E2.00000 F2400.00000
G1 F1800
G1 X56.600 Y128.875 E4.68572
G1 X56.600 Y72.075 E6.44320
G1 X143.400 Y72.075 E9.12892
G1 X143.400 Y128.800 E10.88408
G1 X144.025 Y129.500 F7800.000
G1 F1800
G1 X55.975 Y129.500 E13.60847
G1 X55.975 Y71.450 E15.40462
G1 X144.025 Y71.450 E18.12901
G1 X144.025 Y129.425 E19.92284
G1 X144.650 Y130.125 F7800.000
G1 F1800
G1 X55.350 Y130.125 E22.68590
G1 X55.350 Y70.825 E24.52072
G1 X144.650 Y70.825 E27.28378
G1 X144.650 Y130.050 E29.11628
G1 X144.160 Y130.028 F7800.000
G1 E27.11628 F2400.00000
G92 E0
G1 X143.213 Y73.532 F7800.000
G1 E2.00000 F2400.00000
G1 F1800
G1 X142.224 Y72.543 E2.04346
G1 X141.336 Y72.543 E2.07108
G1 X142.932 Y74.139 E2.14122
G1 X142.932 Y75.027 E2.16884
G1 X140.448 Y72.543 E2.27803
G1 X139.560 Y72.543 E2.30565
G1 X142.932 Y75.915 E2.45389
G1 X142.932 Y76.803 E2.48150
G1 X138.672 Y72.543 E2.66880
G1 X137.784 Y72.543 E2.69641
G1 X142.932 Y77.691 E2.92275
G1 X142.932 Y78.579 E2.95037
G1 X136.896 Y72.543 E3.21576
G1 X136.008 Y72.543 E3.24337
G1 X142.932 Y79.467 E3.54781
G1 X142.932 Y80.355 E3.57543
G1 X135.120 Y72.543 E3.91892
G1 X134.232 Y72.543 E3.94653
G1 X142.932 Y81.243 E4.32907
G1 X142.932 Y82.131 E4.35668
G1 X133.344 Y72.543 E4.77827
G1 X132.456 Y72.543 E4.80588
G1 X142.932 Y83.019 E5.26652
G1 X142.932 Y83.907 E5.29413
G1 X131.568 Y72.543 E5.79382
G1 X130.680 Y72.543 E5.82143
G1 X142.932 Y84.795 E6.36017
G1 X142.932 Y85.683 E6.38778
G1 X129.792 Y72.543 E6.96557
G1 X128.904 Y72.543 E6.99318
G1 X142.932 Y86.571 E7.61001
G1 X142.932 Y87.459 E7.63763
G1 X128.016 Y72.543 E8.29351
G1 X127.127 Y72.543 E8.32112
G1 X142.932 Y88.348 E9.01605
G1 X142.932 Y89.236 E9.04367
G1 X126.239 Y72.543 E9.77765
G1 X125.351 Y72.543 E9.80526
G1 X142.932 Y90.124 E10.57829
G1 X142.932 Y91.012 E10.60590
G1 X124.463 Y72.543 E11.41798
G1 X123.575 Y72.543 E11.44559
G1 X142.932 Y91.900 E12.29672
G1 X142.932 Y92.788 E12.32433
G1 X122.687 Y72.543 E13.21451
G1 X121.799 Y72.543 E13.24212
G1 X142.932 Y93.676 E14.17135
G1 X142.932 Y94.564 E14.19896
G1 X120.911 Y72.543 E15.16724
G1 X120.023 Y72.543 E15.19485
G1 X142.932 Y95.452 E16.20218
G1 X142.932 Y96.340 E16.22979
G1 X119.135 Y72.543 E17.27616
G1 X118.247 Y72.543 E17.30377
G1 X142.932 Y97.228 E18.38920
G1 X142.932 Y98.116 E18.41681
G1 X117.359 Y72.543 E19.54128
G1 X116.471 Y72.543 E19.56889
G1 X142.932 Y99.004 E20.73241
G1 X142.932 Y99.892 E20.76002
G1 X115.583 Y72.543 E21.96259
G1 X114.695 Y72.543 E21.99021
G1 X142.932 Y100.780 E23.23183
G1 X142.932 Y101.668 E23.25944
G1 X113.807 Y72.543 E24.54011
G1 X112.919 Y72.543 E24.56772
G1 X142.932 Y102.556 E25.88743
G1 X142.932 Y103.444 E25.91505
G1 X112.031 Y72.543 E27.27381
G1 X111.143 Y72.543 E27.30142
G1 X142.932 Y104.332 E28.69924
G1 X142.932 Y105.220 E28.72685
G1 X110.255 Y72.543 E30.16372
G1 X109.366 Y72.543 E30.19133
G1 X142.932 Y106.109 E31.66724
G1 X142.932 Y106.997 E31.69485
G1 X108.478 Y72.543 E33.20982
G1 X107.590 Y72.543 E33.23743
G1 X142.932 Y107.885 E34.79144
G1 X142.932 Y108.773 E34.81905
G1 X106.702 Y72.543 E36.41211
G1 X105.814 Y72.543 E36.43972
G1 X142.932 Y109.661 E38.07183
G1 X142.932 Y110.549 E38.09944
G1 X104.926 Y72.543 E39.77060
G1 X104.038 Y72.543 E39.79821
G1 X142.932 Y111.437 E41.50842
G1 X142.932 Y112.325 E41.53603
G1 X103.150 Y72.543 E43.28529
G1 X102.262 Y72.543 E43.31290
G1 X142.932 Y113.213 E45.10121
G1 X142.932 Y114.101 E45.12882
G1 X101.374 Y72.543 E46.95617
G1 X100.486 Y72.543 E46.98379
G1 X142.932 Y114.989 E48.85019
G1 X142.932 Y115.877 E48.87780
G1 X99.598 Y72.543 E50.78325
G1 X98.710 Y72.543 E50.81087
G1 X142.932 Y116.765 E52.75537
G1 X142.932 Y117.653 E52.78298
G1 X97.822 Y72.543 E54.76653
G1 X96.934 Y72.543 E54.79414
G1 X142.932 Y118.541 E56.81674
G1 X142.932 Y119.429 E56.84435
G1 X96.046 Y72.543 E58.90600
G1 X95.158 Y72.543 E58.93361
G1 X142.932 Y120.317 E61.03431
G1 X142.932 Y121.205 E61.06192
G1 X94.270 Y72.543 E63.20167
G1 X93.382 Y72.543 E63.22928
G1 X142.932 Y122.093 E65.40808
G1 X142.932 Y122.981 E65.43569
G1 X92.494 Y72.543 E67.65353
G1 X91.605 Y72.543 E67.68115
G1 X142.932 Y123.870 E69.93804
G1 X142.932 Y124.758 E69.96565
G1 X90.717 Y72.543 E72.26159
G1 X89.829 Y72.543 E72.28921
G1 X142.932 Y125.646 E74.62420
G1 X142.932 Y126.534 E74.65181
G1 X88.941 Y72.543 E77.02585
G1 X88.053 Y72.543 E77.05346
G1 X142.932 Y127.422 E79.46655
G1 X142.932 Y128.310 E79.49416
G1 X87.165 Y72.543 E81.94630
G1 X86.277 Y72.543 E81.97392
G1 X142.140 Y128.407 E84.43031
G1 X141.252 Y128.407 E84.45792
G1 X85.389 Y72.543 E86.91432
G1 X84.501 Y72.543 E86.94193
G1 X140.364 Y128.407 E89.39833
G1 X139.476 Y128.407 E89.42594
G1 X83.613 Y72.543 E91.88233
G1 X82.725 Y72.543 E91.90995
G1 X138.588 Y128.407 E94.36634
G1 X137.700 Y128.407 E94.39395
G1 X81.837 Y72.543 E96.85035
G1 X80.949 Y72.543 E96.87796
G1 X136.812 Y128.407 E99.33436
G1 X135.924 Y128.407 E99.36197
G1 X80.061 Y72.543 E101.81837
G1 X79.173 Y72.543 E101.84598
G1 X135.036 Y128.407 E104.30237
G1 X134.148 Y128.407 E104.32999
G1 X78.285 Y72.543 E106.78638
G1 X77.397 Y72.543 E106.81399
G1 X133.260 Y128.407 E109.27039
G1 X132.372 Y128.407 E109.29800
G1 X76.509 Y72.543 E111.75440
G1 X75.621 Y72.543 E111.78201
G1 X131.484 Y128.407 E114.23841
G1 X130.596 Y128.407 E114.26602
G1 X74.733 Y72.543 E116.72241
G1 X73.844 Y72.543 E116.75002
G1 X129.708 Y128.407 E119.20642
G1 X128.820 Y128.407 E119.23403
G1 X72.956 Y72.543 E121.69043
G1 X72.068 Y72.543 E121.71804
G1 X127.932 Y128.407 E124.17444
G1 X127.043 Y128.407 E124.20205
G1 X71.180 Y72.543 E126.65844
G1 X70.292 Y72.543 E126.68606
G1 X126.155 Y128.407 E129.14245
G1 X125.267 Y128.407 E129.17006
G1 X69.404 Y72.543 E131.62646
G1 X68.516 Y72.543 E131.65407
G1 X124.379 Y128.407 E134.11047
G1 X123.491 Y128.407 E134.13808
G1 X67.628 Y72.543 E136.59448
G1 X66.740 Y72.543 E136.62209
G1 X122.603 Y128.407 E139.07848
G1 X121.715 Y128.407 E139.10610
G1 X65.852 Y72.543 E141.56249
G1 X64.964 Y72.543 E141.59010
G1 X120.827 Y128.407 E144.04650
G1 X119.939 Y128.407 E144.07411
G1 X64.076 Y72.543 E146.53051
G1 X63.188 Y72.543 E146.55812
G1 X119.051 Y128.407 E149.01451
G1 X118.163 Y128.407 E149.04213
G1 X62.300 Y72.543 E151.49852
G1 X61.412 Y72.543 E151.52613
G1 X117.275 Y128.407 E153.98253
G1 X116.387 Y128.407 E154.01014
G1 X60.524 Y72.543 E156.46654
G1 X59.636 Y72.543 E156.49415
G1 X115.499 Y128.407 E158.95055
G1 X114.611 Y128.407 E158.97816
G1 X58.748 Y72.543 E161.43455
G1 X57.860 Y72.543 E161.46217
G1 X113.723 Y128.407 E163.91856
G1 X112.835 Y128.407 E163.94617
G1 X57.068 Y72.640 E166.39831
G1 X57.068 Y73.528 E166.42592
G1 X111.947 Y128.407 E168.83901
G1 X111.059 Y128.407 E168.86662
G1 X57.068 Y74.416 E171.24066
G1 X57.068 Y75.304 E171.26827
G1 X110.171 Y128.407 E173.60326
G1 X109.282 Y128.407 E173.63087
G1 X57.068 Y76.192 E175.92681
G1 X57.068 Y77.081 E175.95442
G1 X108.394 Y128.407 E178.21131
G1 X107.506 Y128.407 E178.23893
G1 X57.068 Y77.969 E180.45677
G1 X57.068 Y78.857 E180.48438
G1 X106.618 Y128.407 E182.66317
G1 X105.730 Y128.407 E182.69079
G1 X57.068 Y79.745 E184.83053
G1 X57.068 Y80.633 E184.85814
G1 X104.842 Y128.407 E186.95884
G1 X103.954 Y128.407 E186.98645
G1 X57.068 Y81.521 E189.04809
G1 X57.068 Y82.409 E189.07571
G1 X103.066 Y128.407 E191.09830
G1 X102.178 Y128.407 E191.12591
G1 X57.068 Y83.297 E193.10946
G1 X57.068 Y84.185 E193.13707
G1 X101.290 Y128.407 E195.08157
G1 X100.402 Y128.407 E195.10918
G1 X57.068 Y85.073 E197.01463
G1 X57.068 Y85.961 E197.04225
G1 X99.514 Y128.407 E198.90865
G1 X98.626 Y128.407 E198.93626
G1 X57.068 Y86.849 E200.76361
G1 X57.068 Y87.737 E200.79122
G1 X97.738 Y128.407 E202.57953
G1 X96.850 Y128.407 E202.60714
G1 X57.068 Y88.625 E204.35639
G1 X57.068 Y89.513 E204.38400
G1 X95.962 Y128.407 E206.09421
G1 X95.074 Y128.407 E206.12182
G1 X57.068 Y90.401 E207.79297
G1 X57.068 Y91.289 E207.82059
G1 X94.186 Y128.407 E209.45269
G1 X93.298 Y128.407 E209.48030
G1 X57.068 Y92.177 E211.07336
G1 X57.068 Y93.065 E211.10097
G1 X92.410 Y128.407 E212.65498
G1 X91.522 Y128.407 E212.68259
G1 X57.068 Y93.953 E214.19755
G1 X57.068 Y94.842 E214.22517
G1 X90.633 Y128.407 E215.70108
G1 X89.745 Y128.407 E215.72869
G1 X57.068 Y95.730 E217.16555
G1 X57.068 Y96.618 E217.19316
G1 X88.857 Y128.407 E218.59097
G1 X87.969 Y128.407 E218.61859
G1 X57.068 Y97.506 E219.97735
G1 X57.068 Y98.394 E220.00496
G1 X87.081 Y128.407 E221.32468
G1 X86.193 Y128.407 E221.35229
G1 X57.068 Y99.282 E222.63295
G1 X57.068 Y100.170 E222.66056
G1 X85.305 Y128.407 E223.90218
G1 X84.417 Y128.407 E223.92979
G1 X57.068 Y101.058 E225.13236
G1 X57.068 Y101.946 E225.15997
G1 X83.529 Y128.407 E226.32349
G1 X82.641 Y128.407 E226.35110
G1 X57.068 Y102.834 E227.47557
G1 X57.068 Y103.722 E227.50318
G1 X81.753 Y128.407 E228.58860
G1 X80.865 Y128.407 E228.61621
G1 X57.068 Y104.610 E229.66259
G1 X57.068 Y105.498 E229.69020
G1 X79.977 Y128.407 E230.69752
G1 X79.089 Y128.407 E230.72513
G1 X57.068 Y106.386 E231.69340
G1 X57.068 Y107.274 E231.72102
G1 X78.201 Y128.407 E232.65024
G1 X77.313 Y128.407 E232.67785
G1 X57.068 Y108.162 E233.56803
G1 X57.068 Y109.050 E233.59564
G1 X76.425 Y128.407 E234.44676
G1 X75.537 Y128.407 E234.47438
G1 X57.068 Y109.938 E235.28645
G1 X57.068 Y110.826 E235.31407
G1 X74.649 Y128.407 E236.08709
G1 X73.761 Y128.407 E236.11470
G1 X57.068 Y111.714 E236.84868
G1 X57.068 Y112.603 E236.87630
G1 X72.872 Y128.407 E237.57123
G1 X71.984 Y128.407 E237.59884
G1 X57.068 Y113.491 E238.25472
G1 X57.068 Y114.379 E238.28233
G1 X71.096 Y128.407 E238.89916
G1 X70.208 Y128.407 E238.92677
G1 X57.068 Y115.267 E239.50456
G1 X57.068 Y116.155 E239.53217
G1 X69.320 Y128.407 E240.07090
G1 X68.432 Y128.407 E240.09851
G1 X57.068 Y117.043 E240.59820
G1 X57.068 Y117.931 E240.62581
G1 X67.544 Y128.407 E241.08645
G1 X66.656 Y128.407 E241.11406
G1 X57.068 Y118.819 E241.53564
G1 X57.068 Y119.707 E241.56326
G1 X65.768 Y128.407 E241.94579
G1 X64.880 Y128.407 E241.97341
G1 X57.068 Y120.595 E242.31689
G1 X57.068 Y121.483 E242.34451
G1 X63.992 Y128.407 E242.64895
G1 X63.104 Y128.407 E242.67656
G1 X57.068 Y122.371 E242.94195
G1 X57.068 Y123.259 E242.96956
G1 X62.216 Y128.407 E243.19590
G1 X61.328 Y128.407 E243.22351
G1 X57.068 Y124.147 E243.41081
G1 X57.068 Y125.035 E243.43842
G1 X60.440 Y128.407 E243.58666
G1 X59.552 Y128.407 E243.61427
G1 X57.068 Y125.923 E243.72347
G1 X57.068 Y126.811 E243.75108
G1 X58.664 Y128.407 E243.82122
G1 X57.776 Y128.407 E243.84884
G1 X56.787 Y127.418 E243.89230
G1 Z0.650 F7800.000
G1 X143.723 Y129.198 F7800.000
G1 F3600
G1 X56.277 Y129.198 E245.74096
G1 X56.277 Y71.752 E246.95540
G1 X143.723 Y71.752 E248.80406
G1 X143.723 Y129.123 E250.01691
G1 X144.221 Y129.696 F7800.000
G1 F3600
G1 X55.779 Y129.696 E251.88663
G1 X55.779 Y71.254 E253.12213
G1 X144.221 Y71.254 E254.99185
G1 X144.221 Y129.621 E256.22577
G1 X144.719 Y130.194 F7800.000
G1 F1800
G1 X55.281 Y130.194 E258.11655
G1 X55.281 Y70.756 E259.37311
G1 X144.719 Y70.756 E261.26389
G1 X144.719 Y130.119 E262.51887
G1 X144.228 Y130.097 F7800.000
G1 X142.561 Y129.048 F7800.000
G1 F1200
G1 X143.349 Y128.260 E262.54253
G1 X143.349 Y127.552 E262.55757
G1 X142.077 Y128.824 E262.59576
G1 X141.370 Y128.824 E262.61080
G1 X143.349 Y126.845 E262.67026
G1 X143.349 Y126.137 E262.68529
G1 X140.662 Y128.824 E262.76601
G1 X139.954 Y128.824 E262.78104
G1 X143.349 Y125.429 E262.88303
G1 X143.349 Y124.721 E262.89806
G1 X139.246 Y128.824 E263.02131
G1 X138.538 Y128.824 E263.03634
G1 X143.349 Y124.013 E263.18085
G1 X143.349 Y123.306 E263.19588
G1 X137.831 Y128.824 E263.36165
G1 X137.123 Y128.824 E263.37669
G1 X143.349 Y122.598 E263.56372
G1 X143.349 Y121.890 E263.57875
G1 X136.415 Y128.824 E263.78705
G1 X135.707 Y128.824 E263.80208
G1 X143.349 Y121.182 E264.03164
G1 X143.349 Y120.474 E264.04668
G1 X134.999 Y128.824 E264.29750
G1 X134.292 Y128.824 E264.31253
G1 X143.349 Y119.767 E264.58461
G1 X143.349 Y119.059 E264.59965
G1 X133.584 Y128.824 E264.89299
G1 X132.876 Y128.824 E264.90803
G1 X143.349 Y118.351 E265.22263
G1 X143.349 Y117.643 E265.23767
G1 X132.168 Y128.824 E265.57354
G1 X131.460 Y128.824 E265.58857
G1 X143.349 Y116.935 E265.94570
G1 X143.349 Y116.228 E265.96074
G1 X130.753 Y128.824 E266.33913
G1 X130.045 Y128.824 E266.35417
G1 X143.349 Y115.520 E266.75382
G1 X143.349 Y114.812 E266.76886
G1 X129.337 Y128.824 E267.18978
G1 X128.629 Y128.824 E267.20481
G1 X143.349 Y114.104 E267.64699
G1 X143.349 Y113.396 E267.66203
G1 X127.921 Y128.824 E268.12547
G1 X127.214 Y128.824 E268.14051
G1 X143.349 Y112.689 E268.62521
G1 X143.349 Y111.981 E268.64025
G1 X126.506 Y128.824 E269.14622
G1 X125.798 Y128.824 E269.16125
G1 X143.349 Y111.273 E269.68848
G1 X143.349 Y110.565 E269.70352
G1 X125.090 Y128.824 E270.25201
G1 X124.382 Y128.824 E270.26704
G1 X143.349 Y109.857 E270.83680
G1 X143.349 Y109.150 E270.85184
G1 X123.675 Y128.824 E271.44285
G1 X122.967 Y128.824 E271.45789
G1 X143.349 Y108.442 E272.07017
G1 X143.349 Y107.734 E272.08520
G1 X122.259 Y128.824 E272.71875
G1 X121.551 Y128.824 E272.73378
G1 X143.349 Y107.026 E273.38859
G1 X143.349 Y106.318 E273.40362
G1 X120.843 Y128.824 E274.07969
G1 X120.136 Y128.824 E274.09473
G1 X143.349 Y105.611 E274.79206
G1 X143.349 Y104.903 E274.80709
G1 X119.428 Y128.824 E275.52568
G1 X118.720 Y128.824 E275.54072
G1 X143.349 Y104.195 E276.28057
G1 X143.349 Y103.487 E276.29561
G1 X118.012 Y128.824 E277.05673
G1 X117.304 Y128.824 E277.07176
G1 X143.349 Y102.779 E277.85414
G1 X143.349 Y102.072 E277.86918
G1 X116.597 Y128.824 E278.67282
G1 X115.889 Y128.824 E278.68785
G1 X143.349 Y101.364 E279.51276
G1 X143.349 Y100.656 E279.52779
G1 X115.181 Y128.824 E280.37396
G1 X114.473 Y128.824 E280.38900
G1 X143.349 Y99.948 E281.25643
G1 X143.349 Y99.240 E281.27146
G1 X113.765 Y128.824 E282.16015
G1 X113.058 Y128.824 E282.17519
G1 X143.349 Y98.533 E283.08514
G1 X143.349 Y97.825 E283.10018
G1 X112.350 Y128.824 E284.03140
G1 X111.642 Y128.824 E284.04643
G1 X143.349 Y97.117 E284.99891
G1 X143.349 Y96.409 E285.01395
G1 X110.934 Y128.824 E285.98769
G1 X110.226 Y128.824 E286.00272
G1 X143.349 Y95.701 E286.99773
G1 X143.349 Y94.994 E287.01276
G1 X109.519 Y128.824 E288.02903
G1 X108.811 Y128.824 E288.04406
G1 X143.349 Y94.286 E289.08159
G1 X143.349 Y93.578 E289.09663
G1 X108.103 Y128.824 E290.15542
G1 X107.395 Y128.824 E290.17046
G1 X143.349 Y92.870 E291.25051
G1 X143.349 Y92.162 E291.26554
G1 X106.687 Y128.824 E292.36686
G1 X105.980 Y128.824 E292.38190
G1 X143.349 Y91.455 E293.50448
