; generated by Slic3r 1.37.1-prusa3d-linux64 on 2017-10-19 at 22:33:44

; 

; external perimeters extrusion width = 0.45mm
; perimeters extrusion width = 0.45mm
; infill extrusion width = 0.45mm
; solid infill extrusion width = 0.45mm
; top infill extrusion width = 0.45mm
; first layer extrusion width = 0.42mm

M107 ; disable fan
M115 U3.0.12 ; tell printer latest fw version
M83  ; extruder relative mode
M104 S255 ; set extruder temp
M140 S100 ; set bed temp
M190 S100 ; wait for bed temp
M109 S255 ; wait for extruder temp
G28 W ; home all without mesh bed level
G80 ; mesh bed leveling
G1 Y-3.0 F1000.0 ; go outside pritn area
G1 X60.0 E9.0  F1000.0 ; intro line
G1 X100.0 E12.5  F1000.0 ; intro line
; Filament gcode

G21 ; set units to millimeters
G90 ; use absolute coordinates
M83 ; use relative distances for extrusion
;BEFORE_LAYER_CHANGE
;0.2


G1 E-0.80000 F2100.00000 ; retract
G1 Z0.600 F7200.000 ; lift Z
;AFTER_LAYER_CHANGE
;0.2
G1 X79.283 Y73.209 F7200.000 ; move to first skirt point
G1 Z0.200 F7200.000 ; restore layer Z
G1 E0.80000 F2100.00000 ; unretract
M204 S1000 ; adjust acceleration
G1 F2100
G1 X79.987 Y73.098 E0.02237 ; skirt
G1 X170.004 Y73.098 E2.82240 ; skirt
G1 X170.899 Y73.274 E0.02860 ; skirt
G1 X171.664 Y73.778 E0.02872 ; skirt
G1 X172.181 Y74.530 E0.02860 ; skirt
G1 X172.377 Y75.424 E0.02872 ; skirt
G1 X172.377 Y135.513 E1.88404 ; skirt
G1 X172.301 Y136.070 E0.01763 ; skirt
G1 X172.097 Y136.594 E0.01763 ; skirt
G1 X171.775 Y137.056 E0.01763 ; skirt
G1 X171.354 Y137.429 E0.01763 ; skirt
G1 X170.717 Y137.741 E0.02225 ; skirt
G1 X170.013 Y137.852 E0.02237 ; skirt
G1 X79.985 Y137.852 E2.82276 ; skirt
G1 X79.423 Y137.781 E0.01775 ; skirt
G1 X78.891 Y137.577 E0.01787 ; skirt
G1 X78.425 Y137.255 E0.01775 ; skirt
G1 X78.046 Y136.829 E0.01787 ; skirt
G1 X77.734 Y136.192 E0.02225 ; skirt
G1 X77.623 Y135.491 E0.02225 ; skirt
G1 X77.623 Y75.452 E1.88249 ; skirt
G1 X77.696 Y74.891 E0.01775 ; skirt
G1 X77.899 Y74.362 E0.01775 ; skirt
G1 X78.222 Y73.897 E0.01775 ; skirt
G1 X78.646 Y73.521 E0.01775 ; skirt
G1 X79.229 Y73.235 E0.02037 ; skirt
G1 E-0.48000 F2100.00000 ; retract
G1 F5760
G1 X79.987 Y73.098 E-0.26701 ; wipe and retract
G1 F5760
G1 X80.094 Y73.098 E-0.03699 ; wipe and retract
G1 E-0.01600 F2100.00000 ; retract
G1 Z0.800 F7200.000 ; lift Z
G1 X80.587 Y76.062 F7200.000 ; move to first perimeter point
G1 Z0.200 F7200.000 ; restore layer Z
G1 E0.80000 F2100.00000 ; unretract
G1 F1680
G1 X169.413 Y76.062 E2.78507 ; perimeter
G1 X169.413 Y134.888 E1.84444 ; perimeter
G1 X80.587 Y134.888 E2.78507 ; perimeter
G1 X80.587 Y76.122 E1.84256 ; perimeter
G1 X80.210 Y75.685 F7200.000 ; move to first perimeter point
G1 F1260
G1 X169.790 Y75.685 E2.80872 ; perimeter
G1 X169.790 Y135.265 E1.86809 ; perimeter
G1 X80.210 Y135.265 E2.80872 ; perimeter
G1 X80.210 Y75.745 E1.86621 ; perimeter
G1 X80.602 Y75.763 F7200.000 ; move inwards before travel
G1 E-0.48000 F2100.00000 ; retract
G1 F5760
G1 X81.088 Y75.744 E-0.30400 ; wipe and retract
G1 E-0.01600 F2100.00000 ; retract
G1 Z0.800 F7200.000 ; lift Z
G1 X81.463 Y134.775 F7200.000 ; move to first infill point
G1 Z0.200 F7200.000 ; restore layer Z
G1 E0.80000 F2100.00000 ; unretract
G1 F1680
G1 X80.870 Y134.181 E0.02633 ; infill
G1 X80.870 Y133.648 E0.01674 ; infill
G1 X81.827 Y134.605 E0.04247 ; infill
G1 X82.361 Y134.605 E0.01674 ; infill
G1 X80.870 Y133.114 E0.06615 ; infill
G1 X80.870 Y132.581 E0.01674 ; infill
G1 X82.894 Y134.605 E0.08982 ; infill
G1 X83.428 Y134.605 E0.01674 ; infill
G1 X80.870 Y132.047 E0.11350 ; infill
G1 X80.870 Y131.513 E0.01674 ; infill
G1 X83.962 Y134.605 E0.13717 ; infill
G1 X84.495 Y134.605 E0.01674 ; infill
G1 X80.870 Y130.980 E0.16085 ; infill
G1 X80.870 Y130.446 E0.01674 ; infill
G1 X85.029 Y134.605 E0.18453 ; infill
G1 X85.562 Y134.605 E0.01674 ; infill
G1 X80.870 Y129.913 E0.20820 ; infill
G1 X80.870 Y129.379 E0.01674 ; infill
G1 X86.096 Y134.605 E0.23188 ; infill
G1 X86.630 Y134.605 E0.01674 ; infill
G1 X80.870 Y128.845 E0.25555 ; infill
G1 X80.870 Y128.312 E0.01674 ; infill
G1 X87.163 Y134.605 E0.27923 ; infill
G1 X87.697 Y134.605 E0.01674 ; infill
G1 X80.870 Y127.778 E0.30290 ; infill
G1 X80.870 Y127.245 E0.01674 ; infill
G1 X88.230 Y134.605 E0.32658 ; infill
G1 X88.764 Y134.605 E0.01674 ; infill
G1 X80.870 Y126.711 E0.35025 ; infill
G1 X80.870 Y126.177 E0.01674 ; infill
G1 X89.298 Y134.605 E0.37393 ; infill
G1 X89.831 Y134.605 E0.01674 ; infill
G1 X80.870 Y125.644 E0.39761 ; infill
G1 X80.870 Y125.110 E0.01674 ; infill
G1 X90.365 Y134.605 E0.42128 ; infill
G1 X90.898 Y134.605 E0.01674 ; infill
G1 X80.870 Y124.577 E0.44496 ; infill
G1 X80.870 Y124.043 E0.01674 ; infill
G1 X91.432 Y134.605 E0.46863 ; infill
G1 X91.966 Y134.605 E0.01674 ; infill
G1 X80.870 Y123.509 E0.49231 ; infill
G1 X80.870 Y122.976 E0.01674 ; infill
G1 X92.499 Y134.605 E0.51598 ; infill
G1 X93.033 Y134.605 E0.01674 ; infill
G1 X80.870 Y122.442 E0.53966 ; infill
G1 X80.870 Y121.909 E0.01674 ; infill
G1 X93.566 Y134.605 E0.56333 ; infill
G1 X94.100 Y134.605 E0.01674 ; infill
G1 X80.870 Y121.375 E0.58701 ; infill
G1 X80.870 Y120.841 E0.01674 ; infill
G1 X94.634 Y134.605 E0.61068 ; infill
G1 X95.167 Y134.605 E0.01674 ; infill
G1 X80.870 Y120.308 E0.63436 ; infill
G1 X80.870 Y119.774 E0.01674 ; infill
G1 X95.701 Y134.605 E0.65804 ; infill
G1 X96.234 Y134.605 E0.01674 ; infill
G1 X80.870 Y119.241 E0.68171 ; infill
G1 X80.870 Y118.707 E0.01674 ; infill
G1 X96.768 Y134.605 E0.70539 ; infill
G1 X97.302 Y134.605 E0.01674 ; infill
G1 X80.870 Y118.173 E0.72906 ; infill
G1 X80.870 Y117.640 E0.01674 ; infill
G1 X97.835 Y134.605 E0.75274 ; infill
G1 X98.369 Y134.605 E0.01674 ; infill
G1 X80.870 Y117.106 E0.77641 ; infill
G1 X80.870 Y116.573 E0.01674 ; infill
G1 X98.902 Y134.605 E0.80009 ; infill
G1 X99.436 Y134.605 E0.01674 ; infill
G1 X80.870 Y116.039 E0.82376 ; infill
G1 X80.870 Y115.505 E0.01674 ; infill
G1 X99.970 Y134.605 E0.84744 ; infill
G1 X100.503 Y134.605 E0.01674 ; infill
G1 X80.870 Y114.972 E0.87112 ; infill
G1 X80.870 Y114.438 E0.01674 ; infill
G1 X101.037 Y134.605 E0.89479 ; infill
G1 X101.570 Y134.605 E0.01674 ; infill
G1 X80.870 Y113.905 E0.91847 ; infill
G1 X80.870 Y113.371 E0.01674 ; infill
G1 X102.104 Y134.605 E0.94214 ; infill
G1 X102.638 Y134.605 E0.01674 ; infill
G1 X80.870 Y112.837 E0.96582 ; infill
G1 X80.870 Y112.304 E0.01674 ; infill
G1 X103.171 Y134.605 E0.98949 ; infill
G1 X103.705 Y134.605 E0.01674 ; infill
G1 X80.870 Y111.770 E1.01317 ; infill
G1 X80.870 Y111.237 E0.01674 ; infill
G1 X104.238 Y134.605 E1.03684 ; infill
G1 X104.772 Y134.605 E0.01674 ; infill
G1 X80.870 Y110.703 E1.06052 ; infill
G1 X80.870 Y110.169 E0.01674 ; infill
G1 X105.306 Y134.605 E1.08420 ; infill
G1 X105.839 Y134.605 E0.01674 ; infill
G1 X80.870 Y109.636 E1.10787 ; infill
G1 X80.870 Y109.102 E0.01674 ; infill
G1 X106.373 Y134.605 E1.13155 ; infill
G1 X106.906 Y134.605 E0.01674 ; infill
G1 X80.870 Y108.569 E1.15522 ; infill
G1 X80.870 Y108.035 E0.01674 ; infill
G1 X107.440 Y134.605 E1.17890 ; infill
G1 X107.974 Y134.605 E0.01674 ; infill
G1 X80.870 Y107.501 E1.20257 ; infill
G1 X80.870 Y106.968 E0.01674 ; infill
G1 X108.507 Y134.605 E1.22625 ; infill
G1 X109.041 Y134.605 E0.01674 ; infill
G1 X80.870 Y106.434 E1.24992 ; infill
G1 X80.870 Y105.901 E0.01674 ; infill
G1 X109.574 Y134.605 E1.27360 ; infill
G1 X110.108 Y134.605 E0.01674 ; infill
G1 X80.870 Y105.367 E1.29728 ; infill
G1 X80.870 Y104.833 E0.01674 ; infill
G1 X110.642 Y134.605 E1.32095 ; infill
G1 X111.175 Y134.605 E0.01674 ; infill
G1 X80.870 Y104.300 E1.34463 ; infill
G1 X80.870 Y103.766 E0.01674 ; infill
G1 X111.709 Y134.605 E1.36830 ; infill
G1 X112.242 Y134.605 E0.01674 ; infill
G1 X80.870 Y103.233 E1.39198 ; infill
G1 X80.870 Y102.699 E0.01674 ; infill
G1 X112.776 Y134.605 E1.41565 ; infill
G1 X113.310 Y134.605 E0.01674 ; infill
G1 X80.870 Y102.165 E1.43933 ; infill
G1 X80.870 Y101.632 E0.01674 ; infill
G1 X113.843 Y134.605 E1.46300 ; infill
G1 X114.377 Y134.605 E0.01674 ; infill
G1 X80.870 Y101.098 E1.48668 ; infill
G1 X80.870 Y100.565 E0.01674 ; infill
G1 X114.910 Y134.605 E1.51036 ; infill
G1 X115.444 Y134.605 E0.01674 ; infill
G1 X80.870 Y100.031 E1.53403 ; infill
G1 X80.870 Y99.497 E0.01674 ; infill
G1 X115.978 Y134.605 E1.55771 ; infill
G1 X116.511 Y134.605 E0.01674 ; infill
G1 X80.870 Y98.964 E1.58138 ; infill
G1 X80.870 Y98.430 E0.01674 ; infill
G1 X117.045 Y134.605 E1.60506 ; infill
G1 X117.578 Y134.605 E0.01674 ; infill
G1 X80.870 Y97.897 E1.62873 ; infill
G1 X80.870 Y97.363 E0.01674 ; infill
G1 X118.112 Y134.605 E1.65241 ; infill
G1 X118.646 Y134.605 E0.01674 ; infill
G1 X80.870 Y96.829 E1.67608 ; infill
G1 X80.870 Y96.296 E0.01674 ; infill
G1 X119.179 Y134.605 E1.69976 ; infill
G1 X119.713 Y134.605 E0.01674 ; infill
G1 X80.870 Y95.762 E1.72344 ; infill
G1 X80.870 Y95.229 E0.01674 ; infill
G1 X120.246 Y134.605 E1.74711 ; infill
G1 X120.780 Y134.605 E0.01674 ; infill
G1 X80.870 Y94.695 E1.77079 ; infill
G1 X80.870 Y94.161 E0.01674 ; infill
G1 X121.314 Y134.605 E1.79446 ; infill
G1 X121.847 Y134.605 E0.01674 ; infill
G1 X80.870 Y93.628 E1.81814 ; infill
G1 X80.870 Y93.094 E0.01674 ; infill
G1 X122.381 Y134.605 E1.84181 ; infill
G1 X122.915 Y134.605 E0.01674 ; infill
G1 X80.870 Y92.560 E1.86549 ; infill
G1 X80.870 Y92.027 E0.01674 ; infill
G1 X123.448 Y134.605 E1.88916 ; infill
G1 X123.982 Y134.605 E0.01674 ; infill
G1 X80.870 Y91.493 E1.91284 ; infill
G1 X80.870 Y90.960 E0.01674 ; infill
G1 X124.515 Y134.605 E1.93652 ; infill
G1 X125.049 Y134.605 E0.01674 ; infill
G1 X80.870 Y90.426 E1.96019 ; infill
G1 X80.870 Y89.892 E0.01674 ; infill
G1 X125.583 Y134.605 E1.98387 ; infill
G1 X126.116 Y134.605 E0.01674 ; infill
G1 X80.870 Y89.359 E2.00754 ; infill
G1 X80.870 Y88.825 E0.01674 ; infill
G1 X126.650 Y134.605 E2.03122 ; infill
G1 X127.183 Y134.605 E0.01674 ; infill
G1 X80.870 Y88.292 E2.05489 ; infill
G1 X80.870 Y87.758 E0.01674 ; infill
G1 X127.717 Y134.605 E2.07857 ; infill
G1 X128.251 Y134.605 E0.01674 ; infill
G1 X80.870 Y87.224 E2.10224 ; infill
G1 X80.870 Y86.691 E0.01674 ; infill
G1 X128.784 Y134.605 E2.12592 ; infill
G1 X129.318 Y134.605 E0.01674 ; infill
G1 X80.870 Y86.157 E2.14959 ; infill
G1 X80.870 Y85.624 E0.01674 ; infill
G1 X129.851 Y134.605 E2.17327 ; infill
G1 X130.385 Y134.605 E0.01674 ; infill
G1 X80.870 Y85.090 E2.19695 ; infill
G1 X80.870 Y84.556 E0.01674 ; infill
G1 X130.919 Y134.605 E2.22062 ; infill
G1 X131.452 Y134.605 E0.01674 ; infill
G1 X80.870 Y84.023 E2.24430 ; infill
G1 X80.870 Y83.489 E0.01674 ; infill
G1 X131.986 Y134.605 E2.26797 ; infill
G1 X132.519 Y134.605 E0.01674 ; infill
G1 X80.870 Y82.956 E2.29165 ; infill
G1 X80.870 Y82.422 E0.01674 ; infill
G1 X133.053 Y134.605 E2.31532 ; infill
G1 X133.587 Y134.605 E0.01674 ; infill
G1 X80.870 Y81.888 E2.33900 ; infill
G1 X80.870 Y81.355 E0.01674 ; infill
G1 X134.120 Y134.605 E2.36267 ; infill
G1 X134.654 Y134.605 E0.01674 ; infill
G1 X80.870 Y80.821 E2.38635 ; infill
G1 X80.870 Y80.288 E0.01674 ; infill
G1 X135.187 Y134.605 E2.41003 ; infill
G1 X135.721 Y134.605 E0.01674 ; infill
G1 X80.870 Y79.754 E2.43370 ; infill
G1 X80.870 Y79.220 E0.01674 ; infill
G1 X136.255 Y134.605 E2.45738 ; infill
G1 X136.788 Y134.605 E0.01674 ; infill
G1 X80.870 Y78.687 E2.48105 ; infill
G1 X80.870 Y78.153 E0.01674 ; infill
G1 X137.322 Y134.605 E2.50473 ; infill
G1 X137.855 Y134.605 E0.01674 ; infill
G1 X80.870 Y77.620 E2.52840 ; infill
G1 X80.870 Y77.086 E0.01674 ; infill
G1 X138.389 Y134.605 E2.55208 ; infill
G1 X138.923 Y134.605 E0.01674 ; infill
G1 X80.870 Y76.552 E2.57575 ; infill
G1 X80.870 Y76.345 E0.00651 ; infill
G1 X81.196 Y76.345 E0.01023 ; infill
G1 X139.456 Y134.605 E2.58496 ; infill
G1 X139.990 Y134.605 E0.01674 ; infill
G1 X81.730 Y76.345 E2.58496 ; infill
G1 X82.263 Y76.345 E0.01674 ; infill
G1 X140.523 Y134.605 E2.58496 ; infill
G1 X141.057 Y134.605 E0.01674 ; infill
G1 X82.797 Y76.345 E2.58496 ; infill
G1 X83.330 Y76.345 E0.01674 ; infill
G1 X141.591 Y134.605 E2.58496 ; infill
G1 X142.124 Y134.605 E0.01674 ; infill
G1 X83.864 Y76.345 E2.58496 ; infill
G1 X84.398 Y76.345 E0.01674 ; infill
G1 X142.658 Y134.605 E2.58496 ; infill
G1 X143.191 Y134.605 E0.01674 ; infill
G1 X84.931 Y76.345 E2.58496 ; infill
G1 X85.465 Y76.345 E0.01674 ; infill
G1 X143.725 Y134.605 E2.58496 ; infill
G1 X144.259 Y134.605 E0.01674 ; infill
G1 X85.998 Y76.345 E2.58496 ; infill
G1 X86.532 Y76.345 E0.01674 ; infill
G1 X144.792 Y134.605 E2.58496 ; infill
G1 X145.326 Y134.605 E0.01674 ; infill
G1 X87.066 Y76.345 E2.58496 ; infill
G1 X87.599 Y76.345 E0.01674 ; infill
G1 X145.859 Y134.605 E2.58496 ; infill
G1 X146.393 Y134.605 E0.01674 ; infill
G1 X88.133 Y76.345 E2.58496 ; infill
G1 X88.666 Y76.345 E0.01674 ; infill
G1 X146.927 Y134.605 E2.58496 ; infill
G1 X147.460 Y134.605 E0.01674 ; infill
G1 X89.200 Y76.345 E2.58496 ; infill
G1 X89.734 Y76.345 E0.01674 ; infill
G1 X147.994 Y134.605 E2.58496 ; infill
G1 X148.527 Y134.605 E0.01674 ; infill
G1 X90.267 Y76.345 E2.58496 ; infill
G1 X90.801 Y76.345 E0.01674 ; infill
G1 X149.061 Y134.605 E2.58496 ; infill
G1 X149.595 Y134.605 E0.01674 ; infill
G1 X91.334 Y76.345 E2.58496 ; infill
G1 X91.868 Y76.345 E0.01674 ; infill
G1 X150.128 Y134.605 E2.58496 ; infill
G1 X150.662 Y134.605 E0.01674 ; infill
G1 X92.402 Y76.345 E2.58496 ; infill
G1 X92.935 Y76.345 E0.01674 ; infill
G1 X151.195 Y134.605 E2.58496 ; infill
G1 X151.729 Y134.605 E0.01674 ; infill
G1 X93.469 Y76.345 E2.58496 ; infill
G1 X94.002 Y76.345 E0.01674 ; infill
G1 X152.263 Y134.605 E2.58496 ; infill
G1 X152.796 Y134.605 E0.01674 ; infill
G1 X94.536 Y76.345 E2.58496 ; infill
G1 X95.070 Y76.345 E0.01674 ; infill
G1 X153.330 Y134.605 E2.58496 ; infill
G1 X153.863 Y134.605 E0.01674 ; infill
G1 X95.603 Y76.345 E2.58496 ; infill
G1 X96.137 Y76.345 E0.01674 ; infill
G1 X154.397 Y134.605 E2.58496 ; infill
G1 X154.931 Y134.605 E0.01674 ; infill
G1 X96.670 Y76.345 E2.58496 ; infill
G1 X97.204 Y76.345 E0.01674 ; infill
G1 X155.464 Y134.605 E2.58496 ; infill
G1 X155.998 Y134.605 E0.01674 ; infill
G1 X97.738 Y76.345 E2.58496 ; infill
G1 X98.271 Y76.345 E0.01674 ; infill
G1 X156.531 Y134.605 E2.58496 ; infill
G1 X157.065 Y134.605 E0.01674 ; infill
G1 X98.805 Y76.345 E2.58496 ; infill
G1 X99.338 Y76.345 E0.01674 ; infill
G1 X157.599 Y134.605 E2.58496 ; infill
G1 X158.132 Y134.605 E0.01674 ; infill
G1 X99.872 Y76.345 E2.58496 ; infill
G1 X100.406 Y76.345 E0.01674 ; infill
G1 X158.666 Y134.605 E2.58496 ; infill
G1 X159.199 Y134.605 E0.01674 ; infill
G1 X100.939 Y76.345 E2.58496 ; infill
G1 X101.473 Y76.345 E0.01674 ; infill
G1 X159.733 Y134.605 E2.58496 ; infill
G1 X160.267 Y134.605 E0.01674 ; infill
G1 X102.006 Y76.345 E2.58496 ; infill
G1 X102.540 Y76.345 E0.01674 ; infill
G1 X160.800 Y134.605 E2.58496 ; infill
G1 X161.334 Y134.605 E0.01674 ; infill
G1 X103.074 Y76.345 E2.58496 ; infill
G1 X103.607 Y76.345 E0.01674 ; infill
G1 X161.867 Y134.605 E2.58496 ; infill
G1 X162.401 Y134.605 E0.01674 ; infill
G1 X104.141 Y76.345 E2.58496 ; infill
G1 X104.674 Y76.345 E0.01674 ; infill
G1 X162.935 Y134.605 E2.58496 ; infill
G1 X163.468 Y134.605 E0.01674 ; infill
G1 X105.208 Y76.345 E2.58496 ; infill
G1 X105.742 Y76.345 E0.01674 ; infill
G1 X164.002 Y134.605 E2.58496 ; infill
G1 X164.536 Y134.605 E0.01674 ; infill
G1 X106.275 Y76.345 E2.58496 ; infill
G1 X106.809 Y76.345 E0.01674 ; infill
G1 X165.069 Y134.605 E2.58496 ; infill
G1 X165.603 Y134.605 E0.01674 ; infill
G1 X107.342 Y76.345 E2.58496 ; infill
G1 X107.876 Y76.345 E0.01674 ; infill
G1 X166.136 Y134.605 E2.58496 ; infill
G1 X166.670 Y134.605 E0.01674 ; infill
G1 X108.410 Y76.345 E2.58496 ; infill
G1 X108.943 Y76.345 E0.01674 ; infill
G1 X167.204 Y134.605 E2.58496 ; infill
G1 X167.737 Y134.605 E0.01674 ; infill
G1 X109.477 Y76.345 E2.58496 ; infill
G1 X110.010 Y76.345 E0.01674 ; infill
G1 X168.271 Y134.605 E2.58496 ; infill
G1 X168.804 Y134.605 E0.01674 ; infill
G1 X110.544 Y76.345 E2.58496 ; infill
G1 X111.078 Y76.345 E0.01674 ; infill
G1 X169.130 Y134.397 E2.57574 ; infill
G1 X169.130 Y133.864 E0.01674 ; infill
G1 X111.611 Y76.345 E2.55207 ; infill
G1 X112.145 Y76.345 E0.01674 ; infill
