; generated by Slic3r 1.37.1-prusa3d-linux64 on 2017-10-19 at 22:33:51

; 

; external perimeters extrusion width = 0.45mm
; perimeters extrusion width = 0.45mm
; infill extrusion width = 0.45mm
; solid infill extrusion width = 0.45mm
; top infill extrusion width = 0.45mm
; first layer extrusion width = 0.42mm

M107 ; disable fan
M115 U3.0.12 ; tell printer latest fw version
M83  ; extruder relative mode
M104 S255 ; set extruder temp
M140 S100 ; set bed temp
M190 S100 ; wait for bed temp
M109 S255 ; wait for extruder temp
G28 W ; home all without mesh bed level
G80 ; mesh bed leveling
G1 Y-3.0 F1000.0 ; go outside pritn area
G1 X60.0 E9.0  F1000.0 ; intro line
G1 X100.0 E12.5  F1000.0 ; intro line
; Filament gcode

G21 ; set units to millimeters
G90 ; use absolute coordinates
M83 ; use relative distances for extrusion
;BEFORE_LAYER_CHANGE
;0.2


G1 E-0.80000 F2100.00000 ; retract
G1 Z0.600 F7200.000 ; lift Z
;AFTER_LAYER_CHANGE
;0.2
G1 X74.072 Y83.287 F7200.000 ; move to first skirt point
G1 Z0.200 F7200.000 ; restore layer Z
G1 E0.80000 F2100.00000 ; unretract
M204 S1000 ; adjust acceleration
G1 F2100
G1 X74.995 Y83.098 E0.02954 ; skirt
G1 X175.004 Y83.098 E3.13570 ; skirt
G1 X175.899 Y83.274 E0.02860 ; skirt
G1 X176.664 Y83.778 E0.02872 ; skirt
G1 X177.181 Y84.530 E0.02860 ; skirt
G1 X177.377 Y85.424 E0.02872 ; skirt
G1 X177.376 Y125.555 E1.25827 ; skirt
G1 X177.258 Y126.217 E0.02107 ; skirt
G1 X176.961 Y126.819 E0.02107 ; skirt
G1 X176.506 Y127.314 E0.02107 ; skirt
G1 X175.928 Y127.663 E0.02119 ; skirt
G1 X175.005 Y127.852 E0.02954 ; skirt
G1 X74.970 Y127.852 E3.13654 ; skirt
G1 X74.291 Y127.744 E0.02154 ; skirt
G1 X73.675 Y127.449 E0.02142 ; skirt
G1 X73.166 Y126.987 E0.02154 ; skirt
G1 X72.812 Y126.403 E0.02142 ; skirt
G1 X72.623 Y125.488 E0.02931 ; skirt
G1 X72.624 Y85.406 E1.25671 ; skirt
G1 X72.739 Y84.741 E0.02119 ; skirt
G1 X73.037 Y84.134 E0.02119 ; skirt
G1 X73.494 Y83.636 E0.02119 ; skirt
G1 X74.021 Y83.318 E0.01931 ; skirt
G1 E-0.48000 F2100.00000 ; retract
G1 F5760
G1 X74.877 Y83.125 E-0.30400 ; wipe and retract
G1 E-0.01600 F2100.00000 ; retract
G1 Z0.800 F7200.000 ; lift Z
G1 X75.587 Y86.062 F7200.000 ; move to first perimeter point
G1 Z0.200 F7200.000 ; restore layer Z
G1 E0.80000 F2100.00000 ; unretract
G1 F1680
G1 X174.413 Y86.062 E3.09861 ; perimeter
G1 X174.413 Y124.888 E1.21736 ; perimeter
G1 X75.587 Y124.888 E3.09861 ; perimeter
G1 X75.587 Y86.122 E1.21548 ; perimeter
G1 X75.210 Y85.685 F7200.000 ; move to first perimeter point
G1 F1260
G1 X174.790 Y85.685 E3.12226 ; perimeter
G1 X174.790 Y125.265 E1.24100 ; perimeter
G1 X75.210 Y125.265 E3.12226 ; perimeter
G1 X75.210 Y85.745 E1.23912 ; perimeter
G1 X75.607 Y85.735 F7200.000 ; move inwards before travel
G1 E-0.48000 F2100.00000 ; retract
G1 F5760
G1 X76.088 Y85.744 E-0.30400 ; wipe and retract
G1 E-0.01600 F2100.00000 ; retract
G1 Z0.800 F7200.000 ; lift Z
G1 X75.700 Y124.011 F7200.000 ; move to first infill point
G1 Z0.200 F7200.000 ; restore layer Z
G1 E0.80000 F2100.00000 ; unretract
G1 F1680
G1 X76.294 Y124.605 E0.02639 ; infill
G1 X76.828 Y124.605 E0.01677 ; infill
G1 X75.870 Y123.647 E0.04257 ; infill
G1 X75.870 Y123.112 E0.01677 ; infill
G1 X77.363 Y124.605 E0.06630 ; infill
G1 X77.897 Y124.605 E0.01677 ; infill
G1 X75.870 Y122.578 E0.09002 ; infill
G1 X75.870 Y122.044 E0.01677 ; infill
G1 X78.431 Y124.605 E0.11374 ; infill
G1 X78.965 Y124.605 E0.01677 ; infill
G1 X75.870 Y121.510 E0.13747 ; infill
G1 X75.870 Y120.976 E0.01677 ; infill
G1 X79.499 Y124.605 E0.16119 ; infill
G1 X80.033 Y124.605 E0.01677 ; infill
G1 X75.870 Y120.442 E0.18491 ; infill
G1 X75.870 Y119.908 E0.01677 ; infill
G1 X80.567 Y124.605 E0.20864 ; infill
G1 X81.102 Y124.605 E0.01677 ; infill
G1 X75.870 Y119.373 E0.23236 ; infill
G1 X75.870 Y118.839 E0.01677 ; infill
G1 X81.636 Y124.605 E0.25608 ; infill
G1 X82.170 Y124.605 E0.01677 ; infill
G1 X75.870 Y118.305 E0.27981 ; infill
G1 X75.870 Y117.771 E0.01677 ; infill
G1 X82.704 Y124.605 E0.30353 ; infill
G1 X83.238 Y124.605 E0.01677 ; infill
G1 X75.870 Y117.237 E0.32725 ; infill
G1 X75.870 Y116.703 E0.01677 ; infill
G1 X83.772 Y124.605 E0.35098 ; infill
G1 X84.306 Y124.605 E0.01677 ; infill
G1 X75.870 Y116.169 E0.37470 ; infill
G1 X75.870 Y115.634 E0.01677 ; infill
G1 X84.841 Y124.605 E0.39842 ; infill
G1 X85.375 Y124.605 E0.01677 ; infill
G1 X75.870 Y115.100 E0.42215 ; infill
G1 X75.870 Y114.566 E0.01677 ; infill
G1 X85.909 Y124.605 E0.44587 ; infill
G1 X86.443 Y124.605 E0.01677 ; infill
G1 X75.870 Y114.032 E0.46959 ; infill
G1 X75.870 Y113.498 E0.01677 ; infill
G1 X86.977 Y124.605 E0.49332 ; infill
G1 X87.511 Y124.605 E0.01677 ; infill
G1 X75.870 Y112.964 E0.51704 ; infill
G1 X75.870 Y112.430 E0.01677 ; infill
G1 X88.045 Y124.605 E0.54076 ; infill
G1 X88.580 Y124.605 E0.01677 ; infill
G1 X75.870 Y111.895 E0.56449 ; infill
G1 X75.870 Y111.361 E0.01677 ; infill
G1 X89.114 Y124.605 E0.58821 ; infill
G1 X89.648 Y124.605 E0.01677 ; infill
G1 X75.870 Y110.827 E0.61193 ; infill
G1 X75.870 Y110.293 E0.01677 ; infill
G1 X90.182 Y124.605 E0.63566 ; infill
G1 X90.716 Y124.605 E0.01677 ; infill
G1 X75.870 Y109.759 E0.65938 ; infill
G1 X75.870 Y109.225 E0.01677 ; infill
G1 X91.250 Y124.605 E0.68310 ; infill
G1 X91.784 Y124.605 E0.01677 ; infill
G1 X75.870 Y108.691 E0.70683 ; infill
G1 X75.870 Y108.156 E0.01677 ; infill
G1 X92.319 Y124.605 E0.73055 ; infill
G1 X92.853 Y124.605 E0.01677 ; infill
G1 X75.870 Y107.622 E0.75427 ; infill
G1 X75.870 Y107.088 E0.01677 ; infill
G1 X93.387 Y124.605 E0.77800 ; infill
G1 X93.921 Y124.605 E0.01677 ; infill
G1 X75.870 Y106.554 E0.80172 ; infill
G1 X75.870 Y106.020 E0.01677 ; infill
G1 X94.455 Y124.605 E0.82544 ; infill
G1 X94.989 Y124.605 E0.01677 ; infill
G1 X75.870 Y105.486 E0.84917 ; infill
G1 X75.870 Y104.952 E0.01677 ; infill
G1 X95.523 Y124.605 E0.87289 ; infill
G1 X96.058 Y124.605 E0.01677 ; infill
G1 X75.870 Y104.417 E0.89662 ; infill
G1 X75.870 Y103.883 E0.01677 ; infill
G1 X96.592 Y124.605 E0.92034 ; infill
G1 X97.126 Y124.605 E0.01677 ; infill
G1 X75.870 Y103.349 E0.94406 ; infill
G1 X75.870 Y102.815 E0.01677 ; infill
G1 X97.660 Y124.605 E0.96779 ; infill
G1 X98.194 Y124.605 E0.01677 ; infill
G1 X75.870 Y102.281 E0.99151 ; infill
G1 X75.870 Y101.747 E0.01677 ; infill
G1 X98.728 Y124.605 E1.01523 ; infill
G1 X99.262 Y124.605 E0.01677 ; infill
G1 X75.870 Y101.213 E1.03896 ; infill
G1 X75.870 Y100.678 E0.01677 ; infill
G1 X99.797 Y124.605 E1.06268 ; infill
G1 X100.331 Y124.605 E0.01677 ; infill
G1 X75.870 Y100.144 E1.08640 ; infill
G1 X75.870 Y99.610 E0.01677 ; infill
G1 X100.865 Y124.605 E1.11013 ; infill
G1 X101.399 Y124.605 E0.01677 ; infill
G1 X75.870 Y99.076 E1.13385 ; infill
G1 X75.870 Y98.542 E0.01677 ; infill
G1 X101.933 Y124.605 E1.15757 ; infill
G1 X102.467 Y124.605 E0.01677 ; infill
G1 X75.870 Y98.008 E1.18130 ; infill
G1 X75.870 Y97.474 E0.01677 ; infill
G1 X103.001 Y124.605 E1.20502 ; infill
G1 X103.535 Y124.605 E0.01677 ; infill
G1 X75.870 Y96.940 E1.22874 ; infill
G1 X75.870 Y96.405 E0.01677 ; infill
G1 X104.070 Y124.605 E1.25247 ; infill
G1 X104.604 Y124.605 E0.01677 ; infill
G1 X75.870 Y95.871 E1.27619 ; infill
G1 X75.870 Y95.337 E0.01677 ; infill
G1 X105.138 Y124.605 E1.29991 ; infill
G1 X105.672 Y124.605 E0.01677 ; infill
G1 X75.870 Y94.803 E1.32364 ; infill
G1 X75.870 Y94.269 E0.01677 ; infill
G1 X106.206 Y124.605 E1.34736 ; infill
G1 X106.740 Y124.605 E0.01677 ; infill
G1 X75.870 Y93.735 E1.37108 ; infill
G1 X75.870 Y93.201 E0.01677 ; infill
G1 X107.274 Y124.605 E1.39481 ; infill
G1 X107.809 Y124.605 E0.01677 ; infill
G1 X75.870 Y92.666 E1.41853 ; infill
G1 X75.870 Y92.132 E0.01677 ; infill
G1 X108.343 Y124.605 E1.44225 ; infill
G1 X108.877 Y124.605 E0.01677 ; infill
G1 X75.870 Y91.598 E1.46598 ; infill
G1 X75.870 Y91.064 E0.01677 ; infill
G1 X109.411 Y124.605 E1.48970 ; infill
G1 X109.945 Y124.605 E0.01677 ; infill
G1 X75.870 Y90.530 E1.51342 ; infill
G1 X75.870 Y89.996 E0.01677 ; infill
G1 X110.479 Y124.605 E1.53715 ; infill
G1 X111.013 Y124.605 E0.01677 ; infill
G1 X75.870 Y89.462 E1.56087 ; infill
G1 X75.870 Y88.927 E0.01677 ; infill
G1 X111.548 Y124.605 E1.58459 ; infill
G1 X112.082 Y124.605 E0.01677 ; infill
G1 X75.870 Y88.393 E1.60832 ; infill
G1 X75.870 Y87.859 E0.01677 ; infill
G1 X112.616 Y124.605 E1.63204 ; infill
G1 X113.150 Y124.605 E0.01677 ; infill
G1 X75.870 Y87.325 E1.65576 ; infill
G1 X75.870 Y86.791 E0.01677 ; infill
G1 X113.684 Y124.605 E1.67949 ; infill
G1 X114.218 Y124.605 E0.01677 ; infill
G1 X75.958 Y86.345 E1.69929 ; infill
G1 X76.492 Y86.345 E0.01677 ; infill
G1 X114.752 Y124.605 E1.69929 ; infill
G1 X115.287 Y124.605 E0.01677 ; infill
G1 X77.026 Y86.345 E1.69929 ; infill
G1 X77.560 Y86.345 E0.01677 ; infill
G1 X115.821 Y124.605 E1.69929 ; infill
G1 X116.355 Y124.605 E0.01677 ; infill
G1 X78.095 Y86.345 E1.69929 ; infill
G1 X78.629 Y86.345 E0.01677 ; infill
G1 X116.889 Y124.605 E1.69929 ; infill
G1 X117.423 Y124.605 E0.01677 ; infill
G1 X79.163 Y86.345 E1.69929 ; infill
G1 X79.697 Y86.345 E0.01677 ; infill
G1 X117.957 Y124.605 E1.69929 ; infill
G1 X118.491 Y124.605 E0.01677 ; infill
G1 X80.231 Y86.345 E1.69929 ; infill
G1 X80.765 Y86.345 E0.01677 ; infill
G1 X119.026 Y124.605 E1.69929 ; infill
G1 X119.560 Y124.605 E0.01677 ; infill
G1 X81.299 Y86.345 E1.69929 ; infill
G1 X81.834 Y86.345 E0.01677 ; infill
G1 X120.094 Y124.605 E1.69929 ; infill
G1 X120.628 Y124.605 E0.01677 ; infill
G1 X82.368 Y86.345 E1.69929 ; infill
G1 X82.902 Y86.345 E0.01677 ; infill
G1 X121.162 Y124.605 E1.69929 ; infill
G1 X121.696 Y124.605 E0.01677 ; infill
G1 X83.436 Y86.345 E1.69929 ; infill
G1 X83.970 Y86.345 E0.01677 ; infill
G1 X122.230 Y124.605 E1.69929 ; infill
G1 X122.765 Y124.605 E0.01677 ; infill
G1 X84.504 Y86.345 E1.69929 ; infill
G1 X85.038 Y86.345 E0.01677 ; infill
G1 X123.299 Y124.605 E1.69929 ; infill
G1 X123.833 Y124.605 E0.01677 ; infill
G1 X85.573 Y86.345 E1.69929 ; infill
G1 X86.107 Y86.345 E0.01677 ; infill
G1 X124.367 Y124.605 E1.69929 ; infill
G1 X124.901 Y124.605 E0.01677 ; infill
G1 X86.641 Y86.345 E1.69929 ; infill
G1 X87.175 Y86.345 E0.01677 ; infill
G1 X125.435 Y124.605 E1.69929 ; infill
G1 X125.969 Y124.605 E0.01677 ; infill
G1 X87.709 Y86.345 E1.69929 ; infill
G1 X88.243 Y86.345 E0.01677 ; infill
G1 X126.504 Y124.605 E1.69929 ; infill
G1 X127.038 Y124.605 E0.01677 ; infill
G1 X88.777 Y86.345 E1.69929 ; infill
G1 X89.312 Y86.345 E0.01677 ; infill
G1 X127.572 Y124.605 E1.69929 ; infill
G1 X128.106 Y124.605 E0.01677 ; infill
G1 X89.846 Y86.345 E1.69929 ; infill
G1 X90.380 Y86.345 E0.01677 ; infill
G1 X128.640 Y124.605 E1.69929 ; infill
G1 X129.174 Y124.605 E0.01677 ; infill
G1 X90.914 Y86.345 E1.69929 ; infill
G1 X91.448 Y86.345 E0.01677 ; infill
G1 X129.708 Y124.605 E1.69929 ; infill
G1 X130.243 Y124.605 E0.01677 ; infill
G1 X91.982 Y86.345 E1.69929 ; infill
G1 X92.516 Y86.345 E0.01677 ; infill
G1 X130.777 Y124.605 E1.69929 ; infill
G1 X131.311 Y124.605 E0.01677 ; infill
G1 X93.051 Y86.345 E1.69929 ; infill
G1 X93.585 Y86.345 E0.01677 ; infill
G1 X131.845 Y124.605 E1.69929 ; infill
G1 X132.379 Y124.605 E0.01677 ; infill
G1 X94.119 Y86.345 E1.69929 ; infill
G1 X94.653 Y86.345 E0.01677 ; infill
G1 X132.913 Y124.605 E1.69929 ; infill
G1 X133.447 Y124.605 E0.01677 ; infill
G1 X95.187 Y86.345 E1.69929 ; infill
G1 X95.721 Y86.345 E0.01677 ; infill
G1 X133.982 Y124.605 E1.69929 ; infill
G1 X134.516 Y124.605 E0.01677 ; infill
G1 X96.255 Y86.345 E1.69929 ; infill
G1 X96.790 Y86.345 E0.01677 ; infill
G1 X135.050 Y124.605 E1.69929 ; infill
G1 X135.584 Y124.605 E0.01677 ; infill
G1 X97.324 Y86.345 E1.69929 ; infill
G1 X97.858 Y86.345 E0.01677 ; infill
G1 X136.118 Y124.605 E1.69929 ; infill
G1 X136.652 Y124.605 E0.01677 ; infill
G1 X98.392 Y86.345 E1.69929 ; infill
G1 X98.926 Y86.345 E0.01677 ; infill
G1 X137.186 Y124.605 E1.69929 ; infill
G1 X137.721 Y124.605 E0.01677 ; infill
G1 X99.460 Y86.345 E1.69929 ; infill
G1 X99.994 Y86.345 E0.01677 ; infill
G1 X138.255 Y124.605 E1.69929 ; infill
G1 X138.789 Y124.605 E0.01677 ; infill
G1 X100.529 Y86.345 E1.69929 ; infill
G1 X101.063 Y86.345 E0.01677 ; infill
G1 X139.323 Y124.605 E1.69929 ; infill
G1 X139.857 Y124.605 E0.01677 ; infill
G1 X101.597 Y86.345 E1.69929 ; infill
G1 X102.131 Y86.345 E0.01677 ; infill
G1 X140.391 Y124.605 E1.69929 ; infill
G1 X140.925 Y124.605 E0.01677 ; infill
G1 X102.665 Y86.345 E1.69929 ; infill
G1 X103.199 Y86.345 E0.01677 ; infill
G1 X141.460 Y124.605 E1.69929 ; infill
G1 X141.994 Y124.605 E0.01677 ; infill
G1 X103.733 Y86.345 E1.69929 ; infill
G1 X104.268 Y86.345 E0.01677 ; infill
G1 X142.528 Y124.605 E1.69929 ; infill
G1 X143.062 Y124.605 E0.01677 ; infill
G1 X104.802 Y86.345 E1.69929 ; infill
G1 X105.336 Y86.345 E0.01677 ; infill
G1 X143.596 Y124.605 E1.69929 ; infill
G1 X144.130 Y124.605 E0.01677 ; infill
G1 X105.870 Y86.345 E1.69929 ; infill
G1 X106.404 Y86.345 E0.01677 ; infill
G1 X144.664 Y124.605 E1.69929 ; infill
G1 X145.199 Y124.605 E0.01677 ; infill
G1 X106.938 Y86.345 E1.69929 ; infill
G1 X107.472 Y86.345 E0.01677 ; infill
G1 X145.733 Y124.605 E1.69929 ; infill
G1 X146.267 Y124.605 E0.01677 ; infill
G1 X108.007 Y86.345 E1.69929 ; infill
G1 X108.541 Y86.345 E0.01677 ; infill
G1 X146.801 Y124.605 E1.69929 ; infill
G1 X147.335 Y124.605 E0.01677 ; infill
G1 X109.075 Y86.345 E1.69929 ; infill
G1 X109.609 Y86.345 E0.01677 ; infill
G1 X147.869 Y124.605 E1.69929 ; infill
G1 X148.403 Y124.605 E0.01677 ; infill
G1 X110.143 Y86.345 E1.69929 ; infill
G1 X110.677 Y86.345 E0.01677 ; infill
G1 X148.938 Y124.605 E1.69929 ; infill
G1 X149.472 Y124.605 E0.01677 ; infill
G1 X111.211 Y86.345 E1.69929 ; infill
G1 X111.746 Y86.345 E0.01677 ; infill
G1 X150.006 Y124.605 E1.69929 ; infill
G1 X150.540 Y124.605 E0.01677 ; infill
G1 X112.280 Y86.345 E1.69929 ; infill
G1 X112.814 Y86.345 E0.01677 ; infill
G1 X151.074 Y124.605 E1.69929 ; infill
G1 X151.608 Y124.605 E0.01677 ; infill
G1 X113.348 Y86.345 E1.69929 ; infill
G1 X113.882 Y86.345 E0.01677 ; infill
G1 X152.142 Y124.605 E1.69929 ; infill
G1 X152.677 Y124.605 E0.01677 ; infill
G1 X114.416 Y86.345 E1.69929 ; infill
G1 X114.950 Y86.345 E0.01677 ; infill
G1 X153.211 Y124.605 E1.69929 ; infill
G1 X153.745 Y124.605 E0.01677 ; infill
G1 X115.485 Y86.345 E1.69929 ; infill
G1 X116.019 Y86.345 E0.01677 ; infill
G1 X154.279 Y124.605 E1.69929 ; infill
G1 X154.813 Y124.605 E0.01677 ; infill
G1 X116.553 Y86.345 E1.69929 ; infill
G1 X117.087 Y86.345 E0.01677 ; infill
G1 X155.347 Y124.605 E1.69929 ; infill
G1 X155.881 Y124.605 E0.01677 ; infill
G1 X117.621 Y86.345 E1.69929 ; infill
G1 X118.155 Y86.345 E0.01677 ; infill
G1 X156.415 Y124.605 E1.69929 ; infill
G1 X156.950 Y124.605 E0.01677 ; infill
G1 X118.689 Y86.345 E1.69929 ; infill
G1 X119.224 Y86.345 E0.01677 ; infill
G1 X157.484 Y124.605 E1.69929 ; infill
G1 X158.018 Y124.605 E0.01677 ; infill
G1 X119.758 Y86.345 E1.69929 ; infill
G1 X120.292 Y86.345 E0.01677 ; infill
G1 X158.552 Y124.605 E1.69929 ; infill
G1 X159.086 Y124.605 E0.01677 ; infill
G1 X120.826 Y86.345 E1.69929 ; infill
G1 X121.360 Y86.345 E0.01677 ; infill
G1 X159.620 Y124.605 E1.69929 ; infill
G1 X160.154 Y124.605 E0.01677 ; infill
G1 X121.894 Y86.345 E1.69929 ; infill
G1 X122.428 Y86.345 E0.01677 ; infill
G1 X160.689 Y124.605 E1.69929 ; infill
G1 X161.223 Y124.605 E0.01677 ; infill
G1 X122.962 Y86.345 E1.69929 ; infill
G1 X123.497 Y86.345 E0.01677 ; infill
G1 X161.757 Y124.605 E1.69929 ; infill
G1 X162.291 Y124.605 E0.01677 ; infill
G1 X124.031 Y86.345 E1.69929 ; infill
G1 X124.565 Y86.345 E0.01677 ; infill
G1 X162.825 Y124.605 E1.69929 ; infill
G1 X163.359 Y124.605 E0.01677 ; infill
G1 X125.099 Y86.345 E1.69929 ; infill
G1 X125.633 Y86.345 E0.01677 ; infill
G1 X163.893 Y124.605 E1.69929 ; infill
G1 X164.428 Y124.605 E0.01677 ; infill
G1 X126.167 Y86.345 E1.69929 ; infill
G1 X126.701 Y86.345 E0.01677 ; infill
G1 X164.962 Y124.605 E1.69929 ; infill
G1 X165.496 Y124.605 E0.01677 ; infill
G1 X127.236 Y86.345 E1.69929 ; infill
G1 X127.770 Y86.345 E0.01677 ; infill
G1 X166.030 Y124.605 E1.69929 ; infill
G1 X166.564 Y124.605 E0.01677 ; infill
G1 X128.304 Y86.345 E1.69929 ; infill
G1 X128.838 Y86.345 E0.01677 ; infill
